Fabs3007/Masterarbeit_Abgabe/Messungen/Roboter/Drei Profile (0.2, 0.4 und 0.6ms) zu Positionen 0.5, 1.2 und 2.4m, dann Rückfahrt mit 0.6ms/richard_capture_2023-08-28_15-51-39_ground_truth.csv
Rail.Time,Rail.Position,Bot.Time,Bot.TCP_pose_0,Bot.TCP_pose_1,Bot.TCP_pose_2,Bot.TCP_pose_3,Bot.TCP_pose_4,Bot.TCP_pose_5,Bot.TCP_speed_0,Bot.TCP_speed_1,Bot.TCP_speed_2,Bot.TCP_speed_3,Bot.TCP_speed_4,Bot.TCP_speed_5,Bot.actual_tool_accelerometer_0,Bot.actual_tool_accelerometer_1,Bot.actual_tool_accelerometer_2,Bot.actual_tool_accelerometer_3,Bot.actual_tool_accelerometer_4,Bot.actual_tool_accelerometer_5,Bot.actual_q_0,Bot.actual_q_1,Bot.actual_q_2,Bot.actual_q_3,Bot.actual_q_4,Bot.actual_q_5,Bot.actual_dq_0,Bot.actual_dq_1,Bot.actual_dq_2,Bot.actual_dq_3,Bot.actual_dq_4,Bot.actual_dq_5
0.006106000000,0.000010000000,10139.928000000000,-0.085885754422,-0.111213824475,0.323242975804,-0.000691385845,-0.002932918227,-2.352947285548,0.000004264997,-0.000003293678,0.000000000000,0.000000000000,0.000000000000,0.000038349521,-0.128864049911,-0.053943090141,8.873638153076,0.001498028170,-2.800936524068,2.777406454086,-1.547164742147,1.571208357811,-0.785238567983,0.000038349521,0.000000000000,-0.000000000000,0.000000000000,0.000000000000,0.000000000000
0.010944000000,0.000010000000,10139.936000000000,-0.085876451699,-0.111215933066,0.323254597184,-0.000731265644,-0.002949456041,-2.352935405163,0.000002843385,-0.000002195547,0.000000000000,0.000000000000,0.000000000000,0.000025566347,-0.104889340699,-0.035962060094,8.837676048279,0.001545590581,-2.800948444997,2.777382373810,-1.547152821218,1.571232318878,-0.785274330770,0.000025566347,0.000000000000,-0.000000000000,0.000000000000,0.000000000000,0.000000000000
0.018934000000,0.000010000000,10139.944000000000,-0.085881847402,-0.111214950880,0.323230127046,-0.000666620877,-0.002992512906,-2.352887783487,0.000002843360,-0.000002195685,0.000000000000,0.000000000000,0.000000000000,0.000025566347,-0.134857729077,-0.056939929724,8.846666336060,0.001545590581,-2.800948444997,2.777430295944,-1.547140900289,1.571244239807,-0.785226647054,0.000025566347,0.000000000000,-0.000000000000,0.000000000000,0.000000000000,0.000000000000
0.026934000000,0.000010000000,10139.951999999999,-0.085879658496,-0.111213899889,0.323222822419,-0.000694395644,-0.002981029826,-2.352923683594,0.000002843333,-0.000002195629,0.000000000000,0.000000000000,0.000000000000,0.000025566347,-0.113879859447,-0.029968382791,8.885625839233,0.001533606322,-2.800960365926,2.777454376221,-1.547176663076,1.571244239807,-0.785250488912,0.000025566347,0.000000000000,-0.000000000000,0.000000000000,0.000000000000,0.000000000000
0.034930000000,0.000010000000,10139.959999999999,-0.085876993362,-0.111209855987,0.323257885815,-0.000785117589,-0.002960276713,-2.352971037865,0.000002843230,-0.000002195561,0.000000000000,0.000000000000,0.000000000000,0.000025566347,-0.116876691580,-0.017981030047,8.951556205750,0.001498028170,-2.800960365926,2.777382373810,-1.547176663076,1.571256279945,-0.785262409841,0.000025566347,0.000000000000,-0.000000000000,0.000000000000,0.000000000000,0.000000000000
0.042932000000,0.000010000000,10139.967999999999,-0.085870056318,-0.111216914658,0.323250786097,-0.000740038460,-0.002929143638,-2.352899668470,0.000002843410,-0.000002195384,0.000000000000,0.000000000000,0.000000000000,0.000025566347,-0.131860882044,-0.044952575117,8.816698074341,0.001545590581,-2.800984684621,2.777394294739,-1.547140900289,1.571220278740,-0.785238567983,0.000025566347,0.000000000000,-0.000000000000,0.000000000000,0.000000000000,0.000000000000
0.050932000000,0.000010000000,10139.975999999999,-0.085874078902,-0.111215919726,0.323239161836,-0.000717526448,-0.002955036886,-2.352899707658,0.000002843385,-0.000002195487,0.000000000000,0.000000000000,0.000000000000,0.000025566347,-0.110883019865,-0.065930441022,8.816698074341,0.001545590581,-2.800972763692,2.777418375015,-1.547152821218,1.571232318878,-0.785238567983,0.000025566347,0.000000000000,-0.000000000000,0.000000000000,0.000000000000,0.000000000000
0.058925000000,0.000010000000,10139.984000000000,-0.085882310308,-0.111215855394,0.323241740855,-0.000677251298,-0.002938722918,-2.352959434265,0.000002843383,-0.000002195697,0.000000000000,0.000000000000,0.000000000000,0.000025566347,-0.089905150235,-0.032965220511,8.846666336060,0.001521622064,-2.800948444997,2.777406454086,-1.547140900289,1.571208357811,-0.785274330770,0.000025566347,0.000000000000,-0.000000000000,0.000000000000,0.000000000000,0.000000000000
0.066937000000,0.000010000000,10139.992000000000,-0.085878692152,-0.111216940334,0.323245294955,-0.000669270925,-0.002958403760,-2.352911558201,0.000002843411,-0.000002195604,0.000000000000,0.000000000000,0.000000000000,0.000025566347,-0.089905150235,-0.035962060094,8.924584388733,0.001545590581,-2.800960365926,2.777394294739,-1.547105137502,1.571220278740,-0.785250488912,0.000025566347,0.000000000000,-0.000000000000,0.000000000000,0.000000000000,0.000000000000
0.074930000000,0.000010000000,10140.000000000000,-0.085875875778,-0.111220006031,0.323232391966,-0.000682971109,-0.002952708688,-2.352875720703,0.000002843489,-0.000002195532,0.000000000000,0.000000000000,0.000000000000,0.000025566347,-0.107886180282,-0.047949414700,8.885625839233,0.001581543242,-2.800948444997,2.777430295944,-1.547164742147,1.571220278740,-0.785250488912,0.000025566347,0.000000000000,-0.000000000000,0.000000000000,0.000000000000,0.000000000000
0.082923000000,0.000010000000,10140.008000000000,-0.085879295151,-0.111218947969,0.323240609400,-0.000663183431,-0.002944484270,-2.352899629412,0.000002843462,-0.000002195620,0.000000000000,0.000000000000,0.000000000000,0.000025566347,-0.101892501116,-0.044952575117,8.804711341858,0.001557574724,-2.800948444997,2.777406454086,-1.547128979360,1.571208357811,-0.785250488912,0.000025566347,0.000000000000,-0.000000000000,0.000000000000,0.000000000000,0.000000000000
0.090928000000,0.000010000000,10140.016000000000,-0.085879064639,-0.111212831156,0.323250952108,-0.000739585759,-0.002929415080,-2.352935329614,0.000002843306,-0.000002195614,0.000000000000,0.000000000000,0.000000000000,0.000025566347,-0.113879859447,-0.035962060094,8.906603813171,0.001498028170,-2.800960365926,2.777394294739,-1.547164742147,1.571220278740,-0.785226647054,0.000025566347,0.000000000000,-0.000000000000,0.000000000000,0.000000000000,0.000000000000
0.098955000000,0.000010000000,10140.023999999999,-0.085884036234,-0.111213840292,0.323230025520,-0.000654997441,-0.002964302628,-2.352947595417,0.000002843332,-0.000002195741,0.000000000000,0.000000000000,0.000000000000,0.000025566347,-0.095898829401,-0.038958899677,8.879631996155,0.001509637921,-2.800960365926,2.777430295944,-1.547128979360,1.571220278740,-0.785250488912,0.000025566347,0.000000000000,-0.000000000000,0.000000000000,0.000000000000,0.000000000000
0.106927000000,0.000010000000,10140.031999999999,-0.085879301403,-0.111216970482,0.323240607424,-0.000674872864,-0.002972675086,-2.352863839339,0.000002843412,-0.000002195620,0.000000000000,0.000000000000,0.000000000000,0.000025566347,-0.179810300469,-0.020977867767,8.834679603577,0.001557574724,-2.800948444997,2.777406454086,-1.547128979360,1.571232318878,-0.785214726125,0.000025566347,0.000000000000,-0.000000000000,0.000000000000,0.000000000000,0.000000000000
0.114926000000,0.000010000000,10140.039999999999,-0.085876088210,-0.111216875254,0.323249821679,-0.000719648007,-0.002921194245,-2.352935518051,0.000002843409,-0.000002195538,0.000000000000,0.000000000000,0.000000000000,0.000025566347,-0.143848240376,-0.029968382791,8.849663734436,0.001533606322,-2.800960365926,2.777394294739,-1.547152821218,1.571208357811,-0.785262409841,0.000025566347,0.000000000000,-0.000000000000,0.000000000000,0.000000000000,0.000000000000
0.122919000000,0.000010000000,10140.047999999999,-0.085880503627,-0.111214894415,0.323226482031,-0.000674862455,-0.002972663072,-2.352911734255,0.000002843359,-0.000002195651,0.000000000000,0.000000000000,0.000000000000,0.000025566347,-0.110883019865,-0.038958899677,8.873638153076,0.001533606322,-2.800960365926,2.777442216873,-1.547152821218,1.571232318878,-0.785238567983,0.000025566347,0.000000000000,-0.000000000000,0.000000000000,0.000000000000,0.000000000000
0.130916000000,0.000010000000,10140.055999999999,-0.085884582630,-0.111219971902,0.323230440471,-0.000649171803,-0.002950294360,-2.352863885448,0.000002843488,-0.000002195755,0.000000000000,0.000000000000,0.000000000000,0.000025566347,-0.098895661533,-0.065930441022,8.840673446655,0.001569558983,-2.800912682210,2.777430295944,-1.547176663076,1.571208357811,-0.785226647054,0.000025566347,0.000000000000,-0.000000000000,0.000000000000,0.000000000000,0.000000000000
0.138921000000,0.000010000000,10140.064000000000,-0.085873657273,-0.111212933480,0.323270892382,-0.000771308097,-0.002965971280,-2.352935355074,0.000002843308,-0.000002195476,0.000000000000,0.000000000000,0.000000000000,0.000025566347,-0.134857729077,-0.026971545070,8.846666336060,0.001533606322,-2.800960365926,2.777346372604,-1.547128979360,1.571256279945,-0.785262409841,0.000025566347,0.000000000000,-0.000000000000,0.000000000000,0.000000000000,0.000000000000
0.146920000000,0.000010000000,10140.072000000000,-0.085879405376,-0.111219935874,0.323235936421,-0.000657362013,-0.002930270191,-2.352875832711,0.000002843487,-0.000002195623,0.000000000000,0.000000000000,0.000000000000,0.000025566347,-0.113879859447,-0.038958899677,8.879631996155,0.001557574724,-2.800948444997,2.777418375015,-1.547140900289,1.571196317673,-0.785226647054,0.000025566347,0.000000000000,-0.000000000000,0.000000000000,0.000000000000,0.000000000000
0.154916000000,0.000010000000,10140.080000000000,-0.085870018061,-0.111213792241,0.323243378640,-0.000762102699,-0.002903583458,-2.352947308531,0.000002843330,-0.000002195383,0.000000000000,0.000000000000,0.000000000000,0.000025566347,-0.131860882044,-0.008990515023,8.900609970093,0.001498028170,-2.801008526479,2.777418375015,-1.547164742147,1.571208357811,-0.785238567983,0.000025566347,0.000000000000,-0.000000000000,0.000000000000,0.000000000000,0.000000000000
0.162928000000,0.000010000000,10140.088000000000,-0.085893017164,-0.111213841614,0.323220988326,-0.000592558304,-0.002973675448,-2.352923464168,0.000002843332,-0.000002195971,0.000000000000,0.000000000000,0.000000000000,0.000025566347,-0.104889340699,-0.026971545070,8.855657577515,0.001498028170,-2.800936524068,2.777442216873,-1.547116581594,1.571208357811,-0.785214726125,0.000025566347,0.000000000000,-0.000000000000,0.000000000000,0.000000000000,0.000000000000
0.170924000000,0.000010000000,10140.096000000000,-0.085881448146,-0.111217914221,0.323241844361,-0.000677283510,-0.002938688308,-2.352887791941,0.000002843436,-0.000002195675,0.000000000000,0.000000000000,0.000000000000,0.000025566347,-0.110883019865,-0.044952575117,8.831682205200,0.001545590581,-2.800936524068,2.777406454086,-1.547152821218,1.571208357811,-0.785226647054,0.000025566347,0.000000000000,-0.000000000000,0.000000000000,0.000000000000,0.000000000000
0.178921000000,0.000010000000,10140.103999999999,-0.085883803219,-0.111213875021,0.323224219087,-0.000646815695,-0.002984246661,-2.352911776894,0.000002843333,-0.000002195735,0.000000000000,0.000000000000,0.000000000000,0.000025566347,-0.122870370746,-0.044952575117,8.873638153076,0.001521622064,-2.800960365926,2.777442216873,-1.547128979360,1.571232318878,-0.785226647054,0.000025566347,0.000000000000,-0.000000000000,0.000000000000,0.000000000000,0.000000000000
0.186926000000,0.000010000000,10140.111999999999,-0.085877605032,-0.111218941803,0.323235831918,-0.000663172303,-0.002944457270,-2.352899651079,0.000002843462,-0.000002195577,0.000000000000,0.000000000000,0.000000000000,0.000025566347,-0.137854561210,-0.032965220511,8.852660179138,0.001557574724,-2.800960365926,2.777418375015,-1.547128979360,1.571208357811,-0.785250488912,0.000025566347,0.000000000000,-0.000000000000,0.000000000000,0.000000000000,0.000000000000
0.194947000000,0.000010000000,10140.119999999999,-0.085888393331,-0.111213880623,0.323223294624,-0.000632757961,-0.002990103674,-2.352935627980,0.000002843333,-0.000002195852,0.000000000000,0.000000000000,0.000000000000,0.000025566347,-0.131860882044,-0.014984191395,8.864647865295,0.001521622064,-2.800936524068,2.777442216873,-1.547140900289,1.571232318878,-0.785250488912,0.000025566347,0.000000000000,-0.000000000000,0.000000000000,0.000000000000,0.000000000000
0.202915000000,0.000010000000,10140.127999999999,-0.085879642871,-0.111221000253,0.323230233527,-0.000649088931,-0.002950286877,-2.352887644259,0.000002843515,-0.000002195629,0.000000000000,0.000000000000,0.000000000000,0.000025566347,-0.146845072508,-0.041955735534,8.867644309998,0.001581543242,-2.800936524068,2.777430295944,-1.547152821218,1.571208357811,-0.785262409841,0.000025566347,0.000000000000,-0.000000000000,0.000000000000,0.000000000000,0.000000000000
0.210918000000,0.000010000000,10140.136000000000,-0.085875638528,-0.111214879061,0.323229813928,-0.000717587456,-0.002954988233,-2.352875515344,0.000002843358,-0.000002195526,0.000000000000,0.000000000000,0.000000000000,0.000025566347,-0.128864049911,-0.065930441022,8.873638153076,0.001533606322,-2.800972763692,2.777442216873,-1.547176663076,1.571232318878,-0.785202328359,0.000025566347,0.000000000000,-0.000000000000,0.000000000000,0.000000000000,0.000000000000
0.218920000000,0.000010000000,10140.144000000000,-0.085876284777,-0.111213917441,0.323242703357,-0.000709284201,-0.002974898420,-2.352923557368,0.000002843334,-0.000002195543,0.000000000000,0.000000000000,0.000000000000,0.000025566347,-0.092901989818,-0.083911471069,8.870641708374,0.001533606322,-2.800972763692,2.777406454086,-1.547128979360,1.571244239807,-0.785250488912,0.000025566347,0.000000000000,-0.000000000000,0.000000000000,0.000000000000,0.000000000000
0.226913000000,0.000010000000,10140.152000000000,-0.085880862102,-0.111214808945,0.323251057591,-0.000727920055,-0.002901232186,-2.352959209197,0.000002843356,-0.000002195660,0.000000000000,0.000000000000,0.000000000000,0.000025566347,-0.131860882044,-0.023974707350,8.870641708374,0.001498028170,-2.800948444997,2.777394294739,-1.547176663076,1.571196317673,-0.785250488912,0.000025566347,0.000000000000,-0.000000000000,0.000000000000,0.000000000000,0.000000000000
0.234919000000,0.000010000000,10140.160000000000,-0.085883170934,-0.111216882954,0.323230130023,-0.000649206220,-0.002950248403,-2.352899808532,0.000002843409,-0.000002195719,0.000000000000,0.000000000000,0.000000000000,0.000025566347,-0.143848240376,-0.011987353675,8.864647865295,0.001533606322,-2.800948444997,2.777430295944,-1.547140900289,1.571208357811,-0.785226647054,0.000025566347,0.000000000000,-0.000000000000,0.000000000000,0.000000000000,0.000000000000
0.242912000000,0.000010000000,10140.168000000000,-0.085882001389,-0.111217921679,0.323227763530,-0.000621080619,-0.002961828101,-2.352899714241,0.000002843436,-0.000002195689,0.000000000000,0.000000000000,0.000000000000,0.000025566347,-0.125867202878,-0.059936765581,8.897612571716,0.001545590581,-2.800960365926,2.777430295944,-1.547105137502,1.571208357811,-0.785238567983,0.000025566347,0.000000000000,-0.000000000000,0.000000000000,0.000000000000,0.000000000000
0.250908000000,0.000010000000,10140.175999999999,-0.085880000248,-0.111214902209,0.323242870321,-0.000702946658,-0.002961126445,-2.352923590893,0.000002843359,-0.000002195638,0.000000000000,0.000000000000,0.000000000000,0.000025566347,-0.104889340699,-0.056939929724,8.855657577515,0.001533606322,-2.800948444997,2.777406454086,-1.547152821218,1.571232318878,-0.785250488912,0.000025566347,0.000000000000,-0.000000000000,0.000000000000,0.000000000000,0.000000000000
0.258914000000,0.000010000000,10140.183999999999,-0.085866594136,-0.111213936960,0.323245785809,-0.000757278175,-0.002971585129,-2.352863398692,0.000002843334,-0.000002195295,0.000000000000,0.000000000000,0.000000000000,0.000025566347,-0.116876691580,-0.059936765581,8.870641708374,0.001545590581,-2.801008526479,2.777406454086,-1.547128979360,1.571256279945,-0.785202328359,0.000025566347,0.000000000000,-0.000000000000,0.000000000000,0.000000000000,0.000000000000
0.266910000000,0.000010000000,10140.191999999999,-0.085879725008,-0.111218776787,0.323248694070,-0.000682345704,-0.002870555796,-2.352971451841,0.000002843458,-0.000002195631,0.000000000000,0.000000000000,0.000000000000,0.000025566347,-0.101892501116,-0.035962060094,8.852660179138,0.001509637921,-2.800960365926,2.777394294739,-1.547140900289,1.571160435677,-0.785274330770,0.000025566347,0.000000000000,-0.000000000000,0.000000000000,0.000000000000,0.000000000000
0.274909000000,0.000010000000,10140.199999999999,-0.085888025855,-0.111217930480,0.323213831692,-0.000564090972,-0.002985350049,-2.352887823129,0.000002843436,-0.000002195843,0.000000000000,0.000000000000,0.000000000000,0.000025566347,-0.119873531163,-0.038958899677,8.882628440857,0.001545590581,-2.800948444997,2.777454376221,-1.547092739736,1.571208357811,-0.785226647054,0.000025566347,0.000000000000,-0.000000000000,0.000000000000,0.000000000000,0.000000000000
0.282912000000,0.000010000000,10140.207999999999,-0.085878881457,-0.111214903059,0.323248791813,-0.000717272073,-0.002955223023,-2.352923569054,0.000002843359,-0.000002195609,0.000000000000,0.000000000000,0.000000000000,0.000025566347,-0.122870370746,-0.050946250558,8.921587944031,0.001533606322,-2.800948444997,2.777394294739,-1.547152821218,1.571232318878,-0.785250488912,0.000025566347,0.000000000000,-0.000000000000,0.000000000000,0.000000000000,0.000000000000
0.290914000000,0.000010000000,10140.216000000000,-0.085878181161,-0.111217896171,0.323227615462,-0.000677258019,-0.002938626406,-2.352887866789,0.000002843435,-0.000002195591,0.000000000000,0.000000000000,0.000000000000,0.000025566347,-0.083911471069,-0.059936765581,8.837676048279,0.001545590581,-2.800960365926,2.777442216873,-1.547164742147,1.571208357811,-0.785226647054,0.000025566347,0.000000000000,-0.000000000000,0.000000000000,0.000000000000,0.000000000000
0.298938000000,0.000010000000,10140.224000000000,-0.085885218485,-0.111217924483,0.323239684926,-0.000649177298,-0.002950321622,-2.352911622788,0.000002843436,-0.000002195771,0.000000000000,0.000000000000,0.000000000000,0.000025566347,-0.104889340699,-0.041955735534,8.825689315796,0.001545590581,-2.800924603139,2.777406454086,-1.547140900289,1.571208357811,-0.785250488912,0.000025566347,0.000000000000,-0.000000000000,0.000000000000,0.000000000000,0.000000000000
0.306906000000,0.000010000000,10140.232000000000,-0.085883405225,-0.111218941005,0.323224428091,-0.000635083071,-0.002956081840,-2.352911633749,0.000002843462,-0.000002195725,0.000000000000,0.000000000000,0.000000000000,0.000025566347,-0.101892501116,-0.068927280605,8.864647865295,0.001557574724,-2.800936524068,2.777442216873,-1.547152821218,1.571208357811,-0.785262409841,0.000025566347,0.000000000000,-0.000000000000,0.000000000000,0.000000000000,0.000000000000
0.314912000000,0.000010000000,10140.240000000000,-0.085873608254,-0.111214890215,0.323239058265,-0.000717522368,-0.002955033088,-2.352923602977,0.000002843358,-0.000002195474,0.000000000000,0.000000000000,0.000000000000,0.000025566347,-0.128864049911,-0.029968382791,8.870641708374,0.001533606322,-2.800984684621,2.777418375015,-1.547140900289,1.571232318878,-0.785250488912,0.000025566347,0.000000000000,-0.000000000000,0.000000000000,0.000000000000,0.000000000000
0.322911000000,0.000010000000,10140.248000000000,-0.085879290430,-0.111215894672,0.323236962395,-0.000683060157,-0.002952700117,-2.352911695299,0.000002843384,-0.000002195620,0.000000000000,0.000000000000,0.000000000000,0.000025566347,-0.113879859447,-0.047949414700,8.849663734436,0.001533606322,-2.800960365926,2.777418375015,-1.547140900289,1.571220278740,-0.785238567983,0.000025566347,0.000000000000,-0.000000000000,0.000000000000,0.000000000000,0.000000000000
0.330920000000,0.000010000000,10140.255999999999,-0.085881326890,-0.111215850480,0.323242872297,-0.000691355506,-0.002932880565,-2.352911760906,0.000002843383,-0.000002195672,0.000000000000,0.000000000000,0.000000000000,0.000025566347,-0.122870370746,-0.011987353675,8.843669891357,0.001521622064,-2.800948444997,2.777406454086,-1.547152821218,1.571208357811,-0.785226647054,0.000025566347,0.000000000000,-0.000000000000,0.000000000000,0.000000000000,0.000000000000
0.338904000000,0.000010000000,10140.263999999999,-0.085888389046,-0.111214933345,0.323242210047,-0.000633023936,-0.002990046147,-2.352935448016,0.000002843360,-0.000002195852,0.000000000000,0.000000000000,0.000000000000,0.000025566347,-0.104889340699,-0.047949414700,8.861651420593,0.001533606322,-2.800924603139,2.777394294739,-1.547105137502,1.571232318878,-0.785262409841,0.000025566347,0.000000000000,-0.000000000000,0.000000000000,0.000000000000,0.000000000000
0.346903000000,0.000010000000,10140.271999999999,-0.085875638347,-0.111216833416,0.323244970159,-0.000714133193,-0.002906835107,-2.352911775561,0.000002843408,-0.000002195526,0.000000000000,0.000000000000,0.000000000000,0.000025566347,-0.128864049911,-0.035962060094,8.864647865295,0.001521622064,-2.800972763692,2.777406454086,-1.547152821218,1.571196317673,-0.785226647054,0.000025566347,0.000000000000,-0.000000000000,0.000000000000,0.000000000000,0.000000000000
0.354909000000,0.000010000000,10140.279999999999,-0.085880720754,-0.111214826714,0.323247558829,-0.000691635412,-0.002932768794,-2.352935624169,0.000002843357,-0.000002195656,0.000000000000,0.000000000000,0.000000000000,0.000025566347,-0.113879859447,-0.038958899677,8.882628440857,0.001509637921,-2.800960365926,2.777394294739,-1.547128979360,1.571208357811,-0.785238567983,0.000025566347,0.000000000000,-0.000000000000,0.000000000000,0.000000000000,0.000000000000
0.362911000000,0.000010000000,10140.287999999999,-0.085873836673,-0.111218925524,0.323233358429,-0.000691805084,-0.002932606947,-2.352899693465,0.000002843462,-0.000002195480,0.000000000000,0.000000000000,0.000000000000,0.000025566347,-0.125867202878,-0.020977867767,8.870641708374,0.001557574724,-2.800972763692,2.777430295944,-1.547152821218,1.571208357811,-0.785250488912,0.000025566347,0.000000000000,-0.000000000000,0.000000000000,0.000000000000,0.000000000000
0.370904000000,0.000010000000,10140.296000000000,-0.085901387589,-0.111215894731,0.323221595178,-0.000536919383,-0.002996725080,-2.352923676844,0.000000000000,0.000000000000,0.000000000000,0.000000000000,0.000000000000,0.000000000000,-0.119873531163,-0.038958899677,8.828685760498,0.001521622064,-2.800888840352,2.777430295944,-1.547105137502,1.571208357811,-0.785238567983,0.000000000000,0.000000000000,-0.000000000000,0.000000000000,0.000000000000,0.000000000000
0.378901000000,0.000010000000,10140.304000000000,-0.085877136355,-0.111217906267,0.323231095533,-0.000663757711,-0.002944189798,-2.352899735982,0.000000000000,0.000000000000,0.000000000000,0.000000000000,0.000000000000,0.000000000000,-0.122870370746,-0.053943090141,8.864647865295,0.001545590581,-2.800972763692,2.777430295944,-1.547128979360,1.571208357811,-0.785238567983,0.000000000000,0.000000000000,-0.000000000000,0.000000000000,0.000000000000,0.000000000000
0.386909000000,0.000010000000,10140.312000000000,-0.085882700351,-0.111215853356,0.323230026497,-0.000649169974,-0.002950267581,-2.352947545689,0.000000000000,0.000000000000,0.000000000000,0.000000000000,0.000000000000,0.000000000000,-0.101892501116,-0.062933601439,8.852660179138,0.001521622064,-2.800960365926,2.777430295944,-1.547128979360,1.571208357811,-0.785262409841,0.000000000000,0.000000000000,-0.000000000000,0.000000000000,0.000000000000,0.000000000000
0.394945000000,0.000010000000,10140.320000000000,-0.085879990926,-0.111217873358,0.323242873273,-0.000685486080,-0.002918694036,-2.352899790423,0.000000000000,0.000000000000,0.000000000000,0.000000000000,0.000000000000,0.000000000000,-0.131860882044,-0.008990515023,8.855657577515,0.001533606322,-2.800948444997,2.777406454086,-1.547152821218,1.571196317673,-0.785226647054,0.000000000000,0.000000000000,-0.000000000000,0.000000000000,0.000000000000,0.000000000000
0.402923000000,0.000010000000,10140.328000000000,-0.085887051187,-0.111217881073,0.323223297576,-0.000615262549,-0.002947679259,-2.352911763108,0.000000000000,0.000000000000,0.000000000000,0.000000000000,0.000000000000,0.000000000000,-0.122870370746,-0.014984191395,8.864647865295,0.001533606322,-2.800936524068,2.777442216873,-1.547140900289,1.571196317673,-0.785238567983,0.000000000000,0.000000000000,-0.000000000000,0.000000000000,0.000000000000,0.000000000000
0.410907000000,0.000010000000,10140.335999999999,-0.085888398129,-0.111216943954,0.323226941564,-0.000612887424,-0.002981700901,-2.352875878017,0.000000000000,0.000000000000,0.000000000000,0.000000000000,0.000000000000,0.000000000000,-0.140851408243,-0.023974707350,8.879631996155,0.001545590581,-2.800924603139,2.777430295944,-1.547128979360,1.571220278740,-0.785214726125,0.000000000000,0.000000000000,-0.000000000000,0.000000000000,0.000000000000,0.000000000000
0.418903000000,0.000010000000,10140.343999999999,-0.085879814419,-0.111211892913,0.323231091532,-0.000687080945,-0.003000648778,-2.352923649558,0.000000000000,0.000000000000,0.000000000000,0.000000000000,0.000000000000,0.000000000000,-0.131860882044,-0.068927280605,8.870641708374,0.001521622064,-2.800972763692,2.777430295944,-1.547128979360,1.571256279945,-0.785238567983,0.000000000000,0.000000000000,-0.000000000000,0.000000000000,0.000000000000,0.000000000000
0.426902000000,0.000010000000,10140.351999999999,-0.085887177334,-0.111215864719,0.323233776007,-0.000635163611,-0.002956097851,-2.352935602430,0.000000000000,0.000000000000,0.000000000000,0.000000000000,0.000000000000,0.000000000000,-0.116876691580,-0.059936765581,8.876635551453,0.001521622064,-2.800936524068,2.777418375015,-1.547128979360,1.571208357811,-0.785250488912,0.000000000000,0.000000000000,-0.000000000000,0.000000000000,0.000000000000,0.000000000000
0.434899000000,0.000010000000,10140.359999999999,-0.085871172211,-0.111217897646,0.323244865611,-0.000719921154,-0.002921004341,-2.352899704221,0.000000000000,0.000000000000,0.000000000000,0.000000000000,0.000000000000,0.000000000000,-0.119873531163,-0.044952575117,8.858654022217,0.001545590581,-2.800984684621,2.777406454086,-1.547140900289,1.571208357811,-0.785238567983,0.000000000000,0.000000000000,-0.000000000000,0.000000000000,0.000000000000,0.000000000000
0.442898000000,0.000010000000,10140.368000000000,-0.085888744538,-0.111216893536,0.323228074043,-0.000621123663,-0.002961889378,-2.352911728035,0.000000000000,0.000000000000,0.000000000000,0.000000000000,0.000000000000,0.000000000000,-0.116876691580,-0.017981030047,8.876635551453,0.001533606322,-2.800924603139,2.777430295944,-1.547140900289,1.571208357811,-0.785238567983,0.000000000000,0.000000000000,-0.000000000000,0.000000000000,0.000000000000,0.000000000000
0.450903000000,0.000010000000,10140.376000000000,-0.085877902824,-0.111217961234,0.323253570273,-0.000711410030,-0.002941048222,-2.352887672066,0.000000000000,0.000000000000,0.000000000000,0.000000000000,0.000000000000,0.000000000000,-0.140851408243,-0.053943090141,8.873638153076,0.001557574724,-2.800936524068,2.777382373810,-1.547152821218,1.571220278740,-0.785238567983,0.000000000000,0.000000000000,-0.000000000000,0.000000000000,0.000000000000,0.000000000000
0.458897000000,0.000010000000,10140.384000000000,-0.085885098568,-0.111217963347,0.323229204555,-0.000640918020,-0.002970128669,-2.352887756831,0.000000000000,0.000000000000,0.000000000000,0.000000000000,0.000000000000,0.000000000000,-0.104889340699,-0.041955735534,8.897612571716,0.001557574724,-2.800924603139,2.777430295944,-1.547152821218,1.571220278740,-0.785238567983,0.000000000000,0.000000000000,-0.000000000000,0.000000000000,0.000000000000,0.000000000000
0.466902000000,0.000010000000,10140.392000000000,-0.085869109252,-0.111216986263,0.323253258143,-0.000779723950,-0.002945823624,-2.352887632504,0.000000000000,0.000000000000,0.000000000000,0.000000000000,0.000000000000,0.000000000000,-0.134857729077,-0.038958899677,8.858654022217,0.001569558983,-2.800960365926,2.777394294739,-1.547189060842,1.571244239807,-0.785250488912,0.000000000000,0.000000000000,-0.000000000000,0.000000000000,0.000000000000,0.000000000000
0.474898000000,0.000010000000,10140.400000000000,-0.085890756764,-0.111214926098,0.323225763791,-0.000604105296,-0.003001949655,-2.352923600537,0.000000000000,0.000000000000,0.000000000000,0.000000000000,0.000000000000,0.000000000000,-0.110883019865,-0.041955735534,8.861651420593,0.001533606322,-2.800924603139,2.777430295944,-1.547116581594,1.571232318878,-0.785250488912,0.000000000000,0.000000000000,-0.000000000000,0.000000000000,0.000000000000,0.000000000000
0.482898000000,0.000010000000,10140.407999999999,-0.085884391699,-0.111217962130,0.323223295624,-0.000626881793,-0.002975885676,-2.352875847059,0.000000000000,0.000000000000,0.000000000000,0.000000000000,0.000000000000,0.000000000000,-0.119873531163,-0.053943090141,8.849663734436,0.001557574724,-2.800936524068,2.777442216873,-1.547140900289,1.571220278740,-0.785226647054,0.000000000000,0.000000000000,-0.000000000000,0.000000000000,0.000000000000,0.000000000000
0.490903000000,0.000010000000,10140.415999999999,-0.085888003624,-0.111213882662,0.323235008992,-0.000660903041,-0.002978512312,-2.352899832870,0.000000000000,0.000000000000,0.000000000000,0.000000000000,0.000000000000,0.000000000000,-0.134857729077,-0.032965220511,8.855657577515,0.001521622064,-2.800924603139,2.777418375015,-1.547152821218,1.571232318878,-0.785214726125,0.000000000000,0.000000000000,-0.000000000000,0.000000000000,0.000000000000,0.000000000000
0.498933000000,0.000010000000,10140.423999999999,-0.085883060711,-0.111215904889,0.323234803002,-0.000655017563,-0.002964287354,-2.352887842613,0.000000000000,0.000000000000,0.000000000000,0.000000000000,0.000000000000,0.000000000000,-0.122870370746,-0.008990515023,8.927581787109,0.001533606322,-2.800948444997,2.777418375015,-1.547128979360,1.571220278740,-0.785214726125,0.000000000000,0.000000000000,-0.000000000000,0.000000000000,0.000000000000,0.000000000000
0.506902000000,0.000010000000,10140.431999999999,-0.085879293547,-0.111214901009,0.323236961396,-0.000688926045,-0.002966871457,-2.352899760548,0.000000000000,0.000000000000,0.000000000000,0.000000000000,0.000000000000,0.000000000000,-0.107886180282,-0.029968382791,8.894616127014,0.001533606322,-2.800960365926,2.777418375015,-1.547140900289,1.571232318878,-0.785226647054,0.000000000000,0.000000000000,-0.000000000000,0.000000000000,0.000000000000,0.000000000000
0.514901000000,0.000010000000,10140.439999999999,-0.085888516311,-0.111212857939,0.323233774030,-0.000646841401,-0.002984316117,-2.352935638611,0.000000000000,0.000000000000,0.000000000000,0.000000000000,0.000000000000,0.000000000000,-0.107886180282,-0.041955735534,8.864647865295,0.001509637921,-2.800936524068,2.777418375015,-1.547128979360,1.571232318878,-0.785238567983,0.000000000000,0.000000000000,-0.000000000000,0.000000000000,0.000000000000,0.000000000000
0.522900000000,0.000010000000,10140.448000000000,-0.085876281547,-0.111217009663,0.323235828941,-0.000680553862,-0.002986745848,-2.352911467657,0.000000000000,0.000000000000,0.000000000000,0.000000000000,0.000000000000,0.000000000000,-0.128864049911,-0.053943090141,8.882628440857,0.001569558983,-2.800960365926,2.777418375015,-1.547128979360,1.571244239807,-0.785274330770,0.000000000000,0.000000000000,-0.000000000000,0.000000000000,0.000000000000,0.000000000000
0.530897000000,0.000010000000,10140.456000000000,-0.085883273577,-0.111211822548,0.323252186545,-0.000696907593,-0.002947058086,-2.352959172535,0.000000000000,0.000000000000,0.000000000000,0.000000000000,0.000000000000,0.000000000000,-0.119873531163,-0.059936765581,8.843669891357,0.001486043911,-2.800960365926,2.777382373810,-1.547116581594,1.571220278740,-0.785238567983,0.000000000000,0.000000000000,-0.000000000000,0.000000000000,0.000000000000,0.000000000000
0.538896000000,0.000010000000,10140.464000000000,-0.085875751575,-0.111218926147,0.323233420861,-0.000691251642,-0.002932858626,-2.352899703296,0.000000000000,0.000000000000,0.000000000000,0.000000000000,0.000000000000,0.000000000000,-0.107886180282,-0.071924120188,8.876635551453,0.001557574724,-2.800960365926,2.777430295944,-1.547164742147,1.571208357811,-0.785250488912,0.000000000000,0.000000000000,-0.000000000000,0.000000000000,0.000000000000,0.000000000000
0.546898000000,0.000010000000,10140.472000000000,-0.085883295137,-0.111217962938,0.323229101072,-0.000640926172,-0.002970098068,-2.352875826063,0.000000000000,0.000000000000,0.000000000000,0.000000000000,0.000000000000,0.000000000000,-0.098895661533,-0.077917799354,8.867644309998,0.001557574724,-2.800936524068,2.777430295944,-1.547140900289,1.571220278740,-0.785226647054,0.000000000000,0.000000000000,-0.000000000000,0.000000000000,0.000000000000,0.000000000000
0.554895000000,0.000010000000,10140.480000000000,-0.085877213276,-0.111214896917,0.323243898223,-0.000716995815,-0.002955299859,-2.352911670231,0.000000000000,0.000000000000,0.000000000000,0.000000000000,0.000000000000,0.000000000000,-0.107886180282,-0.038958899677,8.882628440857,0.001533606322,-2.800960365926,2.777406454086,-1.547152821218,1.571232318878,-0.785238567983,0.000000000000,0.000000000000,-0.000000000000,0.000000000000,0.000000000000,0.000000000000
0.562900000000,0.000010000000,10140.487999999999,-0.085883633642,-0.111215843025,0.323226587532,-0.000663215996,-0.002944483178,-2.352947597507,0.000000000000,0.000000000000,0.000000000000,0.000000000000,0.000000000000,0.000000000000,-0.128864049911,-0.026971545070,8.840673446655,0.001521622064,-2.800948444997,2.777442216873,-1.547164742147,1.571208357811,-0.785262409841,0.000000000000,0.000000000000,-0.000000000000,0.000000000000,0.000000000000,0.000000000000
0.570899000000,0.000010000000,10140.495999999999,-0.085883371171,-0.111215931363,0.323237271913,-0.000688930159,-0.002966925170,-2.352887805845,0.000000000000,0.000000000000,0.000000000000,0.000000000000,0.000000000000,0.000000000000,-0.119873531163,-0.062933601439,8.855657577515,0.001545590581,-2.800924603139,2.777418375015,-1.547176663076,1.571232318878,-0.785226647054,0.000000000000,0.000000000000,-0.000000000000,0.000000000000,0.000000000000,0.000000000000
0.578896000000,0.000010000000,10140.503999999999,-0.085880856169,-0.111214820935,0.323242768769,-0.000691351289,-0.002932876653,-2.352935656109,0.000000000000,0.000000000000,0.000000000000,0.000000000000,0.000000000000,0.000000000000,-0.119873531163,-0.017981030047,8.876635551453,0.001509637921,-2.800960365926,2.777406454086,-1.547140900289,1.571208357811,-0.785238567983,0.000000000000,0.000000000000,-0.000000000000,0.000000000000,0.000000000000,0.000000000000
0.586895000000,0.000010000000,10140.511999999999,-0.085880273835,-0.111215899598,0.323235830941,-0.000669034842,-0.002958484117,-2.352899764066,0.000000000000,0.000000000000,0.000000000000,0.000000000000,0.000000000000,0.000000000000,-0.119873531163,-0.026971545070,8.843669891357,0.001533606322,-2.800960365926,2.777418375015,-1.547128979360,1.571220278740,-0.785226647054,0.000000000000,0.000000000000,-0.000000000000,0.000000000000,0.000000000000,0.000000000000
0.594925000000,0.000010000000,10140.520000000000,-0.085883304530,-0.111214991788,0.323229098049,-0.000658369056,-0.003012541917,-2.352911547893,0.000000000000,0.000000000000,0.000000000000,0.000000000000,0.000000000000,0.000000000000,-0.131860882044,-0.047949414700,8.819695472717,0.001557574724,-2.800936524068,2.777430295944,-1.547140900289,1.571256279945,-0.785262409841,0.000000000000,0.000000000000,-0.000000000000,0.000000000000,0.000000000000,0.000000000000
0.602897000000,0.000010000000,10140.528000000000,-0.085881336145,-0.111212889168,0.323242869320,-0.000708758324,-0.002975172696,-2.352935561305,0.000000000000,0.000000000000,0.000000000000,0.000000000000,0.000000000000,0.000000000000,-0.125867202878,-0.029968382791,8.876635551453,0.001521622064,-2.800948444997,2.777406454086,-1.547152821218,1.571244239807,-0.785250488912,0.000000000000,0.000000000000,-0.000000000000,0.000000000000,0.000000000000,0.000000000000
0.610896000000,0.000010000000,10140.536000000000,-0.085878656413,-0.111214855636,0.323239225269,-0.000711193451,-0.002941088535,-2.352899858133,0.000000000000,0.000000000000,0.000000000000,0.000000000000,0.000000000000,0.000000000000,-0.128864049911,-0.026971545070,8.909600257874,0.001521622064,-2.800960365926,2.777418375015,-1.547164742147,1.571220278740,-0.785214726125,0.000000000000,0.000000000000,-0.000000000000,0.000000000000,0.000000000000,0.000000000000
0.618895000000,0.000010000000,10140.544000000000,-0.085869666023,-0.111219015055,0.323255625060,-0.000745302923,-0.002943583828,-2.352851768977,0.000000000000,0.000000000000,0.000000000000,0.000000000000,0.000000000000,0.000000000000,-0.140851408243,-0.023974707350,8.834679603577,0.001581543242,-2.800960365926,2.777382373810,-1.547152821218,1.571232318878,-0.785226647054,0.000000000000,0.000000000000,-0.000000000000,0.000000000000,0.000000000000,0.000000000000
0.626892000000,0.000010000000,10140.552000000000,-0.085884102947,-0.111216941496,0.323245605479,-0.000669278705,-0.002958472702,-2.352923508666,0.000000000000,0.000000000000,0.000000000000,0.000000000000,0.000000000000,0.000000000000,-0.101892501116,-0.050946250558,8.852660179138,0.001545590581,-2.800924603139,2.777394294739,-1.547140900289,1.571220278740,-0.785262409841,0.000000000000,0.000000000000,-0.000000000000,0.000000000000,0.000000000000,0.000000000000
0.634891000000,0.000010000000,10140.559999999999,-0.085883197691,-0.111215866282,0.323245354203,-0.000662995681,-0.002944596152,-2.352911707850,0.000000000000,0.000000000000,0.000000000000,0.000000000000,0.000000000000,0.000000000000,-0.110883019865,-0.050946250558,8.870641708374,0.001521622064,-2.800948444997,2.777394294739,-1.547116581594,1.571208357811,-0.785226647054,0.000000000000,0.000000000000,-0.000000000000,0.000000000000,0.000000000000,0.000000000000
0.642897000000,0.000010000000,10140.567999999999,-0.085876974165,-0.111216918926,0.323238093838,-0.000697097668,-0.002946889218,-2.352887800377,0.000000000000,0.000000000000,0.000000000000,0.000000000000,0.000000000000,0.000000000000,-0.107886180282,-0.041955735534,8.813701629639,0.001545590581,-2.800960365926,2.777418375015,-1.547152821218,1.571220278740,-0.785226647054,0.000000000000,0.000000000000,-0.000000000000,0.000000000000,0.000000000000,0.000000000000
0.650887000000,0.000010000000,10140.575999999999,-0.085881087308,-0.111212900706,0.323252333333,-0.000709077480,-0.002975048901,-2.352911656008,0.000000000000,0.000000000000,0.000000000000,0.000000000000,0.000000000000,0.000000000000,-0.113879859447,-0.029968382791,8.822691917419,0.001521622064,-2.800948444997,2.777382373810,-1.547128979360,1.571244239807,-0.785226647054,0.000000000000,0.000000000000,-0.000000000000,0.000000000000,0.000000000000,0.000000000000
0.658889000000,0.000010000000,10140.583999999999,-0.085873567273,-0.111215966451,0.323245028642,-0.000736805511,-0.002963528277,-2.352875776990,0.000000000000,0.000000000000,0.000000000000,0.000000000000,0.000000000000,0.000000000000,-0.116876691580,-0.011987353675,8.918590545654,0.001557574724,-2.800960365926,2.777406454086,-1.547164742147,1.571244239807,-0.785226647054,0.000000000000,0.000000000000,-0.000000000000,0.000000000000,0.000000000000,0.000000000000
0.666885000000,0.000010000000,10140.591999999999,-0.085877089076,-0.111220960106,0.323237067875,-0.000671368194,-0.002924482667,-2.352875779838,0.000000000000,0.000000000000,0.000000000000,0.000000000000,0.000000000000,0.000000000000,-0.122870370746,-0.041955735534,8.882628440857,0.001569558983,-2.800948444997,2.777418375015,-1.547152821218,1.571196317673,-0.785238567983,0.000000000000,0.000000000000,-0.000000000000,0.000000000000,0.000000000000,0.000000000000
0.674885000000,0.000010000000,10140.600000000000,-0.085876971350,-0.111213849897,0.323229813928,-0.000717559125,-0.002955027849,-2.352923739186,0.000000000000,0.000000000000,0.000000000000,0.000000000000,0.000000000000,0.000000000000,-0.107886180282,-0.056939929724,8.828685760498,0.001521622064,-2.800972763692,2.777442216873,-1.547176663076,1.571232318878,-0.785238567983,0.000000000000,0.000000000000,-0.000000000000,0.000000000000,0.000000000000,0.000000000000
0.682884000000,0.000010000000,10140.608000000000,-0.085877368907,-0.111219970180,0.323230026497,-0.000649108417,-0.002950240960,-2.352887687891,0.000000000000,0.000000000000,0.000000000000,0.000000000000,0.000000000000,0.000000000000,-0.128864049911,-0.035962060094,8.834679603577,0.001569558983,-2.800960365926,2.777430295944,-1.547128979360,1.571208357811,-0.785250488912,0.000000000000,0.000000000000,-0.000000000000,0.000000000000,0.000000000000,0.000000000000
0.690886000000,0.000010000000,10140.616000000000,-0.085886307210,-0.111215854044,0.323230233527,-0.000649201668,-0.002950294281,-2.352935644467,0.000000000000,0.000000000000,0.000000000000,0.000000000000,0.000000000000,0.000000000000,-0.110883019865,-0.047949414700,8.825689315796,0.001521622064,-2.800936524068,2.777430295944,-1.547152821218,1.571208357811,-0.785250488912,0.000000000000,0.000000000000,-0.000000000000,0.000000000000,0.000000000000,0.000000000000
0.698922000000,0.000010000000,10140.624000000000,-0.085888353029,-0.111212848457,0.323236140458,-0.000674947714,-0.002972731832,-2.352923748232,0.000000000000,0.000000000000,0.000000000000,0.000000000000,0.000000000000,0.000000000000,-0.122870370746,-0.071924120188,8.849663734436,0.001509637921,-2.800924603139,2.777418375015,-1.547164742147,1.571232318878,-0.785226647054,0.000000000000,0.000000000000,-0.000000000000,0.000000000000,0.000000000000,0.000000000000
0.706915000000,0.000010000000,10140.632000000000,-0.085886083721,-0.111214881741,0.323239580463,-0.000655000232,-0.002964352847,-2.352935567951,0.000000000000,0.000000000000,0.000000000000,0.000000000000,0.000000000000,0.000000000000,-0.113879859447,-0.035962060094,8.912597656250,0.001521622064,-2.800936524068,2.777406454086,-1.547128979360,1.571220278740,-0.785250488912,0.000000000000,0.000000000000,-0.000000000000,0.000000000000,0.000000000000,0.000000000000
0.714881000000,0.000010000000,10140.639999999999,-0.085883513927,-0.111212854452,0.323246528939,-0.000689244532,-0.002966809549,-2.352935596239,0.000000000000,0.000000000000,0.000000000000,0.000000000000,0.000000000000,0.000000000000,-0.140851408243,-0.035962060094,8.840673446655,0.001509637921,-2.800948444997,2.777394294739,-1.547128979360,1.571232318878,-0.785238567983,0.000000000000,0.000000000000,-0.000000000000,0.000000000000,0.000000000000,0.000000000000
0.722887000000,0.000010000000,10140.647999999999,-0.085872786510,-0.111219935241,0.323241472295,-0.000671896964,-0.002924227400,-2.352911544887,0.000000000000,0.000000000000,0.000000000000,0.000000000000,0.000000000000,0.000000000000,-0.089905150235,-0.044952575117,8.768749237061,0.001557574724,-2.800984684621,2.777406454086,-1.547105137502,1.571196317673,-0.785262409841,0.000000000000,0.000000000000,-0.000000000000,0.000000000000,0.000000000000,0.000000000000
0.730883000000,0.000010000000,10140.655999999999,-0.085886193956,-0.111215859805,0.323234907485,-0.000649252621,-0.002950267684,-2.352899850195,0.000000000000,0.000000000000,0.000000000000,0.000000000000,0.000000000000,0.000000000000,-0.101892501116,-0.086908310652,8.819695472717,0.001521622064,-2.800936524068,2.777418375015,-1.547140900289,1.571208357811,-0.785214726125,0.000000000000,0.000000000000,-0.000000000000,0.000000000000,0.000000000000,0.000000000000
0.738885000000,0.000010000000,10140.663999999999,-0.085886590209,-0.111215834529,0.323238347432,-0.000629344108,-0.002941895977,-2.352935637758,0.000000000000,0.000000000000,0.000000000000,0.000000000000,0.000000000000,0.000000000000,-0.119873531163,-0.092901989818,8.840673446655,0.001509637921,-2.800948444997,2.777406454086,-1.547105137502,1.571196317673,-0.785238567983,0.000000000000,0.000000000000,-0.000000000000,0.000000000000,0.000000000000,0.000000000000
0.746884000000,0.000010000000,10140.671999999999,-0.085889916251,-0.111214929985,0.323249353881,-0.000661141724,-0.002978489605,-2.352923536106,0.000000000000,0.000000000000,0.000000000000,0.000000000000,0.000000000000,0.000000000000,-0.107886180282,-0.032965220511,8.864647865295,0.001533606322,-2.800900761281,2.777382373810,-1.547140900289,1.571232318878,-0.785250488912,0.000000000000,0.000000000000,-0.000000000000,0.000000000000,0.000000000000,0.000000000000
0.754884000000,0.000010000000,10140.680000000000,-0.085893972953,-0.111211913651,0.323221236527,-0.000616316811,-0.003029970677,-2.352947520612,0.000000000000,0.000000000000,0.000000000000,0.000000000000,0.000000000000,0.000000000000,-0.089905150235,-0.023974707350,8.834679603577,0.001521622064,-2.800912682210,2.777442216873,-1.547140900289,1.571256279945,-0.785262409841,0.000000000000,0.000000000000,-0.000000000000,0.000000000000,0.000000000000,0.000000000000
0.762889000000,0.000010000000,10140.688000000000,-0.085886193956,-0.111215859805,0.323234907485,-0.000649236715,-0.002950279183,-2.352911771114,0.000000000000,0.000000000000,0.000000000000,0.000000000000,0.000000000000,0.000000000000,-0.146845072508,-0.035962060094,8.813701629639,0.001521622064,-2.800936524068,2.777418375015,-1.547140900289,1.571208357811,-0.785226647054,0.000000000000,0.000000000000,-0.000000000000,0.000000000000,0.000000000000,0.000000000000
0.770883000000,0.000010000000,10140.696000000000,-0.085870056318,-0.111216914658,0.323250786097,-0.000740054005,-0.002929131652,-2.352887747551,0.000000000000,0.000000000000,0.000000000000,0.000000000000,0.000000000000,0.000000000000,-0.122870370746,-0.035962060094,8.840673446655,0.001545590581,-2.800984684621,2.777394294739,-1.547140900289,1.571220278740,-0.785226647054,0.000000000000,0.000000000000,-0.000000000000,0.000000000000,0.000000000000,0.000000000000
0.778882000000,0.000010000000,10140.704000000000,-0.085874072674,-0.111217897213,0.323239163813,-0.000705868977,-0.002926822856,-2.352911656327,0.000000000000,0.000000000000,0.000000000000,0.000000000000,0.000000000000,0.000000000000,-0.113879859447,-0.059936765581,8.879631996155,0.001545590581,-2.800972763692,2.777418375015,-1.547152821218,1.571208357811,-0.785250488912,0.000000000000,0.000000000000,-0.000000000000,0.000000000000,0.000000000000,0.000000000000
0.786884000000,0.000010000000,10140.712000000000,-0.085879400709,-0.111216872737,0.323232289418,-0.000677296387,-0.002938626252,-2.352887898604,0.000000000000,0.000000000000,0.000000000000,0.000000000000,0.000000000000,0.000000000000,-0.095898829401,-0.032965220511,8.852660179138,0.001533606322,-2.800960365926,2.777430295944,-1.547152821218,1.571208357811,-0.785214726125,0.000000000000,0.000000000000,-0.000000000000,0.000000000000,0.000000000000,0.000000000000
0.794911000000,0.000010000000,10140.719999999999,-0.085881443330,-0.111214860894,0.323238197365,-0.000697160266,-0.002946903510,-2.352899857805,0.000000000000,0.000000000000,0.000000000000,0.000000000000,0.000000000000,0.000000000000,-0.122870370746,-0.035962060094,8.903606414795,0.001521622064,-2.800948444997,2.777418375015,-1.547164742147,1.571220278740,-0.785214726125,0.000000000000,0.000000000000,-0.000000000000,0.000000000000,0.000000000000,0.000000000000
0.802895000000,0.000010000000,10140.727999999999,-0.085880617083,-0.111216842951,0.323236964348,-0.000671453072,-0.002924466322,-2.352911785950,0.000000000000,0.000000000000,0.000000000000,0.000000000000,0.000000000000,0.000000000000,-0.149841919541,-0.038958899677,8.873638153076,0.001521622064,-2.800960365926,2.777418375015,-1.547140900289,1.571196317673,-0.785226647054,0.000000000000,0.000000000000,-0.000000000000,0.000000000000,0.000000000000,0.000000000000
0.810879000000,0.000010000000,10140.735999999999,-0.085890031336,-0.111214787315,0.323239583370,-0.000637622929,-0.002922095338,-2.352971186458,0.000000000000,0.000000000000,0.000000000000,0.000000000000,0.000000000000,0.000000000000,-0.125867202878,-0.029968382791,8.834679603577,0.001486043911,-2.800936524068,2.777406454086,-1.547128979360,1.571184396744,-0.785250488912,0.000000000000,0.000000000000,-0.000000000000,0.000000000000,0.000000000000,0.000000000000
0.818878000000,0.000010000000,10140.743999999999,-0.085889536110,-0.111216018602,0.323240004237,-0.000610189259,-0.003015888225,-2.352875691867,0.000000000000,0.000000000000,0.000000000000,0.000000000000,0.000000000000,0.000000000000,-0.095898829401,-0.038958899677,8.852660179138,0.001557574724,-2.800912682210,2.777394294739,-1.547092739736,1.571244239807,-0.785226647054,0.000000000000,0.000000000000,-0.000000000000,0.000000000000,0.000000000000,0.000000000000
0.826881000000,0.000010000000,10140.752000000000,-0.085879858685,-0.111216885472,0.323247662359,-0.000691635948,-0.002932757521,-2.352887823799,0.000000000000,0.000000000000,0.000000000000,0.000000000000,0.000000000000,0.000000000000,-0.113879859447,-0.065930441022,8.873638153076,0.001533606322,-2.800948444997,2.777394294739,-1.547140900289,1.571208357811,-0.785214726125,0.000000000000,0.000000000000,-0.000000000000,0.000000000000,0.000000000000,0.000000000000
0.834880000000,0.000010000000,10140.760000000000,-0.085888557420,-0.111216905253,0.323237376699,-0.000620552433,-0.002962148365,-2.352923585498,0.000000000000,0.000000000000,0.000000000000,0.000000000000,0.000000000000,0.000000000000,-0.134857729077,-0.041955735534,8.804711341858,0.001533606322,-2.800924603139,2.777406454086,-1.547116581594,1.571208357811,-0.785250488912,0.000000000000,0.000000000000,-0.000000000000,0.000000000000,0.000000000000,0.000000000000
0.842879000000,0.000010000000,10140.768000000000,-0.085883880805,-0.111215900329,0.323236037973,-0.000669034726,-0.002958533955,-2.352911704682,0.000000000000,0.000000000000,0.000000000000,0.000000000000,0.000000000000,0.000000000000,-0.128864049911,-0.017981030047,8.819695472717,0.001533606322,-2.800936524068,2.777418375015,-1.547152821218,1.571220278740,-0.785238567983,0.000000000000,0.000000000000,-0.000000000000,0.000000000000,0.000000000000,0.000000000000
0.850873000000,0.000010000000,10140.776000000000,-0.085883834795,-0.111220893414,0.323227824677,-0.000603066815,-0.002919647808,-2.352875921696,0.000000000000,0.000000000000,0.000000000000,0.000000000000,0.000000000000,0.000000000000,-0.131860882044,-0.008990515023,8.894616127014,0.001545590581,-2.800948444997,2.777430295944,-1.547116581594,1.571172356606,-0.785214726125,0.000000000000,0.000000000000,-0.000000000000,0.000000000000,0.000000000000,0.000000000000
0.858875000000,0.000010000000,10140.784000000000,-0.085865185463,-0.111217889039,0.323258751576,-0.000776396014,-0.002897678888,-2.352875829093,0.000000000000,0.000000000000,0.000000000000,0.000000000000,0.000000000000,0.000000000000,-0.104889340699,-0.035962060094,8.891619682312,0.001545590581,-2.800996605550,2.777382373810,-1.547152821218,1.571208357811,-0.785214726125,0.000000000000,0.000000000000,-0.000000000000,0.000000000000,0.000000000000,0.000000000000
0.866874000000,0.000010000000,10140.791999999999,-0.085882966459,-0.111212826287,0.323228893710,-0.000703521921,-0.002960889733,-2.352959575143,0.000000000000,0.000000000000,0.000000000000,0.000000000000,0.000000000000,0.000000000000,-0.122870370746,-0.056939929724,8.858654022217,0.001509637921,-2.800948444997,2.777442216873,-1.547189060842,1.571232318878,-0.785262409841,0.000000000000,0.000000000000,-0.000000000000,0.000000000000,0.000000000000,0.000000000000
0.874871000000,0.000010000000,10140.799999999999,-0.085881479141,-0.111216945658,0.323244267018,-0.000655253505,-0.002964206760,-2.352899636749,0.000000000000,0.000000000000,0.000000000000,0.000000000000,0.000000000000,0.000000000000,-0.110883019865,-0.068927280605,8.873638153076,0.001545590581,-2.800948444997,2.777394294739,-1.547105137502,1.571220278740,-0.785238567983,0.000000000000,0.000000000000,-0.000000000000,0.000000000000,0.000000000000,0.000000000000
0.882876000000,0.000010000000,10140.807999999999,-0.085877216362,-0.111213913093,0.323243897222,-0.000722787880,-0.002969342550,-2.352911656324,0.000000000000,0.000000000000,0.000000000000,0.000000000000,0.000000000000,0.000000000000,-0.119873531163,-0.017981030047,8.867644309998,0.001533606322,-2.800960365926,2.777406454086,-1.547152821218,1.571244239807,-0.785238567983,0.000000000000,0.000000000000,-0.000000000000,0.000000000000,0.000000000000,0.000000000000
0.890875000000,0.000010000000,10140.815999999999,-0.085871267740,-0.111213822104,0.323251813897,-0.000754130215,-0.002923338243,-2.352935621219,0.000000000000,0.000000000000,0.000000000000,0.000000000000,0.000000000000,0.000000000000,-0.101892501116,-0.026971545070,8.858654022217,0.001509637921,-2.800996605550,2.777394294739,-1.547140900289,1.571220278740,-0.785238567983,0.000000000000,0.000000000000,-0.000000000000,0.000000000000,0.000000000000,0.000000000000
0.898917000000,0.000010000000,10140.823999999999,-0.085875581718,-0.111215922370,0.323251054639,-0.000745335077,-0.002943628697,-2.352911604808,0.000000000000,0.000000000000,0.000000000000,0.000000000000,0.000000000000,0.000000000000,-0.134857729077,-0.035962060094,8.840673446655,0.001545590581,-2.800948444997,2.777394294739,-1.547176663076,1.571232318878,-0.785250488912,0.000000000000,0.000000000000,-0.000000000000,0.000000000000,0.000000000000,0.000000000000
0.906874000000,0.000010000000,10140.832000000000,-0.085870374689,-0.111216849198,0.323249494741,-0.000776128566,-0.002897832046,-2.352899817423,0.000000000000,0.000000000000,0.000000000000,0.000000000000,0.000000000000,0.000000000000,-0.137854561210,-0.053943090141,8.885625839233,0.001533606322,-2.800972763692,2.777406454086,-1.547200504933,1.571208357811,-0.785226647054,0.000000000000,0.000000000000,-0.000000000000,0.000000000000,0.000000000000,0.000000000000
0.914870000000,0.000010000000,10140.840000000000,-0.085879120860,-0.111217862673,0.323239330749,-0.000699523993,-0.002912890427,-2.352899832258,0.000000000000,0.000000000000,0.000000000000,0.000000000000,0.000000000000,0.000000000000,-0.077917799354,-0.053943090141,8.876635551453,0.001533606322,-2.800948444997,2.777418375015,-1.547176663076,1.571196317673,-0.785226647054,0.000000000000,0.000000000000,-0.000000000000,0.000000000000,0.000000000000,0.000000000000
0.922870000000,0.000010000000,10140.848000000000,-0.085876566831,-0.111219974234,0.323253571251,-0.000705583170,-0.002927013928,-2.352887622506,0.000000000000,0.000000000000,0.000000000000,0.000000000000,0.000000000000,0.000000000000,-0.128864049911,-0.035962060094,8.834679603577,0.001569558983,-2.800936524068,2.777382373810,-1.547152821218,1.571208357811,-0.785250488912,0.000000000000,0.000000000000,-0.000000000000,0.000000000000,0.000000000000,0.000000000000
0.930866000000,0.000010000000,10140.856000000000,-0.085886083721,-0.111214881741,0.323239580463,-0.000655000232,-0.002964352847,-2.352935567951,0.000000000000,0.000000000000,0.000000000000,0.000000000000,0.000000000000,0.000000000000,-0.140851408243,-0.038958899677,8.843669891357,0.001521622064,-2.800936524068,2.777406454086,-1.547128979360,1.571220278740,-0.785250488912,0.000000000000,0.000000000000,-0.000000000000,0.000000000000,0.000000000000,0.000000000000
0.938871000000,0.000010000000,10140.864000000000,-0.085877771185,-0.111213887085,0.323269866546,-0.000745636820,-0.002943575030,-2.352959288650,0.000000000000,0.000000000000,0.000000000000,0.000000000000,0.000000000000,0.000000000000,-0.113879859447,-0.044952575117,8.891619682312,0.001521622064,-2.800948444997,2.777346372604,-1.547128979360,1.571232318878,-0.785274330770,0.000000000000,0.000000000000,-0.000000000000,0.000000000000,0.000000000000,0.000000000000
0.946868000000,0.000010000000,10140.871999999999,-0.085880895712,-0.111216840703,0.323225291087,-0.000643901905,-0.002935801868,-2.352923739097,0.000000000000,0.000000000000,0.000000000000,0.000000000000,0.000000000000,0.000000000000,-0.113879859447,-0.035962060094,8.864647865295,0.001521622064,-2.800972763692,2.777442216873,-1.547128979360,1.571196317673,-0.785238567983,0.000000000000,0.000000000000,-0.000000000000,0.000000000000,0.000000000000,0.000000000000
0.954870000000,0.000010000000,10140.879999999999,-0.085889539010,-0.111212863037,0.323232597281,-0.000632238529,-0.002990343787,-2.352935627743,0.000000000000,0.000000000000,0.000000000000,0.000000000000,0.000000000000,0.000000000000,-0.092901989818,-0.050946250558,8.846666336060,0.001509637921,-2.800936524068,2.777418375015,-1.547116581594,1.571232318878,-0.785238567983,0.000000000000,0.000000000000,-0.000000000000,0.000000000000,0.000000000000,0.000000000000
0.962869000000,0.000010000000,10140.887999999999,-0.085882520657,-0.111215990189,0.323227818818,-0.000637908504,-0.003004366674,-2.352911541009,0.000000000000,0.000000000000,0.000000000000,0.000000000000,0.000000000000,0.000000000000,-0.107886180282,-0.041955735534,8.825689315796,0.001557574724,-2.800948444997,2.777430295944,-1.547116581594,1.571244239807,-0.785262409841,0.000000000000,0.000000000000,-0.000000000000,0.000000000000,0.000000000000,0.000000000000
0.970869000000,0.000010000000,10140.895999999999,-0.085882868486,-0.111212853448,0.323240458637,-0.000674365619,-0.002972914269,-2.352923686759,0.000000000000,0.000000000000,0.000000000000,0.000000000000,0.000000000000,0.000000000000,-0.122870370746,-0.059936765581,8.810704231262,0.001509637921,-2.800960365926,2.777406454086,-1.547116581594,1.571232318878,-0.785226647054,0.000000000000,0.000000000000,-0.000000000000,0.000000000000,0.000000000000,0.000000000000
0.978865000000,0.000010000000,10140.903999999999,-0.085872860636,-0.111213857008,0.323245995042,-0.000745612142,-0.002943465089,-2.352947496629,0.000000000000,0.000000000000,0.000000000000,0.000000000000,0.000000000000,0.000000000000,-0.137854561210,-0.035962060094,8.879631996155,0.001521622064,-2.800984684621,2.777406454086,-1.547152821218,1.571232318878,-0.785262409841,0.000000000000,0.000000000000,-0.000000000000,0.000000000000,0.000000000000,0.000000000000
0.986867000000,0.000010000000,10140.912000000000,-0.085888233618,-0.111214831707,0.323240816392,-0.000663276692,-0.002944537195,-2.352947585872,0.000000000000,0.000000000000,0.000000000000,0.000000000000,0.000000000000,0.000000000000,-0.134857729077,-0.023974707350,8.909600257874,0.001509637921,-2.800924603139,2.777406454086,-1.547152821218,1.571208357811,-0.785250488912,0.000000000000,0.000000000000,-0.000000000000,0.000000000000,0.000000000000,0.000000000000
0.994873000000,0.000010000000,10140.920000000000,-0.085883641506,-0.111217912579,0.323230233527,-0.000649178842,-0.002950275221,-2.352899755051,0.000000000000,0.000000000000,0.000000000000,0.000000000000,0.000000000000,0.000000000000,-0.107886180282,-0.029968382791,8.897612571716,0.001545590581,-2.800936524068,2.777430295944,-1.547152821218,1.571208357811,-0.785238567983,0.000000000000,0.000000000000,-0.000000000000,0.000000000000,0.000000000000,0.000000000000
1.002896000000,0.000010000000,10140.928000000000,-0.085873938096,-0.111214816915,0.323255461022,-0.000734323334,-0.002915106470,-2.352923682581,0.000000000000,0.000000000000,0.000000000000,0.000000000000,0.000000000000,0.000000000000,-0.116876691580,-0.041955735534,8.831682205200,0.001509637921,-2.800984684621,2.777382373810,-1.547128979360,1.571208357811,-0.785226647054,0.000000000000,0.000000000000,-0.000000000000,0.000000000000,0.000000000000,0.000000000000
1.010868000000,0.000010000000,10140.936000000000,-0.085889726128,-0.111212851316,0.323223294624,-0.000632777523,-0.002990107656,-2.352947612112,0.000000000000,0.000000000000,0.000000000000,0.000000000000,0.000000000000,0.000000000000,-0.113879859447,-0.062933601439,8.795720100403,0.001509637921,-2.800936524068,2.777442216873,-1.547140900289,1.571232318878,-0.785250488912,0.000000000000,0.000000000000,-0.000000000000,0.000000000000,0.000000000000,0.000000000000
1.018865000000,0.000010000000,10140.944000000000,-0.085883055936,-0.111212841728,0.323231155987,-0.000674904824,-0.002972678342,-2.352935671120,0.000000000000,0.000000000000,0.000000000000,0.000000000000,0.000000000000,0.000000000000,-0.122870370746,-0.038958899677,8.864647865295,0.001509637921,-2.800960365926,2.777430295944,-1.547140900289,1.571232318878,-0.785238567983,0.000000000000,0.000000000000,-0.000000000000,0.000000000000,0.000000000000,0.000000000000
1.026870000000,0.000010000000,10140.951999999999,-0.085878659519,-0.111213861974,0.323239224270,-0.000717043675,-0.002955271512,-2.352899844157,0.000000000000,0.000000000000,0.000000000000,0.000000000000,0.000000000000,0.000000000000,-0.125867202878,-0.041955735534,8.945562362671,0.001521622064,-2.800960365926,2.777418375015,-1.547164742147,1.571232318878,-0.785214726125,0.000000000000,0.000000000000,-0.000000000000,0.000000000000,0.000000000000,0.000000000000
1.034863000000,0.000010000000,10140.959999999999,-0.085878704900,-0.111217957171,0.323230025520,-0.000654967504,-0.002964252791,-2.352863895899,0.000000000000,0.000000000000,0.000000000000,0.000000000000,0.000000000000,0.000000000000,-0.125867202878,-0.038958899677,8.888622283936,0.001557574724,-2.800960365926,2.777430295944,-1.547128979360,1.571220278740,-0.785214726125,0.000000000000,0.000000000000,-0.000000000000,0.000000000000,0.000000000000,0.000000000000
1.042862000000,0.000010000000,10140.967999999999,-0.085888106285,-0.111210778850,0.323225351564,-0.000655036020,-0.002964317525,-2.352995126090,0.000000000000,0.000000000000,0.000000000000,0.000000000000,0.000000000000,0.000000000000,-0.110883019865,-0.065930441022,8.864647865295,0.001474059653,-2.800960365926,2.777442216873,-1.547140900289,1.571220278740,-0.785262409841,0.000000000000,0.000000000000,-0.000000000000,0.000000000000,0.000000000000,0.000000000000
1.050865000000,0.000010000000,10140.975999999999,-0.085878714485,-0.111212887423,0.323236897962,-0.000695243378,-0.002980701526,-2.352947483951,0.000000000000,0.000000000000,0.000000000000,0.000000000000,0.000000000000,0.000000000000,-0.137854561210,-0.062933601439,8.819695472717,0.001521622064,-2.800972763692,2.777418375015,-1.547128979360,1.571244239807,-0.785262409841,0.000000000000,0.000000000000,-0.000000000000,0.000000000000,0.000000000000,0.000000000000
1.058864000000,0.000010000000,10140.984000000000,-0.085888510154,-0.111214835427,0.323233776007,-0.000635166998,-0.002956113161,-2.352959507481,0.000000000000,0.000000000000,0.000000000000,0.000000000000,0.000000000000,0.000000000000,-0.125867202878,-0.014984191395,8.873638153076,0.001509637921,-2.800936524068,2.777418375015,-1.547128979360,1.571208357811,-0.785262409841,0.000000000000,0.000000000000,-0.000000000000,0.000000000000,0.000000000000,0.000000000000
1.066867000000,0.000040000000,10140.992000000000,-0.085880348104,-0.111216954427,0.323232494471,-0.000688899461,-0.002966894584,-2.352875843379,0.000000000000,0.000000000000,0.000000000000,0.000000000000,0.000000000000,0.000000000000,-0.119873531163,-0.038958899677,8.924584388733,0.001557574724,-2.800936524068,2.777430295944,-1.547176663076,1.571232318878,-0.785226647054,0.000000000000,0.000000000000,-0.000000000000,0.000000000000,0.000000000000,0.000000000000
1.074863000000,0.000110000000,10141.000000000000,-0.085881451244,-0.111216930396,0.323241843384,-0.000683059711,-0.002952742635,-2.352899699233,0.000000000000,0.000000000000,0.000000000000,0.000000000000,0.000000000000,0.000000000000,-0.029968382791,0.071924120188,8.903606414795,0.001545590581,-2.800936524068,2.777406454086,-1.547152821218,1.571220278740,-0.785238567983,0.000000000000,0.000000000000,-0.000000000000,0.000000000000,0.000000000000,0.000000000000
1.082862000000,0.000250000000,10141.008000000000,-0.085874065887,-0.111217011267,0.323247555851,-0.000708971773,-0.002975019876,-2.352875661716,0.000000000000,0.000000000000,0.000000000000,0.000000000000,0.000000000000,0.000000000000,0.548421442509,0.629336059093,8.840673446655,0.001569558983,-2.800960365926,2.777394294739,-1.547128979360,1.571244239807,-0.785238567983,0.000000000000,0.000000000000,-0.000000000000,0.000000000000,0.000000000000,0.000000000000
1.090859000000,0.000440000000,10141.016000000000,-0.085862030517,-0.111218101917,0.323263627670,-0.000805360772,-0.002968229080,-2.352839666489,0.000000000000,0.000000000000,0.000000000000,0.000000000000,0.000000000000,0.000000000000,0.958988249302,1.006937623024,8.789727210999,0.001605511643,-2.800972763692,2.777370452881,-1.547164742147,1.571268200874,-0.785238567983,0.000000000000,0.000000000000,-0.000000000000,0.000000000000,0.000000000000,0.000000000000
1.098888000000,0.000680000000,10141.023999999999,-0.085875367703,-0.111216950684,0.323245133171,-0.000731005780,-0.002949516745,-2.352887721736,0.000000000000,0.000000000000,0.000000000000,0.000000000000,0.000000000000,0.000000000000,0.716244339943,0.779177963734,8.801713943481,0.001557574724,-2.800948444997,2.777406454086,-1.547176663076,1.571232318878,-0.785238567983,0.000000000000,0.000000000000,-0.000000000000,0.000000000000,0.000000000000,0.000000000000
1.106860000000,0.000930000000,10141.031999999999,-0.085876978864,-0.111219972199,0.323241740855,-0.000677221113,-0.002938673681,-2.352875734630,0.000000000000,0.000000000000,0.000000000000,0.000000000000,0.000000000000,0.000000000000,-0.056939929724,-0.002996838419,8.930578231812,0.001569558983,-2.800948444997,2.777406454086,-1.547140900289,1.571208357811,-0.785238567983,0.000000000000,0.000000000000,-0.000000000000,0.000000000000,0.000000000000,0.000000000000
1.114860000000,0.001190000000,10141.039999999999,-0.085876115087,-0.111217983996,0.323238196366,-0.000702900544,-0.002961096238,-2.352875748860,0.000000000000,0.000000000000,0.000000000000,0.000000000000,0.000000000000,0.000000000000,-0.089905150235,0.020977867767,8.933574676514,0.001569558983,-2.800948444997,2.777418375015,-1.547164742147,1.571232318878,-0.785238567983,0.000000000000,0.000000000000,-0.000000000000,0.000000000000,0.000000000000,0.000000000000
1.122862000000,0.001500000000,10141.047999999999,-0.085883418040,-0.111216940271,0.323239580463,-0.000654977276,-0.002964333713,-2.352899678535,0.000000000000,0.000000000000,0.000000000000,0.000000000000,0.000000000000,0.000000000000,0.077917799354,0.134857729077,8.867644309998,0.001545590581,-2.800936524068,2.777406454086,-1.547128979360,1.571220278740,-0.785238567983,0.000000000000,0.000000000000,-0.000000000000,0.000000000000,0.000000000000,0.000000000000
1.130861000000,0.001850000000,10141.055999999999,-0.085872574468,-0.111221084166,0.323253569274,-0.000717197284,-0.002955205879,-2.352827800291,0.000000000000,0.000000000000,0.000000000000,0.000000000000,0.000000000000,0.000000000000,0.317664861679,0.455519437790,8.801713943481,0.001605511643,-2.800936524068,2.777382373810,-1.547152821218,1.571232318878,-0.785226647054,0.000000000000,0.000000000000,-0.000000000000,0.000000000000,0.000000000000,0.000000000000
1.138857000000,0.002240000000,10141.064000000000,-0.085878288532,-0.111215064834,0.323243073217,-0.000726182499,-0.003017590443,-2.352863696758,0.000000000000,0.000000000000,0.000000000000,0.000000000000,0.000000000000,0.000000000000,0.491481482983,0.611355006695,8.879631996155,0.001581543242,-2.800924603139,2.777406454086,-1.547176663076,1.571280241013,-0.785238567983,0.000000000000,0.000000000000,-0.000000000000,0.000000000000,0.000000000000,0.000000000000
1.146857000000,0.002680000000,10141.072000000000,-0.085868512747,-0.111217978322,0.323244863635,-0.000731476795,-0.002949259540,-2.352911470703,0.000000000000,0.000000000000,0.000000000000,0.000000000000,0.000000000000,0.000000000000,0.530440390110,0.668294966221,8.864647865295,0.001569558983,-2.800984684621,2.777406454086,-1.547140900289,1.571232318878,-0.785274330770,0.000000000000,0.000000000000,-0.000000000000,0.000000000000,0.000000000000,0.000000000000
1.154856000000,0.003150000000,10141.080000000000,-0.085868921468,-0.111216997971,0.323262560788,-0.000779184309,-0.002946058974,-2.352875648165,0.000000000000,0.000000000000,0.000000000000,0.000000000000,0.000000000000,0.000000000000,0.221766039729,0.341639578342,8.927581787109,0.001569558983,-2.800960365926,2.777370452881,-1.547164742147,1.571244239807,-0.785238567983,0.000000000000,0.000000000000,-0.000000000000,0.000000000000,0.000000000000,0.000000000000
1.162858000000,0.003650000000,10141.088000000000,-0.085873899485,-0.111217985600,0.323249923232,-0.000731238951,-0.002949429581,-2.352899547379,0.000000000000,0.000000000000,0.000000000000,0.000000000000,0.000000000000,0.000000000000,0.125867202878,0.251734405756,8.846666336060,0.001569558983,-2.800948444997,2.777394294739,-1.547164742147,1.571232318878,-0.785262409841,0.000000000000,0.000000000000,-0.000000000000,0.000000000000,0.000000000000,0.000000000000
1.170855000000,0.004190000000,10141.096000000000,-0.085871934124,-0.111222022566,0.323255834077,-0.000733642466,-0.002915405105,-2.352851753379,0.000000000000,0.000000000000,0.000000000000,0.000000000000,0.000000000000,0.000000000000,0.260724931955,0.329652220011,8.840673446655,0.001593527501,-2.800936524068,2.777382373810,-1.547176663076,1.571208357811,-0.785238567983,0.000000000000,0.000000000000,-0.000000000000,0.000000000000,0.000000000000,0.000000000000
1.178854000000,0.004770000000,10141.103999999999,-0.085872623434,-0.111217971408,0.323228682498,-0.000703455451,-0.002960797809,-2.352863871286,0.000000000000,0.000000000000,0.000000000000,0.000000000000,0.000000000000,0.000000000000,0.332649052143,0.347633242607,8.864647865295,0.001569558983,-2.800972763692,2.777442216873,-1.547164742147,1.571232318878,-0.785226647054,0.000000000000,0.000000000000,-0.000000000000,0.000000000000,0.000000000000,0.000000000000
1.186859000000,0.005390000000,10141.111999999999,-0.085868609825,-0.111217949485,0.323255460045,-0.000740037762,-0.002929136372,-2.352875731903,0.000000000000,0.000000000000,0.000000000000,0.000000000000,0.000000000000,0.000000000000,0.281702816486,0.224762871861,8.924584388733,0.001557574724,-2.800984684621,2.777382373810,-1.547128979360,1.571220278740,-0.785226647054,0.000000000000,0.000000000000,-0.000000000000,0.000000000000,0.000000000000,0.000000000000
1.194856000000,0.006050000000,10141.119999999999,-0.085864175080,-0.111219051871,0.323269497468,-0.000807230605,-0.002934470609,-2.352851667466,0.000000000000,0.000000000000,0.000000000000,0.000000000000,0.000000000000,0.000000000000,0.383595317602,0.407570004463,8.906603813171,0.001593527501,-2.800960365926,2.777358531952,-1.547176663076,1.571244239807,-0.785238567983,0.000000000000,0.000000000000,-0.000000000000,0.000000000000,0.000000000000,0.000000000000
1.202876000000,0.006750000000,10141.127999999999,-0.085878941152,-0.111214820404,0.323242706334,-0.000691920418,-0.002932613247,-2.352923725359,0.000000000000,0.000000000000,0.000000000000,0.000000000000,0.000000000000,0.000000000000,0.383595317602,0.569399297237,8.876635551453,0.001509637921,-2.800972763692,2.777406454086,-1.547128979360,1.571208357811,-0.785226647054,0.000000000000,0.000000000000,-0.000000000000,0.000000000000,0.000000000000,0.000000000000
1.210857000000,0.007480000000,10141.136000000000,-0.085865999955,-0.111217015232,0.323248404624,-0.000785854324,-0.002959835316,-2.352851814108,0.000000000000,0.000000000000,0.000000000000,0.000000000000,0.000000000000,0.000000000000,0.083911471069,0.365614265203,8.879631996155,0.001581543242,-2.800972763692,2.777406454086,-1.547189060842,1.571256279945,-0.785226647054,0.000000000000,0.000000000000,-0.000000000000,0.000000000000,0.000000000000,0.000000000000
1.218854000000,0.008250000000,10141.144000000000,-0.085873343761,-0.111210931514,0.323246094519,-0.000768899899,-0.002999920851,-2.352923544406,0.000000000000,0.000000000000,0.000000000000,0.000000000000,0.000000000000,0.000000000000,0.218769192696,0.407570004463,8.837676048279,0.001533606322,-2.800972763692,2.777406454086,-1.547164742147,1.571280241013,-0.785250488912,0.000000000000,0.000000000000,-0.000000000000,0.000000000000,0.000000000000,0.000000000000
1.226850000000,0.009050000000,10141.152000000000,-0.085891066915,-0.111213891642,0.323226940565,-0.000618744055,-0.002995914908,-2.352923674877,0.000000000000,0.000000000000,0.000000000000,0.000000000000,0.000000000000,0.000000000000,0.275709122419,0.476497292519,8.882628440857,0.001521622064,-2.800924603139,2.777430295944,-1.547128979360,1.571232318878,-0.785238567983,0.000000000000,0.000000000000,-0.000000000000,0.000000000000,0.000000000000,0.000000000000
1.234852000000,0.009900000000,10141.160000000000,-0.085876588835,-0.111218029777,0.323238298870,-0.000708696436,-0.002975142618,-2.352851839705,0.000000000000,0.000000000000,0.000000000000,0.000000000000,0.000000000000,0.000000000000,0.242743909359,0.386592149734,8.924584388733,0.001581543242,-2.800936524068,2.777418375015,-1.547176663076,1.571244239807,-0.785226647054,0.000000000000,0.000000000000,-0.000000000000,0.000000000000,0.000000000000,0.000000000000
1.242852000000,0.010780000000,10141.168000000000,-0.085874201303,-0.111217005496,0.323242765791,-0.000708671750,-0.002975139643,-2.352887614579,0.000000000000,0.000000000000,0.000000000000,0.000000000000,0.000000000000,0.000000000000,0.374604791403,0.545424580574,8.852660179138,0.001569558983,-2.800960365926,2.777406454086,-1.547140900289,1.571244239807,-0.785250488912,0.000000000000,0.000000000000,-0.000000000000,0.000000000000,0.000000000000,0.000000000000
1.250851000000,0.011710000000,10141.175999999999,-0.085868086260,-0.111217888607,0.323253049853,-0.000762313595,-0.002903521923,-2.352911623313,0.000000000000,0.000000000000,0.000000000000,0.000000000000,0.000000000000,0.000000000000,0.293690145016,0.422554194927,8.816698074341,0.001545590581,-2.800984684621,2.777394294739,-1.547164742147,1.571208357811,-0.785250488912,0.000000000000,0.000000000000,-0.000000000000,0.000000000000,0.000000000000,0.000000000000
1.258847000000,0.012680000000,10141.183999999999,-0.085882793412,-0.111212930013,0.323241840361,-0.000700555174,-0.002995167068,-2.352923562830,0.000000000000,0.000000000000,0.000000000000,0.000000000000,0.000000000000,0.000000000000,0.368611127138,0.377601623535,8.897612571716,0.001533606322,-2.800936524068,2.777406454086,-1.547152821218,1.571256279945,-0.785250488912,0.000000000000,0.000000000000,-0.000000000000,0.000000000000,0.000000000000,0.000000000000
1.266850000000,0.013680000000,10141.191999999999,-0.085867585475,-0.111219010862,0.323262561789,-0.000773342010,-0.002932037683,-2.352887519947,0.000000000000,0.000000000000,0.000000000000,0.000000000000,0.000000000000,0.000000000000,0.323658525944,0.356623768806,8.819695472717,0.001581543242,-2.800960365926,2.777370452881,-1.547164742147,1.571232318878,-0.785262409841,0.000000000000,0.000000000000,-0.000000000000,0.000000000000,0.000000000000,0.000000000000
1.274843000000,0.014720000000,10141.199999999999,-0.085885617575,-0.111214961143,0.323227967582,-0.000638497713,-0.003004157946,-2.352923535405,0.000000000000,0.000000000000,0.000000000000,0.000000000000,0.000000000000,0.000000000000,0.239747062325,0.350630074739,8.831682205200,0.001545590581,-2.800936524068,2.777430295944,-1.547128979360,1.571244239807,-0.785262409841,0.000000000000,0.000000000000,-0.000000000000,0.000000000000,0.000000000000,0.000000000000
1.282848000000,0.015800000000,10141.207999999999,-0.085876985139,-0.111217994712,0.323241738878,-0.000688814855,-0.002966934815,-2.352911469926,0.000000000000,0.000000000000,0.000000000000,0.000000000000,0.000000000000,0.000000000000,0.341639578342,0.485487818718,8.807707786560,0.001569558983,-2.800948444997,2.777406454086,-1.547140900289,1.571232318878,-0.785274330770,0.000000000000,0.000000000000,-0.000000000000,0.000000000000,0.000000000000,0.000000000000
1.290848000000,0.016910000000,10141.216000000000,-0.085868970110,-0.111217991071,0.323260236569,-0.000745847938,-0.002943367347,-2.352887553702,0.000000000000,0.000000000000,0.000000000000,0.000000000000,0.000000000000,0.000000000000,0.317664861679,0.386592149734,8.801713943481,0.001569558983,-2.800972763692,2.777370452881,-1.547128979360,1.571232318878,-0.785250488912,0.000000000000,0.000000000000,-0.000000000000,0.000000000000,0.000000000000,0.000000000000
1.298874000000,0.018070000000,10141.224000000000,-0.085877202331,-0.111215982531,0.323247659381,-0.000709031135,-0.002975018624,-2.352863813975,0.000000000000,0.000000000000,0.000000000000,0.000000000000,0.000000000000,0.000000000000,0.368611127138,0.431544721127,8.858654022217,0.001557574724,-2.800948444997,2.777394294739,-1.547140900289,1.571244239807,-0.785214726125,0.000000000000,0.000000000000,-0.000000000000,0.000000000000,0.000000000000,0.000000000000
1.306849000000,0.019250000000,10141.232000000000,-0.085882084893,-0.111216015272,0.323224424090,-0.000658378566,-0.003012506699,-2.352875753323,0.000000000000,0.000000000000,0.000000000000,0.000000000000,0.000000000000,0.000000000000,0.218769192696,0.296687006950,8.966540336609,0.001569558983,-2.800936524068,2.777442216873,-1.547152821218,1.571256279945,-0.785238567983,0.000000000000,0.000000000000,-0.000000000000,0.000000000000,0.000000000000,0.000000000000
1.314843000000,0.020470000000,10141.240000000000,-0.085872975749,-0.111217898033,0.323244969183,-0.000719913500,-0.002921035286,-2.352911634989,0.000000000000,0.000000000000,0.000000000000,0.000000000000,0.000000000000,0.000000000000,0.221766039729,0.380598455667,8.798717498779,0.001545590581,-2.800972763692,2.777406454086,-1.547152821218,1.571208357811,-0.785250488912,0.000000000000,0.000000000000,-0.000000000000,0.000000000000,0.000000000000,0.000000000000
1.322845000000,0.021710000000,10141.248000000000,-0.085876351148,-0.111216955634,0.323244001752,-0.000716996086,-0.002955288353,-2.352863869861,0.000000000000,0.000000000000,0.000000000000,0.000000000000,0.000000000000,0.000000000000,0.224762871861,0.305677503347,8.792723655701,0.001557574724,-2.800948444997,2.777406454086,-1.547164742147,1.571232318878,-0.785214726125,0.000000000000,0.000000000000,-0.000000000000,0.000000000000,0.000000000000,0.000000000000
1.330844000000,0.023000000000,10141.255999999999,-0.085881271282,-0.111215996556,0.323238343479,-0.000652501799,-0.002998367003,-2.352923409690,0.000000000000,0.000000000000,0.000000000000,0.000000000000,0.000000000000,0.000000000000,0.101892501116,0.209778681397,8.870641708374,0.001557574724,-2.800948444997,2.777406454086,-1.547105137502,1.571244239807,-0.785274330770,0.000000000000,0.000000000000,-0.000000000000,0.000000000000,0.000000000000,0.000000000000
1.338847000000,0.024330000000,10141.263999999999,-0.085877098505,-0.111217988957,0.323237064923,-0.000688843427,-0.002966903358,-2.352887659604,0.000000000000,0.000000000000,0.000000000000,0.000000000000,0.000000000000,0.000000000000,0.311671197414,0.392585813999,8.792723655701,0.001569558983,-2.800948444997,2.777418375015,-1.547152821218,1.571232318878,-0.785250488912,0.000000000000,0.000000000000,-0.000000000000,0.000000000000,0.000000000000,0.000000000000
1.346846000000,0.025690000000,10141.271999999999,-0.085879309132,-0.111217095635,0.323229097024,-0.000664150165,-0.003026537724,-2.352839818704,0.000000000000,0.000000000000,0.000000000000,0.000000000000,0.000000000000,0.000000000000,0.419557362795,0.548421442509,8.852660179138,0.001593527501,-2.800936524068,2.777430295944,-1.547140900289,1.571268200874,-0.785226647054,0.000000000000,0.000000000000,-0.000000000000,0.000000000000,0.000000000000,0.000000000000
1.354845000000,0.027100000000,10141.279999999999,-0.085870484598,-0.111219096943,0.323231091532,-0.000686910364,-0.003000646696,-2.352863601889,0.000004265199,-0.000003293092,0.000000000000,0.000000000000,0.000000000000,0.000038349521,0.428547888994,0.401576340199,8.879631996155,0.001605511643,-2.800972763692,2.777430295944,-1.547128979360,1.571256279945,-0.785262409841,0.000038349521,0.000000000000,-0.000000000000,0.000000000000,0.000000000000,0.000000000000
1.362854000000,0.028540000000,10141.287999999999,-0.085860383021,-0.111223174374,0.323249652690,-0.000737434443,-0.002963174887,-2.352839519517,0.000432222684,-0.000333660727,0.000000000000,0.000000000000,0.000000000000,0.003886084771,0.332649052143,0.338642746210,8.801713943481,0.001641464303,-2.800984684621,2.777394294739,-1.547128979360,1.571244239807,-0.785274330770,0.003886084771,0.000000000000,-0.000000000000,0.000000000000,0.000000000000,0.000000000000
1.370844000000,0.030020000000,10141.296000000000,-0.085869855903,-0.111227266677,0.323233774030,-0.000646599744,-0.002984238610,-2.352744017759,0.001047894172,-0.000808996969,0.000000000000,0.000000000000,0.000000000000,0.009421198629,0.128864049911,0.359620600939,8.807707786560,0.001677417080,-2.800936524068,2.777418375015,-1.547128979360,1.571232318878,-0.785214726125,0.009421198629,0.000000000000,-0.000000000000,0.000000000000,0.000000000000,0.000000000000
1.378843000000,0.031540000000,10141.304000000000,-0.085846839091,-0.111234491499,0.323243731215,-0.000722971664,-0.002968980081,-2.352648110523,0.000558818422,-0.000431276257,0.000000000000,0.000000000000,0.000000000000,0.005023787264,0.233753383160,0.497475177050,8.897612571716,0.001773290802,-2.800984684621,2.777406454086,-1.547128979360,1.571244239807,-0.785214726125,0.005023787264,0.000000000000,-0.000000000000,0.000000000000,0.000000000000,0.000000000000
1.386846000000,0.033100000000,10141.312000000000,-0.085844123056,-0.111236533831,0.323241423661,-0.000750972004,-0.002957433691,-2.352659966003,0.000425164809,-0.000328110729,0.000000000000,0.000000000000,0.000000000000,0.003822168801,0.374604791403,0.326655387878,8.927581787109,0.001797259320,-2.800972763692,2.777418375015,-1.547176663076,1.571244239807,-0.785250488912,0.003822168801,0.000000000000,-0.000000000000,0.000000000000,0.000000000000,0.000000000000
1.394842000000,0.034710000000,10141.320000000000,-0.085852582932,-0.111235535293,0.323253568273,-0.000722646269,-0.002969233633,-2.352683785876,0.000388190474,-0.000299608886,0.000000000000,0.000000000000,0.000000000000,0.003489806317,0.434541553259,0.290693312883,8.840673446655,0.001785275061,-2.800936524068,2.777382373810,-1.547152821218,1.571244239807,-0.785262409841,0.003489806317,0.000000000000,-0.000000000000,0.000000000000,0.000000000000,0.000000000000
1.402872000000,0.036330000000,10141.328000000000,-0.085846975260,-0.111232362383,0.323243629125,-0.000773900869,-0.002931580469,-2.352731832366,0.000381069902,-0.000294102344,0.000000000000,0.000000000000,0.000000000000,0.003425890580,0.545424580574,0.554415106773,8.690831184387,0.001737338142,-2.800984684621,2.777418375015,-1.547189060842,1.571232318878,-0.785262409841,0.003425890580,0.000000000000,-0.000000000000,0.000000000000,0.000000000000,0.000000000000
1.410841000000,0.037930000000,10141.335999999999,-0.085863106989,-0.111235388980,0.323238405679,-0.000628408433,-0.002942084508,-2.352719868070,0.000220400888,-0.000170128456,0.000000000000,0.000000000000,0.000000000000,0.001981391804,0.083911471069,0.137854561210,8.801713943481,0.001737338142,-2.800936524068,2.777406454086,-1.547116581594,1.571196317673,-0.785250488912,0.001981391804,0.000000000000,-0.000000000000,0.000000000000,0.000000000000,0.000000000000
1.418843000000,0.039520000000,10141.343999999999,-0.085852781952,-0.111238331539,0.323241475131,-0.000654225771,-0.002881870858,-2.352696059260,0.000154995699,-0.000119624339,0.000000000000,0.000000000000,0.000000000000,0.001393365907,-0.671291768551,-0.680282294750,9.068432807922,0.001737338142,-2.800984684621,2.777406454086,-1.547105137502,1.571160435677,-0.785226647054,0.001393365907,0.000000000000,-0.000000000000,0.000000000000,0.000000000000,0.000000000000
1.426833000000,0.041090000000,10141.351999999999,-0.085858433916,-0.111233389441,0.323237065922,-0.000682768760,-0.002952634880,-2.352684131664,0.000119440915,-0.000092193629,0.000000000000,0.000000000000,0.000000000000,0.001073786523,-0.587380290031,-0.587380290031,8.993512153625,0.001737338142,-2.800948444997,2.777418375015,-1.547152821218,1.571220278740,-0.785214726125,0.001073786523,0.000000000000,-0.000000000000,0.000000000000,0.000000000000,0.000000000000
1.434842000000,0.042670000000,10141.359999999999,-0.085855774446,-0.111233469823,0.323237063922,-0.000694352391,-0.002980865014,-2.352672056491,0.000000000000,0.000000000000,0.000000000000,0.000000000000,0.000000000000,0.000000000000,0.059936765581,0.167822942138,8.684837341309,0.001761306659,-2.800948444997,2.777418375015,-1.547152821218,1.571244239807,-0.785226647054,0.000000000000,0.000000000000,-0.000000000000,0.000000000000,0.000000000000,0.000000000000
1.442838000000,0.044260000000,10141.368000000000,-0.085850193128,-0.111231441557,0.323249755241,-0.000743160730,-0.002977311339,-2.352695894415,0.000000000000,0.000000000000,0.000000000000,0.000000000000,0.000000000000,0.000000000000,0.128864049911,0.302680671215,8.759757995605,0.001749322400,-2.800972763692,2.777394294739,-1.547140900289,1.571256279945,-0.785238567983,0.000000000000,0.000000000000,-0.000000000000,0.000000000000,0.000000000000,0.000000000000
1.450834000000,0.045860000000,10141.376000000000,-0.085856637828,-0.111235458192,0.323240608423,-0.000668612491,-0.002958487680,-2.352719725931,0.000000000000,0.000000000000,0.000000000000,0.000000000000,0.000000000000,0.000000000000,0.035962060094,0.077917799354,8.885625839233,0.001761306659,-2.800948444997,2.777406454086,-1.547128979360,1.571220278740,-0.785274330770,0.000000000000,0.000000000000,-0.000000000000,0.000000000000,0.000000000000,0.000000000000
1.458836000000,0.047440000000,10141.384000000000,-0.085850735409,-0.111233388444,0.323248478015,-0.000711082833,-0.002940912400,-2.352707900526,0.000000000000,0.000000000000,0.000000000000,0.000000000000,0.000000000000,0.000000000000,-0.188800811768,-0.248737588525,8.933574676514,0.001737338142,-2.800984684621,2.777394294739,-1.547116581594,1.571220278740,-0.785238567983,0.000000000000,0.000000000000,-0.000000000000,0.000000000000,0.000000000000,0.000000000000
1.466839000000,0.049010000000,10141.392000000000,-0.085865274985,-0.111235479759,0.323230484009,-0.000598466829,-0.002987451841,-2.352683961789,-0.000029860790,0.000023050244,0.000000000000,0.000000000000,0.000000000000,-0.000268446631,-0.350630074739,-0.341639578342,8.960546493530,0.001761306659,-2.800924603139,2.777418375015,-1.547105137502,1.571220278740,-0.785238567983,-0.000268446631,0.000000000000,-0.000000000000,0.000000000000,0.000000000000,0.000000000000
1.474838000000,0.050580000000,10141.400000000000,-0.085860046944,-0.111231370600,0.323230024521,-0.000660511436,-0.002978406065,-2.352719945033,-0.000029859687,0.000023048840,0.000000000000,0.000000000000,0.000000000000,-0.000268446631,-0.245740741491,-0.089905150235,8.888622283936,0.001725353883,-2.800960365926,2.777430295944,-1.547128979360,1.571232318878,-0.785238567983,-0.000268446631,0.000000000000,-0.000000000000,0.000000000000,0.000000000000,0.000000000000
1.482834000000,0.052150000000,10141.407999999999,-0.085863499336,-0.111230346302,0.323223042338,-0.000631899923,-0.002990210518,-2.352720018515,-0.000029859412,0.000023049767,0.000000000000,0.000000000000,0.000000000000,-0.000268446631,-0.212775528431,-0.044952575117,8.798717498779,0.001713369740,-2.800960365926,2.777442216873,-1.547116581594,1.571232318878,-0.785226647054,-0.000268446631,0.000000000000,-0.000000000000,0.000000000000,0.000000000000,0.000000000000
1.490840000000,0.053720000000,10141.415999999999,-0.085856010706,-0.111232441494,0.323242869320,-0.000708416407,-0.002975082581,-2.352684019327,-0.000029859974,0.000023047757,0.000000000000,0.000000000000,0.000000000000,-0.000268446631,-0.000000000000,0.026971545070,8.855657577515,0.001749322400,-2.800948444997,2.777406454086,-1.547152821218,1.571244239807,-0.785226647054,-0.000268446631,0.000000000000,-0.000000000000,0.000000000000,0.000000000000,0.000000000000
1.498860000000,0.055310000000,10141.423999999999,-0.085856994124,-0.111232446632,0.323241737877,-0.000694327375,-0.002980912043,-2.352719771980,-0.000029859976,0.000023048021,0.000000000000,0.000000000000,0.000000000000,-0.000268446631,0.011987353675,-0.026971545070,8.876635551453,0.001749322400,-2.800948444997,2.777406454086,-1.547140900289,1.571244239807,-0.785262409841,-0.000268446631,0.000000000000,-0.000000000000,0.000000000000,0.000000000000,0.000000000000
1.506838000000,0.056890000000,10141.431999999999,-0.085866669420,-0.111228279846,0.323231363017,-0.000674595161,-0.002972684684,-2.352779769507,-0.000029858857,0.000023050618,0.000000000000,0.000000000000,0.000000000000,-0.000268446631,0.089905150235,0.119873531163,8.858654022217,0.001689401222,-2.800936524068,2.777430295944,-1.547164742147,1.571232318878,-0.785262409841,-0.000268446631,0.000000000000,-0.000000000000,0.000000000000,0.000000000000,0.000000000000
1.514838000000,0.058480000000,10141.439999999999,-0.085867769336,-0.111229239772,0.323240712907,-0.000663029321,-0.002944443424,-2.352755955167,-0.000029859115,0.000023050913,0.000000000000,0.000000000000,0.000000000000,-0.000268446631,-0.185803979635,0.005993676838,8.816698074341,0.001677417080,-2.800936524068,2.777406454086,-1.547140900289,1.571208357811,-0.785226647054,-0.000268446631,0.000000000000,-0.000000000000,0.000000000000,0.000000000000,0.000000000000
1.522834000000,0.060070000000,10141.448000000000,-0.085851405948,-0.111232395920,0.323254431214,-0.000731545076,-0.002949096778,-2.352707875318,-0.000029859962,0.000023046521,0.000000000000,0.000000000000,0.000000000000,-0.000268446631,-0.230756551027,-0.083911471069,8.897612571716,0.001737338142,-2.800972763692,2.777382373810,-1.547128979360,1.571232318878,-0.785238567983,-0.000268446631,0.000000000000,-0.000000000000,0.000000000000,0.000000000000,0.000000000000
1.530833000000,0.061660000000,10141.456000000000,-0.085869616279,-0.111229288744,0.323227969582,-0.000626687071,-0.002975838360,-2.352732068238,-0.000063983847,0.000049395878,0.000000000000,0.000000000000,0.000000000000,-0.000575242797,-0.116876691580,-0.071924120188,8.882628440857,0.001689401222,-2.800936524068,2.777430295944,-1.547128979360,1.571220278740,-0.785214726125,-0.000575242797,0.000000000000,-0.000000000000,0.000000000000,0.000000000000,0.000000000000
1.538830000000,0.063250000000,10141.464000000000,-0.085862692468,-0.111229268892,0.323213413320,-0.000626316246,-0.002975887516,-2.352767886175,-0.000063983836,0.000049391895,0.000000000000,0.000000000000,0.000000000000,-0.000575242797,-0.041955735534,-0.113879859447,8.765751838684,0.001689401222,-2.800984684621,2.777466297150,-1.547116581594,1.571220278740,-0.785250488912,-0.000575242797,0.000000000000,-0.000000000000,0.000000000000,0.000000000000,0.000000000000
1.546826000000,0.064850000000,10141.472000000000,-0.085865972283,-0.111227261661,0.323240607424,-0.000674613301,-0.002972685072,-2.352791680760,-0.000063982681,0.000049393782,0.000000000000,0.000000000000,0.000000000000,-0.000575242797,-0.032965220511,0.077917799354,8.819695472717,0.001677417080,-2.800948444997,2.777406454086,-1.547128979360,1.571232318878,-0.785262409841,-0.000575242797,0.000000000000,-0.000000000000,0.000000000000,0.000000000000,0.000000000000
1.554828000000,0.066450000000,10141.480000000000,-0.085856577345,-0.111231357456,0.323220394504,-0.000660753586,-0.002978246902,-2.352731909730,-0.000063985037,0.000049388378,0.000000000000,0.000000000000,0.000000000000,-0.000575242797,-0.149841919541,0.116876691580,8.804711341858,0.001725353883,-2.800984684621,2.777454376221,-1.547128979360,1.571232318878,-0.785250488912,-0.000575242797,0.000000000000,-0.000000000000,0.000000000000,0.000000000000,0.000000000000
1.562837000000,0.068050000000,10141.487999999999,-0.085856858093,-0.111226297113,0.323249755241,-0.000743275417,-0.002977315641,-2.352743894623,-0.000063982126,0.000049388539,0.000000000000,0.000000000000,0.000000000000,-0.000575242797,-0.083911471069,0.137854561210,8.909600257874,0.001689401222,-2.800972763692,2.777394294739,-1.547140900289,1.571256279945,-0.785226647054,-0.000575242797,0.000000000000,-0.000000000000,0.000000000000,0.000000000000,0.000000000000
1.570833000000,0.069650000000,10141.495999999999,-0.085854896484,-0.111233333990,0.323245031619,-0.000719084997,-0.002921225858,-2.352719960756,-0.000063986174,0.000049387411,0.000000000000,0.000000000000,0.000000000000,-0.000575242797,-0.116876691580,-0.080914631486,8.873638153076,0.001725353883,-2.800960365926,2.777406454086,-1.547164742147,1.571208357811,-0.785238567983,-0.000575242797,0.000000000000,-0.000000000000,0.000000000000,0.000000000000,0.000000000000
1.578835000000,0.071230000000,10141.503999999999,-0.085868405226,-0.111225248099,0.323234801002,-0.000666411356,-0.002992494660,-2.352779830754,-0.000063981523,0.000049395182,0.000000000000,0.000000000000,0.000000000000,-0.000575242797,-0.128864049911,-0.125867202878,8.858654022217,0.001665432821,-2.800948444997,2.777418375015,-1.547128979360,1.571244239807,-0.785238567983,-0.000575242797,0.000000000000,-0.000000000000,0.000000000000,0.000000000000,0.000000000000
1.586832000000,0.072800000000,10141.511999999999,-0.085857853360,-0.111231371847,0.323241635350,-0.000688616186,-0.002966821987,-2.352707981636,-0.000063985045,0.000049389112,0.000000000000,0.000000000000,0.000000000000,-0.000575242797,-0.185803979635,-0.125867202878,8.825689315796,0.001725353883,-2.800960365926,2.777406454086,-1.547128979360,1.571232318878,-0.785226647054,-0.000575242797,0.000000000000,-0.000000000000,0.000000000000,0.000000000000,0.000000000000
1.594828000000,0.074380000000,10141.520000000000,-0.085865655527,-0.111230273451,0.323239432675,-0.000648351563,-0.002950481319,-2.352779713070,-0.000062562539,0.000048295966,0.000000000000,0.000000000000,0.000000000000,-0.000562459638,-0.353626936674,-0.275709122419,8.918590545654,0.001689401222,-2.800948444997,2.777406454086,-1.547116581594,1.571208357811,-0.785262409841,-0.000562459638,0.000000000000,-0.000000000000,0.000000000000,0.000000000000,0.000000000000
1.602852000000,0.075950000000,10141.528000000000,-0.085857444488,-0.111230389994,0.323253464764,-0.000722736730,-0.002969231473,-2.352743697154,-0.000055453220,0.000042803695,0.000000000000,0.000000000000,0.000000000000,-0.000498543784,-0.239747062325,-0.140851408243,8.900609970093,0.001725353883,-2.800948444997,2.777382373810,-1.547140900289,1.571244239807,-0.785262409841,-0.000498543784,0.000000000000,-0.000000000000,0.000000000000,0.000000000000,0.000000000000
1.610827000000,0.077510000000,10141.536000000000,-0.085853428012,-0.111234368638,0.323249821679,-0.000719380846,-0.002921091070,-2.352684102726,-0.000049767487,0.000038411773,0.000000000000,0.000000000000,0.000000000000,-0.000447411061,-0.044952575117,-0.032965220511,8.816698074341,0.001737338142,-2.800960365926,2.777394294739,-1.547152821218,1.571208357811,-0.785214726125,-0.000447411061,0.000000000000,-0.000000000000,0.000000000000,0.000000000000,0.000000000000
1.618829000000,0.079090000000,10141.544000000000,-0.085857907517,-0.111229350216,0.323249922231,-0.000736841777,-0.002963396784,-2.352719960010,-0.000045499651,0.000035121169,0.000000000000,0.000000000000,0.000000000000,-0.000409061555,0.095898829401,0.122870370746,8.813701629639,0.001713369740,-2.800948444997,2.777394294739,-1.547164742147,1.571244239807,-0.785226647054,-0.000409061555,0.000000000000,-0.000000000000,0.000000000000,0.000000000000,0.000000000000
1.626819000000,0.080680000000,10141.552000000000,-0.085855354192,-0.111233346812,0.323260404518,-0.000733440148,-0.002915346976,-2.352707964822,-0.000041235539,0.000031827612,0.000000000000,0.000000000000,0.000000000000,-0.000370712020,-0.005993676838,0.080914631486,8.813701629639,0.001725353883,-2.800948444997,2.777370452881,-1.547152821218,1.571208357811,-0.785226647054,-0.000370712020,0.000000000000,-0.000000000000,0.000000000000,0.000000000000,0.000000000000
1.634822000000,0.082260000000,10141.559999999999,-0.085852038034,-0.111230313183,0.323229606770,-0.000717167160,-0.002954983181,-2.352779655652,-0.000038390661,0.000029631459,0.000000000000,0.000000000000,0.000000000000,-0.000345145672,-0.128864049911,0.071924120188,8.900609970093,0.001713369740,-2.800996605550,2.777442216873,-1.547152821218,1.571232318878,-0.785286251699,-0.000345145672,0.000000000000,-0.000000000000,0.000000000000,0.000000000000,0.000000000000
1.642824000000,0.083860000000,10141.567999999999,-0.085862426460,-0.111232280016,0.323237067875,-0.000671077758,-0.002924501096,-2.352803558045,-0.000035547537,0.000027439856,0.000000000000,0.000000000000,0.000000000000,-0.000319579325,-0.110883019865,0.038958899677,8.840673446655,0.001701385481,-2.800948444997,2.777418375015,-1.547152821218,1.571196317673,-0.785298172628,-0.000319579325,0.000000000000,-0.000000000000,0.000000000000,0.000000000000,0.000000000000
1.650823000000,0.085440000000,10141.575999999999,-0.085859993370,-0.111234293466,0.323242874227,-0.000679421930,-0.002904587668,-2.352708119794,-0.000034126255,0.000026341517,0.000000000000,0.000000000000,0.000000000000,-0.000306796166,-0.146845072508,-0.071924120188,8.810704231262,0.001713369740,-2.800948444997,2.777406454086,-1.547152821218,1.571184396744,-0.785214726125,-0.000306796166,0.000000000000,-0.000000000000,0.000000000000,0.000000000000,0.000000000000
1.658825000000,0.087040000000,10141.583999999999,-0.085868640486,-0.111231353309,0.323232747024,-0.000626627042,-0.002975880259,-2.352731919912,-0.000031281573,0.000024148822,0.000000000000,0.000000000000,0.000000000000,-0.000281229819,-0.137854561210,-0.146845072508,8.939568519592,0.001713369740,-2.800924603139,2.777418375015,-1.547128979360,1.571220278740,-0.785238567983,-0.000281229819,0.000000000000,-0.000000000000,0.000000000000,0.000000000000,0.000000000000
1.666828000000,0.088630000000,10141.591999999999,-0.085852105055,-0.111230327962,0.323256694016,-0.000759666607,-0.002937515043,-2.352731863559,-0.000029859407,0.000023046708,0.000000000000,0.000000000000,0.000000000000,-0.000268446631,-0.053943090141,-0.065930441022,8.816698074341,0.001713369740,-2.800972763692,2.777382373810,-1.547152821218,1.571232318878,-0.785238567983,-0.000268446631,0.000000000000,-0.000000000000,0.000000000000,0.000000000000,0.000000000000
1.674818000000,0.090230000000,10141.600000000000,-0.085861551449,-0.111233321823,0.323252440795,-0.000685461019,-0.002918584262,-2.352743815388,-0.000028438297,0.000021951662,0.000000000000,0.000000000000,0.000000000000,-0.000255663472,-0.035962060094,0.017981030047,8.906603813171,0.001713369740,-2.800936524068,2.777382373810,-1.547140900289,1.571196317673,-0.785250488912,-0.000255663472,0.000000000000,-0.000000000000,0.000000000000,0.000000000000,0.000000000000
1.682823000000,0.091830000000,10141.608000000000,-0.085862439532,-0.111228325044,0.323237063922,-0.000694434754,-0.002980894801,-2.352743898536,-0.000027015169,0.000020854295,0.000000000000,0.000000000000,0.000000000000,-0.000242880298,-0.089905150235,0.020977867767,8.903606414795,0.001701385481,-2.800948444997,2.777418375015,-1.547152821218,1.571244239807,-0.785238567983,-0.000242880298,0.000000000000,-0.000000000000,0.000000000000,0.000000000000,0.000000000000
1.690829000000,0.093420000000,10141.616000000000,-0.085856353701,-0.111233384925,0.323244002751,-0.000710807012,-0.002941090128,-2.352719883328,-0.000025594482,0.000019755300,0.000000000000,0.000000000000,0.000000000000,-0.000230097125,-0.020977867767,0.029968382791,8.867644309998,0.001737338142,-2.800948444997,2.777406454086,-1.547164742147,1.571220278740,-0.785250488912,-0.000230097125,0.000000000000,-0.000000000000,0.000000000000,0.000000000000,0.000000000000
1.698862000000,0.095020000000,10141.624000000000,-0.085862255599,-0.111233346825,0.323218299507,-0.000620502839,-0.002961868338,-2.352720014540,-0.000024172558,0.000018659066,0.000000000000,0.000000000000,0.000000000000,-0.000217313951,-0.233753383160,-0.230756551027,8.852660179138,0.001725353883,-2.800960365926,2.777454376221,-1.547128979360,1.571208357811,-0.785238567983,-0.000217313951,0.000000000000,-0.000000000000,0.000000000000,0.000000000000,0.000000000000
