Fabs3007/Masterarbeit_Abgabe/Messungen/Roboter/Durchgängige Fahrt 2.4m mit 0.6ms/richard_capture_2023-08-28_15-47-48_ground_truth.csv
Rail.Time,Rail.Position,Bot.Time,Bot.TCP_pose_0,Bot.TCP_pose_1,Bot.TCP_pose_2,Bot.TCP_pose_3,Bot.TCP_pose_4,Bot.TCP_pose_5,Bot.TCP_speed_0,Bot.TCP_speed_1,Bot.TCP_speed_2,Bot.TCP_speed_3,Bot.TCP_speed_4,Bot.TCP_speed_5,Bot.actual_tool_accelerometer_0,Bot.actual_tool_accelerometer_1,Bot.actual_tool_accelerometer_2,Bot.actual_tool_accelerometer_3,Bot.actual_tool_accelerometer_4,Bot.actual_tool_accelerometer_5,Bot.actual_q_0,Bot.actual_q_1,Bot.actual_q_2,Bot.actual_q_3,Bot.actual_q_4,Bot.actual_q_5,Bot.actual_dq_0,Bot.actual_dq_1,Bot.actual_dq_2,Bot.actual_dq_3,Bot.actual_dq_4,Bot.actual_dq_5
0.006148000000,0.000010000000,9908.848000000000,-0.085847037965,-0.111229108831,0.323250109954,-0.000778296222,-0.002863687366,-2.352779964201,-0.000005668114,-0.000001544697,0.000000005718,0.000071904968,0.000000234221,-0.000051126708,-0.122870370746,-0.041955735534,8.852660179138,0.001653448562,-2.801032368337,2.777406454086,-1.547152821218,1.571184396744,-0.785226647054,-0.000051132694,0.000000000000,-0.000000000000,0.000000000000,-0.000071905350,0.000000000000
0.006902000000,0.000010000000,9908.856000000000,-0.085860488035,-0.111230176744,0.323248629752,-0.000694338372,-0.002898451581,-2.352779857287,-0.000005668098,-0.000001544009,0.000000005718,0.000071904964,0.000000235091,-0.000051121582,-0.128864049911,-0.020977867767,8.834679603577,0.001665432821,-2.800972763692,2.777394294739,-1.547128979360,1.571184396744,-0.785238567983,-0.000051132694,0.000000000000,-0.000000000000,0.000000000000,-0.000071905350,0.000000000000
0.014892000000,0.000010000000,9908.864000000000,-0.085864567378,-0.111228068379,0.323246165907,-0.000715806828,-0.002873036711,-2.352803965183,-0.000005668204,-0.000001543801,0.000000005647,0.000071904973,0.000000232499,-0.000051123245,-0.122870370746,-0.047949414700,8.888622283936,0.001629480161,-2.800960365926,2.777406454086,-1.547176663076,1.571172356606,-0.785226647054,-0.000051132694,0.000000000000,-0.000000000000,0.000000000000,-0.000071905350,0.000000000000
0.022888000000,0.000010000000,9908.871999999999,-0.085851613967,-0.111231184191,0.323252948187,-0.000750453007,-0.002875244122,-2.352779815121,-0.000005668078,-0.000001544462,0.000000005718,0.000071904962,0.000000235947,-0.000051125011,-0.107886180282,-0.065930441022,8.918590545654,0.001677417080,-2.800996605550,2.777394294739,-1.547152821218,1.571184396744,-0.785250488912,-0.000051132694,0.000000000000,-0.000000000000,0.000000000000,-0.000071905350,0.000000000000
0.030887000000,0.000010000000,9908.879999999999,-0.085862696418,-0.111228105979,0.323233256788,-0.000680037031,-0.002904326011,-2.352803900518,-0.000005668134,-0.000001543897,0.000000005718,0.000071904970,0.000000233363,-0.000051120708,-0.095898829401,-0.083911471069,8.849663734436,0.001641464303,-2.800984684621,2.777430295944,-1.547140900289,1.571184396744,-0.785238567983,-0.000051132694,0.000000000000,-0.000000000000,0.000000000000,-0.000071905350,0.000000000000
0.038889000000,0.000010000000,9908.887999999999,-0.085858723271,-0.111228085651,0.323237827696,-0.000736778758,-0.002880903396,-2.352792021145,-0.000005668134,-0.000001544100,0.000000005718,0.000071904970,0.000000233356,-0.000051124171,-0.095898829401,-0.032965220511,8.876635551453,0.001641464303,-2.800984684621,2.777430295944,-1.547189060842,1.571184396744,-0.785226647054,-0.000051132694,0.000000000000,-0.000000000000,0.000000000000,-0.000071905350,0.000000000000
0.046888000000,0.000010000000,9908.895999999999,-0.085865654234,-0.111233190367,0.323247769678,-0.000668131523,-0.002876283891,-2.352744077387,-0.000005668181,-0.000001543745,0.000000005576,0.000071904961,0.000000235952,-0.000051120691,-0.131860882044,-0.032965220511,8.882628440857,0.001677417080,-2.800936524068,2.777394294739,-1.547152821218,1.571160435677,-0.785214726125,-0.000051132694,0.000000000000,-0.000000000000,0.000000000000,-0.000071905350,0.000000000000
0.054885000000,0.000010000000,9908.904000000000,-0.085868101640,-0.111229107293,0.323238201223,-0.000673638041,-0.002890452152,-2.352815833070,-0.000004246325,-0.000002641287,0.000000005647,0.000071904970,0.000000233363,-0.000038337500,-0.122870370746,-0.029968382791,8.849663734436,0.001641464303,-2.800948444997,2.777418375015,-1.547164742147,1.571172356606,-0.785250488912,-0.000038349521,0.000000000000,-0.000000000000,0.000000000000,-0.000071905350,0.000000000000
0.062933000000,0.000010000000,9908.912000000000,-0.085866276303,-0.111229275481,0.323243078312,-0.000696859415,-0.002946936152,-2.352767829727,-0.000004246047,-0.000002641356,0.000000005931,0.000071904959,0.000000236810,-0.000038337500,-0.140851408243,-0.032965220511,8.840673446655,0.001689401222,-2.800924603139,2.777406454086,-1.547176663076,1.571220278740,-0.785250488912,-0.000038349521,0.000000000000,-0.000000000000,0.000000000000,-0.000071905350,0.000000000000
0.070889000000,0.000010000000,9908.920000000000,-0.085863863049,-0.111234206579,0.323232396755,-0.000653711060,-0.002882193230,-2.352779851444,-0.000004246236,-0.000002641449,0.000000005576,0.000071904959,0.000000236809,-0.000038336643,-0.131860882044,-0.047949414700,8.903606414795,0.001689401222,-2.800948444997,2.777430295944,-1.547164742147,1.571160435677,-0.785262409841,-0.000038349521,0.000000000000,-0.000000000000,0.000000000000,-0.000071905350,0.000000000000
0.078888000000,0.000010000000,9908.928000000000,-0.085857780026,-0.111227155846,0.323257827376,-0.000762180974,-0.002903497993,-2.352779901918,-0.000004246178,-0.000002641682,0.000000005860,0.000071904968,0.000000234225,-0.000038341837,-0.095898829401,-0.041955735534,8.888622283936,0.001653448562,-2.800972763692,2.777382373810,-1.547164742147,1.571208357811,-0.785226647054,-0.000038349521,0.000000000000,-0.000000000000,0.000000000000,-0.000071905350,0.000000000000
0.086891000000,0.000010000000,9908.936000000000,-0.085862069996,-0.111229136256,0.323239165742,-0.000694054706,-0.002898566522,-2.352803825909,-0.000004246255,-0.000002641518,0.000000005718,0.000071904967,0.000000234224,-0.000038338392,-0.125867202878,-0.050946250558,8.849663734436,0.001653448562,-2.800972763692,2.777418375015,-1.547152821218,1.571184396744,-0.785250488912,-0.000038349521,0.000000000000,-0.000000000000,0.000000000000,-0.000071905350,0.000000000000
0.094893000000,0.000010000000,9908.944000000000,-0.085861095909,-0.111228099218,0.323253263049,-0.000750534542,-0.002875311121,-2.352815797810,-0.000004246286,-0.000002641556,0.000000005718,0.000071904971,0.000000233360,-0.000038341837,-0.134857729077,-0.026971545070,8.807707786560,0.001641464303,-2.800960365926,2.777394294739,-1.547189060842,1.571184396744,-0.785250488912,-0.000038349521,0.000000000000,-0.000000000000,0.000000000000,-0.000071905350,0.000000000000
0.102880000000,0.000010000000,9908.951999999999,-0.085870946424,-0.111227081827,0.323220564404,-0.000637099682,-0.002922084715,-2.352815936189,-0.000004246318,-0.000002641178,0.000000005718,0.000071904972,0.000000232500,-0.000038334912,-0.125867202878,-0.026971545070,8.891619682312,0.001629480161,-2.800960365926,2.777454376221,-1.547152821218,1.571184396744,-0.785238567983,-0.000038349521,0.000000000000,-0.000000000000,0.000000000000,-0.000071905350,0.000000000000
0.110875000000,0.000010000000,9908.959999999999,-0.085865524870,-0.111231180846,0.323240463494,-0.000644951049,-0.002902254733,-2.352791801652,-0.000004246261,-0.000002641385,0.000000005647,0.000071904964,0.000000235092,-0.000038335752,-0.107886180282,-0.038958899677,8.897612571716,0.001665432821,-2.800960365926,2.777406454086,-1.547116581594,1.571172356606,-0.785250488912,-0.000038349521,0.000000000000,-0.000000000000,0.000000000000,-0.000071905350,0.000000000000
0.118871000000,0.000010000000,9908.967999999999,-0.085864858170,-0.111228164028,0.323242769744,-0.000685269854,-0.002918651760,-2.352791859353,-0.000004246217,-0.000002641411,0.000000005789,0.000071904967,0.000000234227,-0.000038337500,-0.104889340699,-0.032965220511,8.867644309998,0.001653448562,-2.800960365926,2.777406454086,-1.547140900289,1.571196317673,-0.785238567983,-0.000038349521,0.000000000000,-0.000000000000,0.000000000000,-0.000071905350,0.000000000000
0.126874000000,0.000010000000,9908.975999999999,-0.085867868601,-0.111229141986,0.323232394873,-0.000665470257,-0.002910384046,-2.352768093494,-0.000004246255,-0.000002641296,0.000000005718,0.000071904967,0.000000234224,-0.000038336643,-0.098895661533,-0.062933601439,8.837676048279,0.001653448562,-2.800948444997,2.777430295944,-1.547164742147,1.571184396744,-0.785214726125,-0.000038349521,0.000000000000,-0.000000000000,0.000000000000,-0.000071905350,0.000000000000
0.134873000000,0.000010000000,9908.984000000000,-0.085856616106,-0.111227141773,0.323236545525,-0.000733804584,-0.002915121445,-2.352768067783,-0.000004252621,-0.000000663631,0.000000003907,0.000047936646,0.000000156147,-0.000038343244,-0.113879859447,-0.062933601439,8.804711341858,0.001653448562,-2.800996605550,2.777430295944,-1.547164742147,1.571208357811,-0.785214726125,-0.000038349521,0.000000000000,-0.000000000000,0.000000000000,-0.000047936901,0.000000000000
0.142875000000,0.000010000000,9908.992000000000,-0.085866066183,-0.111233188376,0.323235939256,-0.000639738604,-0.002887965174,-2.352756030633,-0.000004252758,-0.000000663269,0.000000003717,0.000047936642,0.000000157301,-0.000038340364,-0.140851408243,-0.032965220511,8.858654022217,0.001677417080,-2.800948444997,2.777418375015,-1.547140900289,1.571160435677,-0.785226647054,-0.000038349521,0.000000000000,-0.000000000000,0.000000000000,-0.000047936901,0.000000000000
0.150872000000,0.000010000000,9909.000000000000,-0.085858694143,-0.111232186572,0.323233257740,-0.000674115252,-0.002890143980,-2.352779882318,-0.000004252720,-0.000000663552,0.000000003764,0.000047936642,0.000000157298,-0.000038341530,-0.131860882044,-0.020977867767,8.879631996155,0.001677417080,-2.800984684621,2.777430295944,-1.547140900289,1.571172356606,-0.785250488912,-0.000038349521,0.000000000000,-0.000000000000,0.000000000000,-0.000047936901,0.000000000000
0.158871000000,0.000010000000,9909.008000000000,-0.085864616082,-0.111229061483,0.323243841575,-0.000682425282,-0.002870378233,-2.352851631810,-0.000004252790,-0.000000663325,0.000000003717,0.000047936650,0.000000155002,-0.000038342101,-0.107886180282,-0.038958899677,8.900609970093,0.001629480161,-2.800972763692,2.777406454086,-1.547140900289,1.571160435677,-0.785274330770,-0.000038349521,0.000000000000,-0.000000000000,0.000000000000,-0.000047936901,0.000000000000
0.166926000000,0.000010000000,9909.016000000000,-0.085856330148,-0.111229184185,0.323262502299,-0.000756331142,-0.002889307906,-2.352755979361,-0.000004252652,-0.000000663642,0.000000003859,0.000047936644,0.000000156726,-0.000038344399,-0.125867202878,-0.035962060094,8.825689315796,0.001665432821,-2.800972763692,2.777370452881,-1.547152821218,1.571196317673,-0.785214726125,-0.000038349521,0.000000000000,-0.000000000000,0.000000000000,-0.000047936901,0.000000000000
0.174876000000,0.000010000000,9909.023999999999,-0.085861776768,-0.111231207864,0.323254601090,-0.000707802671,-0.002892944102,-2.352779792441,-0.000004252682,-0.000000663433,0.000000003812,0.000047936642,0.000000157301,-0.000038342661,-0.125867202878,-0.068927280605,8.804711341858,0.001677417080,-2.800948444997,2.777382373810,-1.547152821218,1.571184396744,-0.785250488912,-0.000038349521,0.000000000000,-0.000000000000,0.000000000000,-0.000047936901,0.000000000000
0.182872000000,0.000010000000,9909.031999999999,-0.085866339402,-0.111228030451,0.323232127228,-0.000654408997,-0.002881890768,-2.352815964434,-0.000004252798,-0.000000663259,0.000000003717,0.000047936651,0.000000154427,-0.000038340958,-0.107886180282,-0.059936765581,8.873638153076,0.001617495902,-2.800984684621,2.777430295944,-1.547128979360,1.571160435677,-0.785226647054,-0.000038349521,0.000000000000,-0.000000000000,0.000000000000,-0.000047936901,0.000000000000
0.190881000000,0.000010000000,9909.039999999999,-0.085867405689,-0.111230181841,0.323235937375,-0.000651381869,-0.002916205900,-2.352779909040,-0.000004252690,-0.000000663218,0.000000003812,0.000047936644,0.000000156726,-0.000038340364,-0.104889340699,-0.059936765581,8.882628440857,0.001665432821,-2.800948444997,2.777418375015,-1.547140900289,1.571184396744,-0.785238567983,-0.000038349521,0.000000000000,-0.000000000000,0.000000000000,-0.000047936901,0.000000000000
0.198883000000,0.000010000000,9909.047999999999,-0.085863739322,-0.111228164744,0.323248691235,-0.000699610730,-0.002912737577,-2.352779916814,-0.000004252660,-0.000000663358,0.000000003859,0.000047936646,0.000000156152,-0.000038342090,-0.101892501116,-0.041955735534,8.864647865295,0.001653448562,-2.800960365926,2.777394294739,-1.547140900289,1.571196317673,-0.785226647054,-0.000038349521,0.000000000000,-0.000000000000,0.000000000000,-0.000047936901,0.000000000000
0.206875000000,0.000010000000,9909.055999999999,-0.085863082971,-0.111227140887,0.323253257490,-0.000699593922,-0.002912752396,-2.352815701143,-0.000004252668,-0.000000663384,0.000000003859,0.000047936648,0.000000155580,-0.000038342090,-0.086908310652,-0.035962060094,8.852660179138,0.001641464303,-2.800972763692,2.777382373810,-1.547116581594,1.571196317673,-0.785250488912,-0.000038349521,0.000000000000,-0.000000000000,0.000000000000,-0.000047936901,0.000000000000
0.214871000000,0.000010000000,9909.064000000000,-0.085867355500,-0.111227166735,0.323219368570,-0.000635197671,-0.002955857359,-2.352803841491,-0.000004252622,-0.000000663220,0.000000003907,0.000047936646,0.000000156150,-0.000038339233,-0.116876691580,-0.053943090141,8.831682205200,0.001653448562,-2.800972763692,2.777454376221,-1.547128979360,1.571208357811,-0.785250488912,-0.000038349521,0.000000000000,-0.000000000000,0.000000000000,-0.000047936901,0.000000000000
0.222874000000,0.000010000000,9909.072000000000,-0.085864399255,-0.111224157314,0.323238030406,-0.000703312839,-0.002960816414,-2.352815744834,-0.000004252554,-0.000000663333,0.000000004002,0.000047936648,0.000000155576,-0.000038341530,-0.134857729077,-0.068927280605,8.846666336060,0.001641464303,-2.800972763692,2.777418375015,-1.547140900289,1.571232318878,-0.785250488912,-0.000038349521,0.000000000000,-0.000000000000,0.000000000000,-0.000047936901,0.000000000000
0.230870000000,0.000010000000,9909.080000000000,-0.085857599564,-0.111227146817,0.323235414117,-0.000719732427,-0.002920939916,-2.352791899513,-0.000004252622,-0.000000663594,0.000000003907,0.000047936646,0.000000156148,-0.000038342673,-0.101892501116,-0.062933601439,8.864647865295,0.001653448562,-2.800996605550,2.777430295944,-1.547152821218,1.571208357811,-0.785238567983,-0.000038349521,0.000000000000,-0.000000000000,0.000000000000,-0.000047936901,0.000000000000
0.238872000000,0.000010000000,9909.088000000000,-0.085856859534,-0.111228182785,0.323245997018,-0.000733799568,-0.002915153165,-2.352756030352,-0.000004252614,-0.000000663622,0.000000003907,0.000047936644,0.000000156724,-0.000038343244,-0.098895661533,-0.035962060094,8.906603813171,0.001665432821,-2.800984684621,2.777406454086,-1.547152821218,1.571208357811,-0.785214726125,-0.000038349521,0.000000000000,-0.000000000000,0.000000000000,-0.000047936901,0.000000000000
0.246865000000,0.000010000000,9909.096000000000,-0.085856786848,-0.111230121951,0.323258961628,-0.000758732859,-0.002855294619,-2.352779954068,-0.000004252735,-0.000000663625,0.000000003764,0.000047936646,0.000000156149,-0.000038344970,-0.125867202878,-0.047949414700,8.897612571716,0.001653448562,-2.800972763692,2.777382373810,-1.547176663076,1.571172356606,-0.785226647054,-0.000038349521,0.000000000000,-0.000000000000,0.000000000000,-0.000047936901,0.000000000000
0.254862000000,0.000010000000,9909.103999999999,-0.085861959721,-0.111228158178,0.323243838740,-0.000699864495,-0.002912605463,-2.352791859841,-0.000004252660,-0.000000663427,0.000000003859,0.000047936646,0.000000156151,-0.000038342101,-0.125867202878,-0.035962060094,8.873638153076,0.001653448562,-2.800972763692,2.777406454086,-1.547140900289,1.571196317673,-0.785238567983,-0.000038349521,0.000000000000,-0.000000000000,0.000000000000,-0.000047936901,0.000000000000
0.262914000000,0.000010000000,9909.111999999999,-0.085860782505,-0.111230127100,0.323252087362,-0.000730063525,-0.002867151333,-2.352803816956,-0.000004252736,-0.000000663472,0.000000003764,0.000047936646,0.000000156149,-0.000038343804,-0.134857729077,-0.026971545070,8.837676048279,0.001653448562,-2.800960365926,2.777394294739,-1.547176663076,1.571172356606,-0.785250488912,-0.000038349521,0.000000000000,-0.000000000000,0.000000000000,-0.000047936901,0.000000000000
0.270876000000,0.000010000000,9909.119999999999,-0.085857380601,-0.111232085745,0.323237830505,-0.000719270332,-0.002838491662,-2.352780078304,-0.000004252811,-0.000000663602,0.000000003669,0.000047936646,0.000000156145,-0.000038343839,-0.116876691580,-0.062933601439,8.861651420593,0.001653448562,-2.800984684621,2.777430295944,-1.547189060842,1.571148395538,-0.785226647054,-0.000038349521,0.000000000000,-0.000000000000,0.000000000000,-0.000047936901,0.000000000000
0.278866000000,0.000010000000,9909.127999999999,-0.085870704321,-0.111225115853,0.323230026497,-0.000649059308,-0.002950187564,-2.352792004007,-0.000004252638,-0.000000663091,0.000000003907,0.000047936649,0.000000155003,-0.000038339793,-0.104889340699,-0.053943090141,8.849663734436,0.001629480161,-2.800960365926,2.777430295944,-1.547128979360,1.571208357811,-0.785214726125,-0.000038349521,0.000000000000,-0.000000000000,0.000000000000,-0.000047936901,0.000000000000
0.286877000000,0.000010000000,9909.136000000000,-0.085860152978,-0.111229141420,0.323243736121,-0.000694050047,-0.002898555322,-2.352803784545,-0.000004252698,-0.000000663496,0.000000003812,0.000047936646,0.000000156151,-0.000038342101,-0.092901989818,-0.041955735534,8.861651420593,0.001653448562,-2.800984684621,2.777406454086,-1.547128979360,1.571184396744,-0.785250488912,-0.000038349521,0.000000000000,-0.000000000000,0.000000000000,-0.000047936901,0.000000000000
0.294877000000,0.000010000000,9909.144000000000,-0.085868264978,-0.111229116797,0.323235834799,-0.000645547601,-0.002902022406,-2.352815802091,-0.000002830883,-0.000001760854,0.000000003765,0.000047936648,0.000000155578,-0.000025557191,-0.119873531163,-0.035962060094,8.807707786560,0.001641464303,-2.800960365926,2.777418375015,-1.547128979360,1.571172356606,-0.785250488912,-0.000025566347,0.000000000000,-0.000000000000,0.000000000000,-0.000047936901,0.000000000000
0.302861000000,0.000010000000,9909.152000000000,-0.085863500342,-0.111228078401,0.323249762122,-0.000702572572,-0.002878495387,-2.352827754929,-0.000002830904,-0.000001760976,0.000000003764,0.000047936650,0.000000155003,-0.000025559511,-0.122870370746,-0.053943090141,8.867644309998,0.001629480161,-2.800972763692,2.777394294739,-1.547140900289,1.571172356606,-0.785250488912,-0.000025566347,0.000000000000,-0.000000000000,0.000000000000,-0.000047936901,0.000000000000
0.310866000000,0.000010000000,9909.160000000000,-0.085862357863,-0.111226092363,0.323257890791,-0.000755832313,-0.002889560607,-2.352791973350,-0.000002830853,-0.000001761005,0.000000003859,0.000047936650,0.000000155000,-0.000025561202,-0.122870370746,-0.032965220511,8.873638153076,0.001629480161,-2.800960365926,2.777382373810,-1.547176663076,1.571196317673,-0.785214726125,-0.000025566347,0.000000000000,-0.000000000000,0.000000000000,-0.000047936901,0.000000000000
0.318860000000,0.000010000000,9909.168000000000,-0.085875045342,-0.111230105341,0.323223300412,-0.000597657763,-0.002905375012,-2.352803944756,-0.000002830909,-0.000001760681,0.000000003717,0.000047936647,0.000000155577,-0.000025555476,-0.113879859447,-0.029968382791,8.852660179138,0.001641464303,-2.800936524068,2.777442216873,-1.547140900289,1.571160435677,-0.785238567983,-0.000025566347,0.000000000000,-0.000000000000,0.000000000000,-0.000047936901,0.000000000000
0.326859000000,0.000010000000,9909.175999999999,-0.085863729676,-0.111231126055,0.323248694070,-0.000682179395,-0.002870469343,-2.352779957638,-0.000002830887,-0.000001760970,0.000000003717,0.000047936646,0.000000156152,-0.000025558916,-0.113879859447,-0.056939929724,8.876635551453,0.001653448562,-2.800960365926,2.777394294739,-1.547140900289,1.571160435677,-0.785226647054,-0.000025566347,0.000000000000,-0.000000000000,0.000000000000,-0.000047936901,0.000000000000
0.334867000000,0.000010000000,9909.183999999999,-0.085867045339,-0.111230140110,0.323231160844,-0.000645540927,-0.002901999477,-2.352791928437,-0.000002830862,-0.000001760885,0.000000003764,0.000047936646,0.000000156151,-0.000025557191,-0.098895661533,-0.041955735534,8.843669891357,0.001653448562,-2.800960365926,2.777430295944,-1.547140900289,1.571172356606,-0.785238567983,-0.000025566347,0.000000000000,-0.000000000000,0.000000000000,-0.000047936901,0.000000000000
0.342863000000,0.000010000000,9909.191999999999,-0.085866540675,-0.111226100933,0.323243901175,-0.000699349599,-0.002912863877,-2.352815838054,-0.000002830853,-0.000001760898,0.000000003859,0.000047936650,0.000000155002,-0.000025558905,-0.119873531163,-0.035962060094,8.864647865295,0.001629480161,-2.800960365926,2.777406454086,-1.547152821218,1.571196317673,-0.785238567983,-0.000025566347,0.000000000000,-0.000000000000,0.000000000000,-0.000047936901,0.000000000000
0.350863000000,0.000010000000,9909.199999999999,-0.085870307884,-0.111227095336,0.323241742784,-0.000665483812,-0.002910429990,-2.352815840683,-0.000002830879,-0.000001760802,0.000000003812,0.000047936650,0.000000155003,-0.000025557762,-0.134857729077,-0.032965220511,8.897612571716,0.001629480161,-2.800948444997,2.777406454086,-1.547140900289,1.571184396744,-0.785238567983,-0.000025566347,0.000000000000,-0.000000000000,0.000000000000,-0.000047936901,0.000000000000
0.358862000000,0.000010000000,9909.207999999999,-0.085855932099,-0.111229215225,0.323263695137,-0.000775648406,-0.002897944944,-2.352744000735,-0.000002830743,-0.000001761169,0.000000003907,0.000047936643,0.000000157299,-0.000025561774,-0.134857729077,-0.032965220511,8.930578231812,0.001677417080,-2.800960365926,2.777370452881,-1.547176663076,1.571208357811,-0.785214726125,-0.000025566347,0.000000000000,-0.000000000000,0.000000000000,-0.000047936901,0.000000000000
0.366911000000,0.000010000000,9909.216000000000,-0.085858576569,-0.111229129347,0.323234284628,-0.000694035687,-0.002898520422,-2.352803837727,-0.000002830836,-0.000001761101,0.000000003812,0.000047936646,0.000000156149,-0.000025558928,-0.095898829401,-0.068927280605,8.840673446655,0.001653448562,-2.800996605550,2.777430295944,-1.547140900289,1.571184396744,-0.785250488912,-0.000025566347,0.000000000000,-0.000000000000,0.000000000000,-0.000047936901,0.000000000000
0.374867000000,0.000010000000,9909.224000000000,-0.085853595530,-0.111229125126,0.323246923134,-0.000736142809,-0.002881145227,-2.352815716520,-0.000002830836,-0.000001761229,0.000000003812,0.000047936646,0.000000156149,-0.000025560642,-0.122870370746,-0.047949414700,8.843669891357,0.001653448562,-2.801008526479,2.777406454086,-1.547140900289,1.571184396744,-0.785262409841,-0.000025566347,0.000000000000,-0.000000000000,0.000000000000,-0.000047936901,0.000000000000
0.382863000000,0.000010000000,9909.232000000000,-0.085861356984,-0.111231112459,0.323233258670,-0.000668377804,-0.002876096762,-2.352791943321,-0.000002830887,-0.000001761030,0.000000003717,0.000047936646,0.000000156150,-0.000025558356,-0.089905150235,-0.068927280605,8.840673446655,0.001653448562,-2.800984684621,2.777430295944,-1.547140900289,1.571160435677,-0.785238567983,-0.000025566347,0.000000000000,-0.000000000000,0.000000000000,-0.000047936901,0.000000000000
0.390865000000,0.000010000000,9909.240000000000,-0.085860623511,-0.111230170986,0.323243839694,-0.000694069731,-0.002898547781,-2.352767968306,-0.000002830815,-0.000001761049,0.000000003812,0.000047936644,0.000000156726,-0.000025558928,-0.110883019865,-0.044952575117,8.894616127014,0.001665432821,-2.800972763692,2.777406454086,-1.547140900289,1.571184396744,-0.785226647054,-0.000025566347,0.000000000000,-0.000000000000,0.000000000000,-0.000047936901,0.000000000000
0.398871000000,0.000010000000,9909.248000000000,-0.085866749586,-0.111231097003,0.323253472480,-0.000676345068,-0.002856328105,-2.352803854701,-0.000002830934,-0.000001760893,0.000000003670,0.000047936648,0.000000155579,-0.000025558916,-0.134857729077,-0.032965220511,8.870641708374,0.001641464303,-2.800948444997,2.777382373810,-1.547140900289,1.571148395538,-0.785238567983,-0.000025566347,0.000000000000,-0.000000000000,0.000000000000,-0.000047936901,0.000000000000
0.406861000000,0.000010000000,9909.255999999999,-0.085863276984,-0.111230123470,0.323228687355,-0.000674173534,-0.002890150634,-2.352791971260,-0.000002830862,-0.000001760981,0.000000003764,0.000047936646,0.000000156148,-0.000025558356,-0.107886180282,-0.035962060094,8.885625839233,0.001653448562,-2.800972763692,2.777442216873,-1.547164742147,1.571172356606,-0.785238567983,-0.000025566347,0.000000000000,-0.000000000000,0.000000000000,-0.000047936901,0.000000000000
0.414854000000,0.000010000000,9909.263999999999,-0.085865709106,-0.111232152979,0.323231161775,-0.000639715326,-0.002887964410,-2.352791878387,-0.000002830866,-0.000001760919,0.000000003717,0.000047936644,0.000000156725,-0.000025557191,-0.104889340699,-0.047949414700,8.822691917419,0.001665432821,-2.800960365926,2.777430295944,-1.547140900289,1.571160435677,-0.785250488912,-0.000025566347,0.000000000000,-0.000000000000,0.000000000000,-0.000047936901,0.000000000000
0.422853000000,0.000010000000,9909.271999999999,-0.085860416466,-0.111227108134,0.323242604265,-0.000742581126,-0.002894973001,-2.352791985630,-0.000002830832,-0.000001761055,0.000000003859,0.000047936648,0.000000155572,-0.000025560665,-0.101892501116,-0.047949414700,8.801713943481,0.001641464303,-2.800972763692,2.777418375015,-1.547189060842,1.571196317673,-0.785226647054,-0.000025566347,0.000000000000,-0.000000000000,0.000000000000,-0.000047936901,0.000000000000
0.430853000000,0.000010000000,9909.279999999999,-0.085861392969,-0.111227134580,0.323248479967,-0.000699582796,-0.002912725396,-2.352815722809,-0.000002830832,-0.000001761030,0.000000003859,0.000047936648,0.000000155579,-0.000025558916,-0.077917799354,-0.035962060094,8.825689315796,0.001641464303,-2.800984684621,2.777394294739,-1.547116581594,1.571196317673,-0.785250488912,-0.000025566347,0.000000000000,-0.000000000000,0.000000000000,-0.000047936901,0.000000000000
0.438861000000,0.000010000000,9909.287999999999,-0.085865431315,-0.111228102292,0.323234554221,-0.000693501717,-0.002898825278,-2.352827772421,-0.000002830857,-0.000001760926,0.000000003812,0.000047936648,0.000000155573,-0.000025558905,-0.116876691580,-0.032965220511,8.885625839233,0.001641464303,-2.800960365926,2.777430295944,-1.547176663076,1.571184396744,-0.785262409841,-0.000025566347,0.000000000000,-0.000000000000,0.000000000000,-0.000047936901,0.000000000000
0.446857000000,0.000010000000,9909.296000000000,-0.085861953279,-0.111230135664,0.323243840645,-0.000688224439,-0.002884379690,-2.352791887175,-0.000002830862,-0.000001761015,0.000000003764,0.000047936646,0.000000156151,-0.000025558928,-0.107886180282,-0.023974707350,8.897612571716,0.001653448562,-2.800972763692,2.777406454086,-1.547140900289,1.571172356606,-0.785238567983,-0.000025566347,0.000000000000,-0.000000000000,0.000000000000,-0.000047936901,0.000000000000
0.454860000000,0.000010000000,9909.304000000000,-0.085856438205,-0.111228070005,0.323269337305,-0.000772765772,-0.002849538082,-2.352839622376,-0.000002830903,-0.000001761156,0.000000003764,0.000047936650,0.000000155002,-0.000025562368,-0.122870370746,-0.047949414700,8.861651420593,0.001629480161,-2.800984684621,2.777358531952,-1.547152821218,1.571172356606,-0.785262409841,-0.000025566347,0.000000000000,-0.000000000000,0.000000000000,-0.000047936901,0.000000000000
0.462906000000,0.000010000000,9909.312000000000,-0.085868954097,-0.111232171434,0.323245506781,-0.000640037264,-0.002887899298,-2.352779882204,-0.000002830866,-0.000001760836,0.000000003718,0.000047936644,0.000000156729,-0.000025557202,-0.113879859447,-0.047949414700,8.852660179138,0.001665432821,-2.800936524068,2.777394294739,-1.547128979360,1.571160435677,-0.785238567983,-0.000025566347,0.000000000000,-0.000000000000,0.000000000000,-0.000047936901,0.000000000000
0.470861000000,0.000010000000,9909.320000000000,-0.085863821538,-0.111229127558,0.323241594529,-0.000721622387,-0.002887224578,-2.352780024325,-0.000002830836,-0.000001760967,0.000000003812,0.000047936646,0.000000156146,-0.000025560048,-0.110883019865,-0.056939929724,8.849663734436,0.001653448562,-2.800948444997,2.777418375015,-1.547200504933,1.571184396744,-0.785226647054,-0.000025566347,0.000000000000,-0.000000000000,0.000000000000,-0.000047936901,0.000000000000
0.478851000000,0.000010000000,9909.328000000000,-0.085860508943,-0.111226129923,0.323244865611,-0.000719797258,-0.002920954410,-2.352779988741,-0.000002830807,-0.000001761052,0.000000003907,0.000047936648,0.000000155576,-0.000025559499,-0.128864049911,-0.056939929724,8.900609970093,0.001641464303,-2.800984684621,2.777406454086,-1.547140900289,1.571208357811,-0.785214726125,-0.000025566347,0.000000000000,-0.000000000000,0.000000000000,-0.000047936901,0.000000000000
0.486860000000,0.000010000000,9909.335999999999,-0.085864338821,-0.111231166082,0.323244006609,-0.000687644403,-0.002884658620,-2.352791843520,-0.000002830841,-0.000001760954,0.000000003765,0.000047936644,0.000000156725,-0.000025558905,-0.095898829401,-0.020977867767,8.906603813171,0.001665432821,-2.800948444997,2.777406454086,-1.547164742147,1.571172356606,-0.785250488912,-0.000025566347,0.000000000000,-0.000000000000,0.000000000000,-0.000047936901,0.000000000000
0.494865000000,0.000010000000,9909.343999999999,-0.085866058960,-0.111226147093,0.323247558829,-0.000691406637,-0.002932742212,-2.352815718816,-0.000002830807,-0.000001760910,0.000000003907,0.000047936648,0.000000155579,-0.000025558345,-0.107886180282,-0.032965220511,8.846666336060,0.001641464303,-2.800960365926,2.777394294739,-1.547128979360,1.571208357811,-0.785250488912,-0.000025566347,0.000000000000,-0.000000000000,0.000000000000,-0.000047936901,0.000000000000
0.502858000000,0.000010000000,9909.351999999999,-0.085859037205,-0.111228158312,0.323249656643,-0.000714181925,-0.002906683882,-2.352791828300,-0.000002830811,-0.000001761090,0.000000003859,0.000047936646,0.000000156152,-0.000025559511,-0.134857729077,-0.035962060094,8.795720100403,0.001653448562,-2.800984684621,2.777394294739,-1.547128979360,1.571196317673,-0.785238567983,-0.000025566347,0.000000000000,-0.000000000000,0.000000000000,-0.000047936901,0.000000000000
0.510852000000,0.000010000000,9909.359999999999,-0.085866881946,-0.111230130605,0.323233527267,-0.000673615735,-0.002890440773,-2.352803880336,-0.000002830862,-0.000001760889,0.000000003765,0.000047936646,0.000000156148,-0.000025558333,-0.146845072508,-0.035962060094,8.876635551453,0.001653448562,-2.800948444997,2.777430295944,-1.547176663076,1.571172356606,-0.785250488912,-0.000025566347,0.000000000000,-0.000000000000,0.000000000000,-0.000047936901,0.000000000000
0.518854000000,0.000010000000,9909.368000000000,-0.085862275905,-0.111228162139,0.323236753086,-0.000671209317,-0.002924399542,-2.352791860389,-0.000002830811,-0.000001761007,0.000000003859,0.000047936646,0.000000156152,-0.000025557762,-0.113879859447,-0.035962060094,8.870641708374,0.001653448562,-2.800984684621,2.777418375015,-1.547116581594,1.571196317673,-0.785238567983,-0.000025566347,0.000000000000,-0.000000000000,0.000000000000,-0.000047936901,0.000000000000
0.526853000000,0.000010000000,9909.376000000000,-0.085860969834,-0.111230130621,0.323244972064,-0.000702250299,-0.002878596673,-2.352803818485,-0.000002830862,-0.000001761040,0.000000003764,0.000047936646,0.000000156150,-0.000025559499,-0.116876691580,-0.047949414700,8.852660179138,0.001653448562,-2.800972763692,2.777406454086,-1.547152821218,1.571172356606,-0.785250488912,-0.000025566347,0.000000000000,-0.000000000000,0.000000000000,-0.000047936901,0.000000000000
0.534846000000,0.000010000000,9909.384000000000,-0.085866715283,-0.111228105093,0.323221633443,-0.000651659464,-0.002916045962,-2.352815873753,-0.000002830858,-0.000001760894,0.000000003812,0.000047936648,0.000000155574,-0.000025557202,-0.098895661533,-0.074920959771,8.792723655701,0.001641464303,-2.800972763692,2.777454376221,-1.547152821218,1.571184396744,-0.785250488912,-0.000025566347,0.000000000000,-0.000000000000,0.000000000000,-0.000047936901,0.000000000000
0.542858000000,0.000010000000,9909.392000000000,-0.085869599023,-0.111230180462,0.323224326517,-0.000623308840,-0.002927767907,-2.352768029890,-0.000002830816,-0.000001760819,0.000000003812,0.000047936644,0.000000156725,-0.000025556048,-0.131860882044,-0.041955735534,8.822691917419,0.001665432821,-2.800948444997,2.777442216873,-1.547140900289,1.571184396744,-0.785226647054,-0.000025566347,0.000000000000,-0.000000000000,0.000000000000,-0.000047936901,0.000000000000
0.550848000000,0.000010000000,9909.400000000000,-0.085867731845,-0.111227055129,0.323248693140,-0.000687996927,-0.002884545195,-2.352839738614,-0.000002830925,-0.000001760868,0.000000003765,0.000047936652,0.000000154429,-0.000025558916,-0.131860882044,-0.047949414700,8.909600257874,0.001617495902,-2.800960365926,2.777394294739,-1.547140900289,1.571172356606,-0.785250488912,-0.000025566347,0.000000000000,-0.000000000000,0.000000000000,-0.000047936901,0.000000000000
0.558853000000,0.000010000000,9909.407999999999,-0.085862988672,-0.111228115230,0.323255628966,-0.000721878235,-0.002887151931,-2.352827666511,-0.000002830857,-0.000001760989,0.000000003812,0.000047936648,0.000000155577,-0.000025560059,-0.122870370746,-0.056939929724,8.849663734436,0.001641464303,-2.800960365926,2.777382373810,-1.547152821218,1.571184396744,-0.785262409841,-0.000025566347,0.000000000000,-0.000000000000,0.000000000000,-0.000047936901,0.000000000000
0.566903000000,0.000010000000,9909.415999999999,-0.085861959721,-0.111228158178,0.323243838740,-0.000699864495,-0.002912605463,-2.352791859841,-0.000002830811,-0.000001761015,0.000000003859,0.000047936646,0.000000156151,-0.000025558928,-0.128864049911,-0.026971545070,8.843669891357,0.001653448562,-2.800972763692,2.777406454086,-1.547140900289,1.571196317673,-0.785238567983,-0.000025566347,0.000000000000,-0.000000000000,0.000000000000,-0.000047936901,0.000000000000
0.574855000000,0.000010000000,9909.423999999999,-0.085864386420,-0.111228112287,0.323238034311,-0.000680048158,-0.002904353011,-2.352803878851,-0.000002830858,-0.000001760953,0.000000003812,0.000047936648,0.000000155576,-0.000025558356,-0.119873531163,-0.032965220511,8.888622283936,0.001641464303,-2.800972763692,2.777418375015,-1.547140900289,1.571184396744,-0.785238567983,-0.000025566347,0.000000000000,-0.000000000000,0.000000000000,-0.000047936901,0.000000000000
0.582851000000,0.000010000000,9909.431999999999,-0.085870538944,-0.111230147020,0.323236041832,-0.000645528690,-0.002902068282,-2.352815758459,-0.000002837305,0.000000217300,0.000000001882,0.000023968323,0.000000078076,-0.000025561769,-0.122870370746,-0.038958899677,8.846666336060,0.001653448562,-2.800936524068,2.777418375015,-1.547152821218,1.571172356606,-0.785262409841,-0.000025566347,0.000000000000,-0.000000000000,0.000000000000,-0.000023968450,0.000000000000
0.590854000000,0.000010000000,9909.439999999999,-0.085857205806,-0.111228142465,0.323247129389,-0.000742010882,-0.002895178605,-2.352768038694,-0.000002837254,0.000000216959,0.000000001930,0.000023968323,0.000000078074,-0.000025563495,-0.101892501116,-0.059936765581,8.846666336060,0.001653448562,-2.800984684621,2.777406454086,-1.547164742147,1.571196317673,-0.785214726125,-0.000025566347,0.000000000000,-0.000000000000,0.000000000000,-0.000023968450,0.000000000000
0.598853000000,0.000010000000,9909.448000000000,-0.085860771162,-0.111233174787,0.323226321820,-0.000640269788,-0.002887659530,-2.352756064151,-0.000002837335,0.000000217051,0.000000001859,0.000023968321,0.000000078650,-0.000025561780,-0.125867202878,-0.029968382791,8.906603813171,0.001677417080,-2.800984684621,2.777442216873,-1.547128979360,1.571160435677,-0.785226647054,-0.000025566347,0.000000000000,-0.000000000000,0.000000000000,-0.000023968450,0.000000000000
0.606843000000,0.000010000000,9909.456000000000,-0.085868145277,-0.111229145745,0.323225354471,-0.000637329706,-0.002921980678,-2.352803856793,-0.000002837280,0.000000217239,0.000000001906,0.000023968323,0.000000078075,-0.000025561483,-0.104889340699,-0.053943090141,8.885625839233,0.001653448562,-2.800960365926,2.777442216873,-1.547140900289,1.571184396744,-0.785250488912,-0.000025566347,0.000000000000,-0.000000000000,0.000000000000,-0.000023968450,0.000000000000
0.614846000000,0.000010000000,9909.464000000000,-0.085854179652,-0.111230148869,0.323242352800,-0.000736174098,-0.002881117833,-2.352768010877,-0.000002837282,0.000000216882,0.000000001906,0.000023968322,0.000000078361,-0.000025563495,-0.101892501116,-0.065930441022,8.882628440857,0.001665432821,-2.800996605550,2.777418375015,-1.547164742147,1.571184396744,-0.785226647054,-0.000025566347,0.000000000000,-0.000000000000,0.000000000000,-0.000023968450,0.000000000000
0.622845000000,0.000010000000,9909.472000000000,-0.085860836548,-0.111230067655,0.323230847566,-0.000696506492,-0.002864479723,-2.352780138239,-0.000002837327,0.000000217052,0.000000001859,0.000023968324,0.000000077786,-0.000025562923,-0.131860882044,-0.032965220511,8.849663734436,0.001641464303,-2.800984684621,2.777442216873,-1.547176663076,1.571160435677,-0.785214726125,-0.000025566347,0.000000000000,-0.000000000000,0.000000000000,-0.000023968450,0.000000000000
0.630844000000,0.000010000000,9909.480000000000,-0.085865828705,-0.111232124045,0.323241642065,-0.000647963961,-0.002867983580,-2.352779981852,-0.000002837356,0.000000217180,0.000000001835,0.000023968323,0.000000078076,-0.000025562055,-0.110883019865,-0.059936765581,8.894616127014,0.001653448562,-2.800960365926,2.777406454086,-1.547128979360,1.571148395538,-0.785226647054,-0.000025566347,0.000000000000,-0.000000000000,0.000000000000,-0.000023968450,0.000000000000
0.638853000000,0.000010000000,9909.487999999999,-0.085862584190,-0.111228025410,0.323263698948,-0.000752448464,-0.002841520206,-2.352815898874,-0.000002837322,0.000000217097,0.000000001859,0.000023968326,0.000000077213,-0.000025564060,-0.113879859447,-0.023974707350,8.870641708374,0.001617495902,-2.800960365926,2.777370452881,-1.547176663076,1.571160435677,-0.785226647054,-0.000025566347,0.000000000000,-0.000000000000,0.000000000000,-0.000023968450,0.000000000000
0.646849000000,0.000010000000,9909.495999999999,-0.085863406181,-0.111227123431,0.323239164788,-0.000699864982,-0.002912612644,-2.352815796525,-0.000002837252,0.000000217118,0.000000001930,0.000023968324,0.000000077788,-0.000025562637,-0.116876691580,-0.011987353675,8.909600257874,0.001641464303,-2.800972763692,2.777418375015,-1.547152821218,1.571196317673,-0.785250488912,-0.000025566347,0.000000000000,-0.000000000000,0.000000000000,-0.000023968450,0.000000000000
0.654848000000,0.000010000000,9909.503999999999,-0.085868805192,-0.111230092393,0.323244111046,-0.000681930033,-0.002870618755,-2.352791993522,-0.000002837328,0.000000217256,0.000000001859,0.000023968324,0.000000077788,-0.000025562626,-0.119873531163,-0.053943090141,8.909600257874,0.001641464303,-2.800936524068,2.777406454086,-1.547176663076,1.571160435677,-0.785226647054,-0.000025566347,0.000000000000,-0.000000000000,0.000000000000,-0.000023968450,0.000000000000
0.662894000000,0.000010000000,9909.511999999999,-0.085864854966,-0.111229147852,0.323242770698,-0.000679463225,-0.002904620647,-2.352803793831,-0.000002837280,0.000000217155,0.000000001906,0.000023968323,0.000000078076,-0.000025562340,-0.119873531163,-0.014984191395,8.864647865295,0.001653448562,-2.800960365926,2.777406454086,-1.547140900289,1.571184396744,-0.785250488912,-0.000025566347,0.000000000000,-0.000000000000,0.000000000000,-0.000023968450,0.000000000000
0.670844000000,0.000010000000,9909.520000000000,-0.085859043646,-0.111226180825,0.323249654690,-0.000725837596,-0.002934897739,-2.352779879625,-0.000002837204,0.000000217006,0.000000001977,0.000023968323,0.000000078076,-0.000025562929,-0.086908310652,-0.044952575117,8.825689315796,0.001653448562,-2.800984684621,2.777394294739,-1.547128979360,1.571220278740,-0.785226647054,-0.000025566347,0.000000000000,-0.000000000000,0.000000000000,-0.000023968450,0.000000000000
0.678840000000,0.000010000000,9909.528000000000,-0.085862699885,-0.111233267612,0.323230028427,-0.000637287815,-0.002921950761,-2.352732046560,-0.000002837290,0.000000217100,0.000000001906,0.000023968319,0.000000079225,-0.000025561483,-0.149841919541,-0.002996838419,8.903606414795,0.001701385481,-2.800960365926,2.777430295944,-1.547128979360,1.571184396744,-0.785226647054,-0.000025566347,0.000000000000,-0.000000000000,0.000000000000,-0.000023968450,0.000000000000
0.686842000000,0.000010000000,9909.536000000000,-0.085864553033,-0.111230137769,0.323249928089,-0.000701988873,-0.002878759588,-2.352803806225,-0.000002837305,0.000000217147,0.000000001882,0.000023968323,0.000000078075,-0.000025562917,-0.134857729077,-0.023974707350,8.873638153076,0.001653448562,-2.800948444997,2.777394294739,-1.547164742147,1.571172356606,-0.785250488912,-0.000025566347,0.000000000000,-0.000000000000,0.000000000000,-0.000023968450,0.000000000000
0.694848000000,0.000010000000,9909.544000000000,-0.085859511055,-0.111228194202,0.323249759241,-0.000720003879,-0.002920894649,-2.352791760906,-0.000002837232,0.000000217018,0.000000001953,0.000023968322,0.000000078363,-0.000025562929,-0.101892501116,-0.053943090141,8.900609970093,0.001665432821,-2.800972763692,2.777394294739,-1.547140900289,1.571208357811,-0.785250488912,-0.000025566347,0.000000000000,-0.000000000000,0.000000000000,-0.000023968450,0.000000000000
0.702868000000,0.000010000000,9909.552000000000,-0.085861655680,-0.111229144226,0.323255628966,-0.000721874400,-0.002887136983,-2.352803761343,-0.000002837280,0.000000217073,0.000000001906,0.000023968323,0.000000078076,-0.000025563203,-0.116876691580,-0.047949414700,8.840673446655,0.001653448562,-2.800960365926,2.777382373810,-1.547152821218,1.571184396744,-0.785250488912,-0.000025566347,0.000000000000,-0.000000000000,0.000000000000,-0.000023968450,0.000000000000
0.710834000000,0.000010000000,9909.559999999999,-0.085868814802,-0.111227131082,0.323244108210,-0.000699315005,-0.002912922097,-2.352827715458,-0.000002837252,0.000000217256,0.000000001930,0.000023968324,0.000000077788,-0.000025562626,-0.125867202878,-0.020977867767,8.834679603577,0.001641464303,-2.800936524068,2.777406454086,-1.547176663076,1.571196317673,-0.785262409841,-0.000025566347,0.000000000000,-0.000000000000,0.000000000000,-0.000023968450,0.000000000000
0.718837000000,0.000010000000,9909.567999999999,-0.085869300485,-0.111232130969,0.323246639163,-0.000648263868,-0.002867913944,-2.352779969620,-0.000002837356,0.000000217268,0.000000001835,0.000023968323,0.000000078077,-0.000025562060,-0.122870370746,-0.035962060094,8.876635551453,0.001653448562,-2.800936524068,2.777394294739,-1.547140900289,1.571148395538,-0.785226647054,-0.000025566347,0.000000000000,-0.000000000000,0.000000000000,-0.000023968450,0.000000000000
0.726836000000,0.000010000000,9909.575999999999,-0.085851393514,-0.111234189852,0.323247028631,-0.000724469118,-0.002852917347,-2.352767880441,-0.000002837338,0.000000216811,0.000000001859,0.000023968320,0.000000078936,-0.000025563495,-0.107886180282,-0.041955735534,8.885625839233,0.001689401222,-2.800996605550,2.777406454086,-1.547152821218,1.571160435677,-0.785250488912,-0.000025566347,0.000000000000,-0.000000000000,0.000000000000,-0.000023968450,0.000000000000
0.734841000000,0.000010000000,9909.583999999999,-0.085858126270,-0.111227115526,0.323258959723,-0.000770377139,-0.002883535178,-2.352803831186,-0.000002837251,0.000000216983,0.000000001930,0.000023968324,0.000000077787,-0.000025564072,-0.098895661533,-0.065930441022,8.873638153076,0.001641464303,-2.800972763692,2.777382373810,-1.547176663076,1.571196317673,-0.785238567983,-0.000025566347,0.000000000000,-0.000000000000,0.000000000000,-0.000023968450,0.000000000000
0.742840000000,0.000010000000,9909.591999999999,-0.085871640852,-0.111226066236,0.323241742784,-0.000665502982,-0.002910433568,-2.352827824933,-0.000002837272,0.000000217328,0.000000001906,0.000023968326,0.000000077214,-0.000025562055,-0.104889340699,-0.056939929724,8.822691917419,0.001617495902,-2.800948444997,2.777406454086,-1.547140900289,1.571184396744,-0.785238567983,-0.000025566347,0.000000000000,-0.000000000000,0.000000000000,-0.000023968450,0.000000000000
0.750843000000,0.000010000000,9909.600000000000,-0.085862400053,-0.111229232129,0.323235724228,-0.000663002094,-0.002944377460,-2.352755956743,-0.000002837235,0.000000217092,0.000000001953,0.000023968321,0.000000078651,-0.000025561769,-0.101892501116,-0.029968382791,8.906603813171,0.001677417080,-2.800972763692,2.777418375015,-1.547116581594,1.571208357811,-0.785226647054,-0.000025566347,0.000000000000,-0.000000000000,0.000000000000,-0.000023968450,0.000000000000
0.758836000000,0.000010000000,9909.608000000000,-0.085860502525,-0.111228107410,0.323244867540,-0.000708110494,-0.002892764022,-2.352815779114,-0.000002837277,0.000000217044,0.000000001906,0.000023968324,0.000000077788,-0.000025562923,-0.149841919541,-0.008990515023,8.846666336060,0.001641464303,-2.800984684621,2.777406454086,-1.547140900289,1.571184396744,-0.785250488912,-0.000025566347,0.000000000000,-0.000000000000,0.000000000000,-0.000023968450,0.000000000000
0.766891000000,0.000010000000,9909.616000000000,-0.085873950748,-0.111225075178,0.323225457041,-0.000643218072,-0.002936031006,-2.352815964088,-0.000002837247,0.000000217387,0.000000001930,0.000023968326,0.000000077213,-0.000025561483,-0.113879859447,-0.020977867767,8.909600257874,0.001617495902,-2.800948444997,2.777442216873,-1.547152821218,1.571196317673,-0.785226647054,-0.000025566347,0.000000000000,-0.000000000000,0.000000000000,-0.000023968450,0.000000000000
0.774835000000,0.000010000000,9909.624000000000,-0.085851225906,-0.111231127365,0.323245747867,-0.000772418557,-0.002849574903,-2.352791896982,-0.000002837307,0.000000216806,0.000000001882,0.000023968322,0.000000078359,-0.000025564352,-0.119873531163,-0.044952575117,8.873638153076,0.001665432821,-2.800996605550,2.777418375015,-1.547200504933,1.571172356606,-0.785250488912,-0.000025566347,0.000000000000,-0.000000000000,0.000000000000,-0.000023968450,0.000000000000
0.782834000000,0.000010000000,9909.632000000000,-0.085864792325,-0.111228115791,0.323255732497,-0.000721916812,-0.002887147495,-2.352803834522,-0.000002837277,0.000000217153,0.000000001906,0.000023968324,0.000000077788,-0.000025563203,-0.113879859447,-0.068927280605,8.804711341858,0.001641464303,-2.800948444997,2.777382373810,-1.547164742147,1.571184396744,-0.785238567983,-0.000025566347,0.000000000000,-0.000000000000,0.000000000000,-0.000023968450,0.000000000000
0.790842000000,0.000010000000,9909.639999999999,-0.085866935210,-0.111229152194,0.323235833848,-0.000651424539,-0.002916167631,-2.352768041602,-0.000001415418,-0.000000880444,0.000000001906,0.000023968323,0.000000078076,-0.000012778595,-0.125867202878,-0.059936765581,8.813701629639,0.001653448562,-2.800960365926,2.777418375015,-1.547128979360,1.571184396744,-0.785214726125,-0.000012783174,0.000000000000,-0.000000000000,0.000000000000,-0.000023968450,0.000000000000
0.798839000000,0.000010000000,9909.647999999999,-0.085872271438,-0.111226144776,0.323224324588,-0.000634971585,-0.002956012723,-2.352803892554,-0.000001415404,-0.000000880376,0.000000001953,0.000023968324,0.000000077788,-0.000012778024,-0.116876691580,-0.038958899677,8.894616127014,0.001641464303,-2.800948444997,2.777442216873,-1.547140900289,1.571208357811,-0.785238567983,-0.000012783174,0.000000000000,-0.000000000000,0.000000000000,-0.000023968450,0.000000000000
0.806835000000,0.000010000000,9909.655999999999,-0.085862891294,-0.111228153941,0.323245032594,-0.000713352256,-0.002907062467,-2.352791879924,-0.000001415406,-0.000000880496,0.000000001930,0.000023968323,0.000000078075,-0.000012779738,-0.122870370746,-0.038958899677,8.903606414795,0.001653448562,-2.800960365926,2.777406454086,-1.547164742147,1.571196317673,-0.785238567983,-0.000012783174,0.000000000000,-0.000000000000,0.000000000000,-0.000023968450,0.000000000000
0.814831000000,0.000010000000,9909.663999999999,-0.085864147034,-0.111230134260,0.323232229867,-0.000660151122,-0.002895941758,-2.352780008298,-0.000001415431,-0.000000880480,0.000000001882,0.000023968323,0.000000078075,-0.000012778892,-0.101892501116,-0.044952575117,8.858654022217,0.001653448562,-2.800972763692,2.777430295944,-1.547140900289,1.571172356606,-0.785226647054,-0.000012783174,0.000000000000,-0.000000000000,0.000000000000,-0.000023968450,0.000000000000
0.822830000000,0.000010000000,9909.671999999999,-0.085868387986,-0.111226139900,0.323231157964,-0.000663065169,-0.002944400467,-2.352791951247,-0.000001415404,-0.000000880425,0.000000001953,0.000023968324,0.000000077788,-0.000012778595,-0.128864049911,-0.032965220511,8.885625839233,0.001641464303,-2.800960365926,2.777430295944,-1.547140900289,1.571208357811,-0.785226647054,-0.000012783174,0.000000000000,-0.000000000000,0.000000000000,-0.000023968450,0.000000000000
0.830830000000,0.000010000000,9909.680000000000,-0.085865424898,-0.111230079778,0.323234556103,-0.000681877084,-0.002870587728,-2.352815878692,-0.000001415454,-0.000000880463,0.000000001859,0.000023968324,0.000000077787,-0.000012779452,-0.098895661533,-0.038958899677,8.867644309998,0.001641464303,-2.800960365926,2.777430295944,-1.547176663076,1.571160435677,-0.785250488912,-0.000012783174,0.000000000000,-0.000000000000,0.000000000000,-0.000023968450,0.000000000000
0.838835000000,0.000010000000,9909.688000000000,-0.085858516213,-0.111229227112,0.323242557504,-0.000691048301,-0.002932800632,-2.352779777919,-0.000001415372,-0.000000880551,0.000000001953,0.000023968321,0.000000078651,-0.000012779167,-0.104889340699,-0.032965220511,8.852660179138,0.001677417080,-2.800984684621,2.777406454086,-1.547116581594,1.571208357811,-0.785250488912,-0.000012783174,0.000000000000,-0.000000000000,0.000000000000,-0.000023968450,0.000000000000
0.846834000000,0.000010000000,9909.696000000000,-0.085862697376,-0.111232152839,0.323236904751,-0.000654313274,-0.002881926190,-2.352791847725,-0.000001415433,-0.000000880498,0.000000001859,0.000023968322,0.000000078363,-0.000012778892,-0.119873531163,-0.023974707350,8.864647865295,0.001665432821,-2.800972763692,2.777418375015,-1.547128979360,1.571160435677,-0.785250488912,-0.000012783174,0.000000000000,-0.000000000000,0.000000000000,-0.000023968450,0.000000000000
0.854834000000,0.000010000000,9909.704000000000,-0.085861392969,-0.111227134580,0.323248479967,-0.000699582796,-0.002912725396,-2.352815722809,-0.000001415416,-0.000000880515,0.000000001930,0.000023968324,0.000000077789,-0.000012779458,-0.104889340699,-0.056939929724,8.915594100952,0.001641464303,-2.800984684621,2.777394294739,-1.547116581594,1.571196317673,-0.785250488912,-0.000012783174,0.000000000000,-0.000000000000,0.000000000000,-0.000023968450,0.000000000000
0.862901000000,0.000010000000,9909.712000000000,-0.085869763192,-0.111228091261,0.323228835470,-0.000618050092,-0.002913344861,-2.352815865603,-0.000001415452,-0.000000880408,0.000000001882,0.000023968325,0.000000077502,-0.000012778035,-0.086908310652,-0.047949414700,8.870641708374,0.001629480161,-2.800972763692,2.777430295944,-1.547105137502,1.571172356606,-0.785238567983,-0.000012783174,0.000000000000,-0.000000000000,0.000000000000,-0.000023968450,0.000000000000
0.870845000000,0.000010000000,9909.719999999999,-0.085852317152,-0.111232179153,0.323258858053,-0.000758671746,-0.002855281671,-2.352767896640,-0.000001415410,-0.000000880631,0.000000001882,0.000023968321,0.000000078649,-0.000012780898,-0.122870370746,-0.071924120188,8.834679603577,0.001677417080,-2.800984684621,2.777382373810,-1.547164742147,1.571172356606,-0.785238567983,-0.000012783174,0.000000000000,-0.000000000000,0.000000000000,-0.000023968450,0.000000000000
0.878826000000,0.000010000000,9909.727999999999,-0.085861392969,-0.111227134580,0.323248479967,-0.000699582796,-0.002912725396,-2.352815722809,-0.000001415416,-0.000000880515,0.000000001930,0.000023968324,0.000000077789,-0.000012779458,-0.104889340699,-0.044952575117,8.867644309998,0.001641464303,-2.800984684621,2.777394294739,-1.547116581594,1.571196317673,-0.785250488912,-0.000012783174,0.000000000000,-0.000000000000,0.000000000000,-0.000023968450,0.000000000000
0.886840000000,0.000010000000,9909.735999999999,-0.085857126779,-0.111231157697,0.323238959530,-0.000688170935,-0.002884341775,-2.352791835663,-0.000001415420,-0.000000880569,0.000000001882,0.000023968322,0.000000078362,-0.000012779464,-0.110883019865,-0.029968382791,8.897612571716,0.001665432821,-2.800996605550,2.777418375015,-1.547128979360,1.571172356606,-0.785250488912,-0.000012783174,0.000000000000,-0.000000000000,0.000000000000,-0.000023968450,0.000000000000
0.894831000000,0.000010000000,9909.743999999999,-0.085854363135,-0.111229174074,0.323264765031,-0.000784352760,-0.002877767005,-2.352803682916,-0.000001415395,-0.000000880604,0.000000001930,0.000023968322,0.000000078362,-0.000012781184,-0.119873531163,-0.038958899677,8.903606414795,0.001665432821,-2.800972763692,2.777370452881,-1.547176663076,1.571196317673,-0.785262409841,-0.000012783174,0.000000000000,-0.000000000000,0.000000000000,-0.000023968450,0.000000000000
0.902830000000,0.000010000000,9909.752000000000,-0.085860855926,-0.111232234851,0.323242770698,-0.000679421268,-0.002904598648,-2.352755920282,-0.000001415387,-0.000000880521,0.000000001906,0.000023968320,0.000000078938,-0.000012779167,-0.116876691580,-0.044952575117,8.819695472717,0.001689401222,-2.800960365926,2.777406454086,-1.547140900289,1.571184396744,-0.785238567983,-0.000012783174,0.000000000000,-0.000000000000,0.000000000000,-0.000023968450,0.000000000000
0.910826000000,0.000010000000,9909.760000000000,-0.085863292701,-0.111227129178,0.323243838740,-0.000699883767,-0.002912608841,-2.352803844090,-0.000001415416,-0.000000880490,0.000000001930,0.000023968324,0.000000077788,-0.000012779464,-0.116876691580,-0.065930441022,8.858654022217,0.001641464303,-2.800972763692,2.777406454086,-1.547140900289,1.571196317673,-0.785238567983,-0.000012783174,0.000000000000,-0.000000000000,0.000000000000,-0.000023968450,0.000000000000
0.918822000000,0.000010000000,9909.768000000000,-0.085859407202,-0.111230210387,0.323239164788,-0.000699838268,-0.002912579104,-2.352756001940,-0.000001415384,-0.000000880540,0.000000001930,0.000023968321,0.000000078649,-0.000012779464,-0.119873531163,-0.041955735534,8.882628440857,0.001677417080,-2.800972763692,2.777418375015,-1.547152821218,1.571196317673,-0.785226647054,-0.000012783174,0.000000000000,-0.000000000000,0.000000000000,-0.000023968450,0.000000000000
0.926821000000,0.000010000000,9909.776000000000,-0.085868905182,-0.111228178457,0.323233569950,-0.000629085907,-0.002941833802,-2.352803769823,-0.000001415406,-0.000000880419,0.000000001930,0.000023968323,0.000000078077,-0.000012778024,-0.116876691580,-0.035962060094,8.861651420593,0.001653448562,-2.800960365926,2.777418375015,-1.547105137502,1.571196317673,-0.785250488912,-0.000012783174,0.000000000000,-0.000000000000,0.000000000000,-0.000023968450,0.000000000000
0.934833000000,0.000010000000,9909.784000000000,-0.085857196161,-0.111231103776,0.323247132224,-0.000724564209,-0.002852922281,-2.352780001083,-0.000001415443,-0.000000880568,0.000000001859,0.000023968323,0.000000078074,-0.000012780321,-0.104889340699,-0.077917799354,8.861651420593,0.001653448562,-2.800984684621,2.777406454086,-1.547164742147,1.571160435677,-0.785226647054,-0.000012783174,0.000000000000,-0.000000000000,0.000000000000,-0.000023968450,0.000000000000
0.942829000000,0.000010000000,9909.791999999999,-0.085860335907,-0.111229091569,0.323247234866,-0.000730321521,-0.002867034129,-2.352839665150,-0.000001415441,-0.000000880528,0.000000001882,0.000023968324,0.000000077787,-0.000012780321,-0.116876691580,-0.050946250558,8.849663734436,0.001641464303,-2.800972763692,2.777406454086,-1.547176663076,1.571172356606,-0.785274330770,-0.000012783174,0.000000000000,-0.000000000000,0.000000000000,-0.000023968450,0.000000000000
0.950826000000,0.000010000000,9909.799999999999,-0.085858686812,-0.111230117263,0.323229611627,-0.000688183539,-0.002884329349,-2.352803882942,-0.000001415431,-0.000000880549,0.000000001882,0.000023968323,0.000000078074,-0.000012779464,-0.125867202878,-0.005993676838,8.831682205200,0.001653448562,-2.800996605550,2.777442216873,-1.547152821218,1.571172356606,-0.785250488912,-0.000012783174,0.000000000000,-0.000000000000,0.000000000000,-0.000023968450,0.000000000000
0.958822000000,0.000010000000,9909.807999999999,-0.085861249946,-0.111229140718,0.323237930740,-0.000680005541,-0.002904342000,-2.352803805672,-0.000001415418,-0.000000880517,0.000000001906,0.000023968323,0.000000078076,-0.000012779178,-0.125867202878,-0.020977867767,8.825689315796,0.001653448562,-2.800984684621,2.777418375015,-1.547128979360,1.571184396744,-0.785250488912,-0.000012783174,0.000000000000,-0.000000000000,0.000000000000,-0.000023968450,0.000000000000
0.966873000000,0.000010000000,9909.815999999999,-0.085864688393,-0.111230132009,0.323245138028,-0.000701735438,-0.002878844166,-2.352779996325,-0.000001415431,-0.000000880473,0.000000001882,0.000023968323,0.000000078075,-0.000012779738,-0.095898829401,-0.029968382791,8.903606414795,0.001653448562,-2.800948444997,2.777406454086,-1.547176663076,1.571172356606,-0.785226647054,-0.000012783174,0.000000000000,-0.000000000000,0.000000000000,-0.000023968450,0.000000000000
0.974823000000,0.000010000000,9909.823999999999,-0.085866307798,-0.111226135584,0.323238094816,-0.000691150667,-0.002932818739,-2.352791940434,-0.000001415404,-0.000000880452,0.000000001953,0.000023968324,0.000000077788,-0.000012779167,-0.092901989818,-0.062933601439,8.897612571716,0.001641464303,-2.800960365926,2.777418375015,-1.547152821218,1.571208357811,-0.785226647054,-0.000012783174,0.000000000000,-0.000000000000,0.000000000000,-0.000023968450,0.000000000000
0.982820000000,0.000010000000,9909.832000000000,-0.085860020707,-0.111233135098,0.323233259598,-0.000662525294,-0.002861898842,-2.352768051641,-0.000001415446,-0.000000880532,0.000000001835,0.000023968322,0.000000078362,-0.000012779178,-0.119873531163,-0.056939929724,8.879631996155,0.001665432821,-2.800984684621,2.777430295944,-1.547140900289,1.571148395538,-0.785226647054,-0.000012783174,0.000000000000,-0.000000000000,0.000000000000,-0.000023968450,0.000000000000
0.990828000000,0.000010000000,9909.840000000000,-0.085858310277,-0.111230211063,0.323244970159,-0.000713851668,-0.002906816031,-2.352779822511,-0.000001415384,-0.000000880554,0.000000001930,0.000023968321,0.000000078649,-0.000012779750,-0.110883019865,-0.050946250558,8.843669891357,0.001677417080,-2.800972763692,2.777406454086,-1.547152821218,1.571196317673,-0.785250488912,-0.000012783174,0.000000000000,-0.000000000000,0.000000000000,-0.000023968450,0.000000000000
0.998830000000,0.000010000000,9909.848000000000,-0.085863729676,-0.111231126055,0.323248694070,-0.000682210700,-0.002870445906,-2.352755638963,-0.000001415443,-0.000000880485,0.000000001859,0.000023968323,0.000000078076,-0.000012779458,-0.119873531163,-0.017981030047,8.855657577515,0.001653448562,-2.800960365926,2.777394294739,-1.547140900289,1.571160435677,-0.785202328359,-0.000012783174,0.000000000000,-0.000000000000,0.000000000000,-0.000023968450,0.000000000000
1.006821000000,0.000010000000,9909.856000000000,-0.085857932616,-0.111226089797,0.323251815850,-0.000742264316,-0.002895105467,-2.352839648960,-0.000001415427,-0.000000880559,0.000000001930,0.000023968325,0.000000077501,-0.000012780327,-0.110883019865,-0.026971545070,8.882628440857,0.001629480161,-2.800996605550,2.777394294739,-1.547140900289,1.571196317673,-0.785262409841,-0.000012783174,0.000000000000,-0.000000000000,0.000000000000,-0.000023968450,0.000000000000
1.014820000000,0.000010000000,9909.864000000000,-0.085863406181,-0.111227123431,0.323239164788,-0.000699864982,-0.002912612644,-2.352815796525,-0.000001415416,-0.000000880489,0.000000001930,0.000023968324,0.000000077788,-0.000012779464,-0.113879859447,-0.035962060094,8.864647865295,0.001641464303,-2.800972763692,2.777418375015,-1.547152821218,1.571196317673,-0.785250488912,-0.000012783174,0.000000000000,-0.000000000000,0.000000000000,-0.000023968450,0.000000000000
1.022819000000,0.000010000000,9909.871999999999,-0.085859854136,-0.111229137674,0.323250892577,-0.000722439947,-0.002886865663,-2.352791862104,-0.000001415418,-0.000000880534,0.000000001906,0.000023968323,0.000000078075,-0.000012780041,-0.098895661533,-0.059936765581,8.867644309998,0.001653448562,-2.800972763692,2.777394294739,-1.547152821218,1.571184396744,-0.785238567983,-0.000012783174,0.000000000000,-0.000000000000,0.000000000000,-0.000023968450,0.000000000000
1.030825000000,0.000010000000,9909.879999999999,-0.085868745136,-0.111227175289,0.323235935445,-0.000663072764,-0.002944412220,-2.352768024413,-0.000001415393,-0.000000880421,0.000000001953,0.000023968323,0.000000078076,-0.000012778595,-0.110883019865,-0.035962060094,8.843669891357,0.001653448562,-2.800948444997,2.777418375015,-1.547140900289,1.571208357811,-0.785214726125,-0.000012783174,0.000000000000,-0.000000000000,0.000000000000,-0.000023968450,0.000000000000
1.038833000000,0.000010000000,9909.887999999999,-0.085859504590,-0.111230171688,0.323249761170,-0.000708379571,-0.002892657034,-2.352779867605,-0.000001415408,-0.000000880539,0.000000001906,0.000023968322,0.000000078363,-0.000012779755,-0.116876691580,-0.014984191395,8.837676048279,0.001665432821,-2.800972763692,2.777394294739,-1.547140900289,1.571184396744,-0.785238567983,-0.000012783174,0.000000000000,-0.000000000000,0.000000000000,-0.000023968450,0.000000000000
1.046820000000,0.000010000000,9909.895999999999,-0.085864480607,-0.111229067246,0.323248631634,-0.000682770779,-0.002870224431,-2.352803916197,-0.000001415465,-0.000000880475,0.000000001859,0.000023968325,0.000000077502,-0.000012779470,-0.116876691580,-0.008990515023,8.942565917969,0.001629480161,-2.800972763692,2.777394294739,-1.547128979360,1.571160435677,-0.785226647054,-0.000012783174,0.000000000000,-0.000000000000,0.000000000000,-0.000023968450,0.000000000000
1.054817000000,0.000010000000,9909.904000000000,-0.085857652394,-0.111227069868,0.323258857102,-0.000764612382,-0.002869464303,-2.352803898541,-0.000001415439,-0.000000880563,0.000000001906,0.000023968325,0.000000077500,-0.000012780898,-0.113879859447,-0.035962060094,8.918590545654,0.001629480161,-2.800984684621,2.777382373810,-1.547164742147,1.571184396744,-0.785226647054,-0.000012783174,0.000000000000,-0.000000000000,0.000000000000,-0.000023968450,0.000000000000
1.062856000000,0.000010000000,9909.912000000000,-0.085868615646,-0.111230175406,0.323225457995,-0.000637349969,-0.002921973291,-2.352768040555,-0.000001415408,-0.000000880422,0.000000001906,0.000023968322,0.000000078362,-0.000012778310,-0.113879859447,-0.068927280605,8.843669891357,0.001665432821,-2.800948444997,2.777442216873,-1.547152821218,1.571184396744,-0.785226647054,-0.000012783174,0.000000000000,-0.000000000000,0.000000000000,-0.000023968450,0.000000000000
1.070858000000,0.000060000000,9909.920000000000,-0.085861745751,-0.111229171245,0.323235729943,-0.000713888163,-0.002906811599,-2.352779959114,-0.000001415395,-0.000000880510,0.000000001930,0.000023968322,0.000000078360,-0.000012779750,-0.071924120188,0.014984191395,8.900609970093,0.001665432821,-2.800960365926,2.777430295944,-1.547189060842,1.571196317673,-0.785238567983,-0.000012783174,0.000000000000,-0.000000000000,0.000000000000,-0.000023968450,0.000000000000
1.078812000000,0.000160000000,9909.928000000000,-0.085856346606,-0.111229207266,0.323247231986,-0.000747767511,-0.002909422420,-2.352791749668,-0.000001415372,-0.000000880579,0.000000001953,0.000023968321,0.000000078648,-0.000012780321,0.470503628254,0.536434054375,8.912597656250,0.001677417080,-2.800972763692,2.777406454086,-1.547176663076,1.571208357811,-0.785262409841,-0.000012783174,0.000000000000,-0.000000000000,0.000000000000,-0.000023968450,0.000000000000
1.086826000000,0.000320000000,9909.936000000000,-0.085852185573,-0.111233316252,0.323236797941,-0.000734234808,-0.002914932616,-2.352720024460,-0.000001415329,-0.000000880632,0.000000001953,0.000023968317,0.000000079796,-0.000012780047,0.949997723103,1.060880780220,8.813701629639,0.001725353883,-2.800972763692,2.777430295944,-1.547189060842,1.571208357811,-0.785238567983,-0.000012783174,0.000000000000,-0.000000000000,0.000000000000,-0.000023968450,0.000000000000
1.094822000000,0.000520000000,9909.944000000000,-0.085861726888,-0.111228192811,0.323238032382,-0.000691633981,-0.002932583536,-2.352791803943,-0.000001415382,-0.000000880510,0.000000001953,0.000023968322,0.000000078363,-0.000012779178,0.722238063812,0.833121061325,8.810704231262,0.001665432821,-2.800972763692,2.777418375015,-1.547140900289,1.571208357811,-0.785250488912,-0.000012783174,0.000000000000,-0.000000000000,0.000000000000,-0.000023968450,0.000000000000
1.102813000000,0.000760000000,9909.951999999999,-0.085856107293,-0.111231229172,0.323241427614,-0.000727901246,-0.002900986890,-2.352744038236,-0.000001415374,-0.000000880582,0.000000001930,0.000023968320,0.000000078935,-0.000012780035,-0.047949414700,0.050946250558,8.888622283936,0.001689401222,-2.800972763692,2.777418375015,-1.547176663076,1.571196317673,-0.785226647054,-0.000012783174,0.000000000000,-0.000000000000,0.000000000000,-0.000023968450,0.000000000000
1.110818000000,0.001020000000,9909.959999999999,-0.085865955444,-0.111226054964,0.323243839694,-0.000694130941,-0.002898572919,-2.352827826105,-0.000001415450,-0.000000880457,0.000000001906,0.000023968326,0.000000077214,-0.000012779464,-0.125867202878,-0.026971545070,8.888622283936,0.001617495902,-2.800972763692,2.777406454086,-1.547140900289,1.571184396744,-0.785238567983,-0.000012783174,0.000000000000,-0.000000000000,0.000000000000,-0.000023968450,0.000000000000
1.118814000000,0.001290000000,9909.967999999999,-0.085856385742,-0.111228146927,0.323245894400,-0.000727915703,-0.002900989811,-2.352803781492,-0.000001415405,-0.000000880579,0.000000001930,0.000023968323,0.000000078075,-0.000012780035,0.149841919541,0.227759718895,8.876635551453,0.001653448562,-2.800996605550,2.777406454086,-1.547140900289,1.571196317673,-0.785250488912,-0.000012783174,0.000000000000,-0.000000000000,0.000000000000,-0.000023968450,0.000000000000
1.126820000000,0.001610000000,9909.975999999999,-0.085867191013,-0.111229265778,0.323214859582,-0.000640381503,-0.002970151295,-2.352767926632,-0.000001415349,-0.000000880440,0.000000001977,0.000023968320,0.000000078936,-0.000012778018,0.296687006950,0.344636410475,8.870641708374,0.001689401222,-2.800948444997,2.777466297150,-1.547164742147,1.571220278740,-0.785250488912,-0.000012783174,0.000000000000,-0.000000000000,0.000000000000,-0.000023968450,0.000000000000
1.134819000000,0.001990000000,9909.984000000000,-0.085861907836,-0.111228148897,0.323246164002,-0.000727378046,-0.002901279658,-2.352803811026,-0.000001415406,-0.000000880508,0.000000001930,0.000023968323,0.000000078074,-0.000012780024,0.452522575855,0.566402435303,8.894616127014,0.001653448562,-2.800960365926,2.777406454086,-1.547176663076,1.571196317673,-0.785250488912,-0.000012783174,0.000000000000,-0.000000000000,0.000000000000,-0.000023968450,0.000000000000
1.142812000000,0.002400000000,9909.992000000000,-0.085865986482,-0.111230211611,0.323233674123,-0.000685817899,-0.002918423781,-2.352756053078,-0.000001415385,-0.000000880456,0.000000001930,0.000023968321,0.000000078648,-0.000012779178,0.536434054375,0.761196911335,8.816698074341,0.001677417080,-2.800936524068,2.777430295944,-1.547189060842,1.571196317673,-0.785226647054,-0.000012783174,0.000000000000,-0.000000000000,0.000000000000,-0.000023968450,0.000000000000
1.150808000000,0.002850000000,9910.000000000000,-0.085860325891,-0.111229189383,0.323255628012,-0.000727661538,-0.002901164705,-2.352779842400,-0.000001415395,-0.000000880528,0.000000001930,0.000023968322,0.000000078363,-0.000012780030,0.248737588525,0.392585813999,8.867644309998,0.001665432821,-2.800960365926,2.777382373810,-1.547152821218,1.571196317673,-0.785238567983,-0.000012783174,0.000000000000,-0.000000000000,0.000000000000,-0.000023968450,0.000000000000
1.158808000000,0.003330000000,9910.008000000000,-0.085858879295,-0.111230224090,0.323260301961,-0.000727645495,-0.002901169424,-2.352767826636,-0.000001415384,-0.000000880547,0.000000001930,0.000023968321,0.000000078651,-0.000012780030,0.122870370746,0.194794490933,8.903606414795,0.001677417080,-2.800960365926,2.777370452881,-1.547140900289,1.571196317673,-0.785238567983,-0.000012783174,0.000000000000,-0.000000000000,0.000000000000,-0.000023968450,0.000000000000
1.166862000000,0.003850000000,9910.016000000000,-0.085861012890,-0.111226122185,0.323228477316,-0.000691650470,-0.002932536494,-2.352815815775,-0.000001415403,-0.000000880520,0.000000001953,0.000023968324,0.000000077787,-0.000012779178,0.212775528431,0.101892501116,8.933574676514,0.001641464303,-2.800996605550,2.777442216873,-1.547140900289,1.571208357811,-0.785250488912,-0.000012783174,0.000000000000,-0.000000000000,0.000000000000,-0.000023968450,0.000000000000
1.174815000000,0.004400000000,9910.023999999999,-0.085870235733,-0.111224080260,0.323225290112,-0.000649597066,-0.002949954778,-2.352827851786,-0.000001415425,-0.000000880402,0.000000001953,0.000023968326,0.000000077214,-0.000012778321,0.305677503347,0.128864049911,8.885625839233,0.001617495902,-2.800972763692,2.777442216873,-1.547128979360,1.571208357811,-0.785238567983,-0.000012783174,0.000000000000,-0.000000000000,0.000000000000,-0.000023968450,0.000000000000
1.182812000000,0.004990000000,9910.031999999999,-0.085849517046,-0.111229234953,0.323244657903,-0.000782164083,-0.002911595853,-2.352779783493,-0.000001415348,-0.000000880666,0.000000001977,0.000023968320,0.000000078934,-0.000012780904,0.362617433071,0.182807132602,8.921587944031,0.001689401222,-2.800996605550,2.777418375015,-1.547189060842,1.571220278740,-0.785262409841,-0.000012783174,0.000000000000,-0.000000000000,0.000000000000,-0.000023968450,0.000000000000
1.190820000000,0.005620000000,9910.039999999999,-0.085840472726,-0.111233230347,0.323260705295,-0.000792532983,-0.002857794107,-2.352743894684,-0.000001415376,-0.000000880782,0.000000001906,0.000023968319,0.000000079223,-0.000012781470,0.449525743723,0.377601623535,8.771745681763,0.001701385481,-2.801032368337,2.777382373810,-1.547140900289,1.571184396744,-0.785238567983,-0.000012783174,0.000000000000,-0.000000000000,0.000000000000,-0.000023968450,0.000000000000
1.198816000000,0.006300000000,9910.047999999999,-0.085858545205,-0.111225136036,0.323247127436,-0.000753593309,-0.002923467437,-2.352839599500,-0.000001415391,-0.000000880551,0.000000001977,0.000023968324,0.000000077787,-0.000012780321,0.464509934187,0.575392961502,8.798717498779,0.001641464303,-2.800984684621,2.777406454086,-1.547164742147,1.571220278740,-0.785274330770,-0.000012783174,0.000000000000,-0.000000000000,0.000000000000,-0.000023968450,0.000000000000
1.206813000000,0.007020000000,9910.055999999999,-0.085850979972,-0.111230145204,0.323255210919,-0.000778569783,-0.002863646097,-2.352779898471,-0.000001415407,-0.000000880648,0.000000001906,0.000023968322,0.000000078361,-0.000012781184,0.221766039729,0.446528911591,8.885625839233,0.001665432821,-2.800996605550,2.777394294739,-1.547176663076,1.571184396744,-0.785238567983,-0.000012783174,0.000000000000,-0.000000000000,0.000000000000,-0.000023968450,0.000000000000
1.214806000000,0.007760000000,9910.064000000000,-0.085847379253,-0.111228166511,0.323255001735,-0.000790193853,-0.002891833665,-2.352779850442,-0.000001415382,-0.000000880694,0.000000001953,0.000023968322,0.000000078361,-0.000012781184,0.146845072508,0.284699648619,8.855657577515,0.001665432821,-2.801020447408,2.777394294739,-1.547152821218,1.571208357811,-0.785238567983,-0.000012783174,0.000000000000,-0.000000000000,0.000000000000,-0.000023968450,0.000000000000
1.222811000000,0.008550000000,9910.072000000000,-0.085860860097,-0.111227198187,0.323234488882,-0.000711462923,-0.002940823899,-2.352791831932,-0.000001415370,-0.000000880521,0.000000001977,0.000023968322,0.000000078361,-0.000012779464,0.371607959270,0.383595317602,8.777739524841,0.001665432821,-2.800972763692,2.777430295944,-1.547164742147,1.571220278740,-0.785250488912,-0.000012783174,0.000000000000,-0.000000000000,0.000000000000,-0.000023968450,0.000000000000
1.230807000000,0.009360000000,9910.080000000000,-0.085859869520,-0.111231269114,0.323228746905,-0.000691047348,-0.002932785521,-2.352732082336,-0.000001415351,-0.000000880534,0.000000001953,0.000023968319,0.000000079223,-0.000012779167,0.167822942138,0.170819789171,8.918590545654,0.001701385481,-2.800960365926,2.777442216873,-1.547176663076,1.571208357811,-0.785226647054,-0.000012783174,0.000000000000,-0.000000000000,0.000000000000,-0.000023968450,0.000000000000
1.238816000000,0.010220000000,9910.088000000000,-0.085854886737,-0.111228205588,0.323233105580,-0.000753587085,-0.002923386273,-2.352756057624,-0.000001415359,-0.000000880598,0.000000001977,0.000023968321,0.000000078646,-0.000012780321,0.329652220011,0.482490986586,8.900609970093,0.001677417080,-2.800984684621,2.777442216873,-1.547200504933,1.571220278740,-0.785226647054,-0.000012783174,0.000000000000,-0.000000000000,0.000000000000,-0.000023968450,0.000000000000
1.246803000000,0.011120000000,9910.096000000000,-0.085857658788,-0.111225092381,0.323258855173,-0.000776237709,-0.002897702061,-2.352815791270,-0.000001415414,-0.000000880563,0.000000001953,0.000023968325,0.000000077500,-0.000012780898,0.443532079458,0.587380290031,8.756761550903,0.001629480161,-2.800984684621,2.777382373810,-1.547164742147,1.571208357811,-0.785238567983,-0.000012783174,0.000000000000,-0.000000000000,0.000000000000,-0.000023968450,0.000000000000
1.254802000000,0.012070000000,9910.103999999999,-0.085861322605,-0.111228102938,0.323246102520,-0.000722175001,-0.002886976675,-2.352803878294,-0.000001415429,-0.000000880516,0.000000001906,0.000023968324,0.000000077787,-0.000012780035,0.233753383160,0.446528911591,8.873638153076,0.001641464303,-2.800972763692,2.777406454086,-1.547164742147,1.571184396744,-0.785238567983,-0.000012783174,0.000000000000,-0.000000000000,0.000000000000,-0.000023968450,0.000000000000
1.262808000000,0.013050000000,9910.111999999999,-0.085853206803,-0.111231229188,0.323247129389,-0.000741907036,-0.002895205091,-2.352767848821,-0.000001415374,-0.000000880619,0.000000001930,0.000023968320,0.000000078936,-0.000012780321,0.335645884275,0.398579508066,8.879631996155,0.001689401222,-2.800984684621,2.777406454086,-1.547164742147,1.571196317673,-0.785250488912,-0.000012783174,0.000000000000,-0.000000000000,0.000000000000,-0.000023968450,0.000000000000
1.270856000000,0.014080000000,9910.119999999999,-0.085854543068,-0.111229206641,0.323247128414,-0.000747744211,-0.002909415300,-2.352803660738,-0.000001415372,-0.000000880602,0.000000001953,0.000023968321,0.000000078649,-0.000012780321,0.149841919541,0.224762871861,8.834679603577,0.001677417080,-2.800984684621,2.777406454086,-1.547164742147,1.571208357811,-0.785274330770,-0.000012783174,0.000000000000,-0.000000000000,0.000000000000,-0.000023968450,0.000000000000
1.278803000000,0.015120000000,9910.127999999999,-0.085867936677,-0.111229156762,0.323259482041,-0.000707860041,-0.002892996764,-2.352803749123,-0.000001415418,-0.000000880431,0.000000001906,0.000023968323,0.000000078076,-0.000012779744,0.377601623535,0.506465673447,8.780735969543,0.001653448562,-2.800924603139,2.777370452881,-1.547164742147,1.571184396744,-0.785250488912,-0.000012783174,0.000000000000,-0.000000000000,0.000000000000,-0.000023968450,0.000000000000
1.286812000000,0.016210000000,9910.136000000000,-0.085867059291,-0.111230232133,0.323234804955,-0.000643096541,-0.002936050766,-2.352779821767,-0.000001415385,-0.000000880442,0.000000001930,0.000023968321,0.000000078651,-0.000012778310,0.218769192696,0.380598455667,8.789727210999,0.001677417080,-2.800948444997,2.777418375015,-1.547128979360,1.571196317673,-0.785250488912,-0.000012783174,0.000000000000,-0.000000000000,0.000000000000,-0.000023968450,0.000000000000
1.294814000000,0.017340000000,9910.144000000000,-0.085857202602,-0.111229126289,0.323247130343,-0.000736173864,-0.002881171589,-2.352803815298,-0.000001415418,-0.000000880568,0.000000001906,0.000023968323,0.000000078074,-0.000012780321,0.326655387878,0.446528911591,8.795720100403,0.001653448562,-2.800984684621,2.777406454086,-1.547164742147,1.571184396744,-0.785250488912,-0.000012783174,0.000000000000,-0.000000000000,0.000000000000,-0.000023968450,0.000000000000
1.302801000000,0.018510000000,9910.152000000000,-0.085854316836,-0.111227273553,0.323241320090,-0.000751188231,-0.002957406905,-2.352732051403,-0.000001415323,-0.000000880605,0.000000002024,0.000023968320,0.000000078936,-0.000012780035,0.185803979635,0.305677503347,8.843669891357,0.001689401222,-2.800984684621,2.777418375015,-1.547164742147,1.571244239807,-0.785214726125,-0.000012783174,0.000000000000,-0.000000000000,0.000000000000,-0.000023968450,0.000000000000
1.310798000000,0.019700000000,9910.160000000000,-0.085858542012,-0.111226119860,0.323247128414,-0.000747879381,-0.002909364644,-2.352780008889,-0.000001415403,-0.000000880551,0.000000001953,0.000023968324,0.000000077787,-0.000012780321,0.323658525944,0.371607959270,8.954552650452,0.001641464303,-2.800984684621,2.777406454086,-1.547164742147,1.571208357811,-0.785214726125,-0.000012783174,0.000000000000,-0.000000000000,0.000000000000,-0.000023968450,0.000000000000
1.318803000000,0.020930000000,9910.168000000000,-0.085854059595,-0.111232132099,0.323247028631,-0.000724522206,-0.002852911802,-2.352779927904,-0.000001415433,-0.000000880608,0.000000001859,0.000023968322,0.000000078362,-0.000012780321,0.200788170099,0.299683839083,8.834679603577,0.001665432821,-2.800996605550,2.777406454086,-1.547152821218,1.571160435677,-0.785238567983,-0.000012783174,0.000000000000,-0.000000000000,0.000000000000,-0.000023968450,0.000000000000
1.326805000000,0.022190000000,9910.175999999999,-0.085865662249,-0.111228126569,0.323259275040,-0.000707894255,-0.002892938440,-2.352791871835,-0.000001415429,-0.000000880460,0.000000001906,0.000023968324,0.000000077790,-0.000012779744,0.215772360563,0.254731267691,8.834679603577,0.001641464303,-2.800948444997,2.777370452881,-1.547140900289,1.571184396744,-0.785226647054,-0.000012783174,0.000000000000,-0.000000000000,0.000000000000,-0.000023968450,0.000000000000
1.334808000000,0.023500000000,9910.183999999999,-0.085855269916,-0.111227153980,0.323251814875,-0.000748074605,-0.002909282553,-2.352815666522,-0.000001415393,-0.000000880593,0.000000001953,0.000023968323,0.000000078075,-0.000012780327,0.215772360563,0.395582646132,8.894616127014,0.001653448562,-2.800996605550,2.777394294739,-1.547140900289,1.571208357811,-0.785262409841,-0.000012783174,0.000000000000,-0.000000000000,0.000000000000,-0.000023968450,0.000000000000
1.342798000000,0.024830000000,9910.191999999999,-0.085851966701,-0.111229166435,0.323254078605,-0.000770365749,-0.002883446690,-2.352743634911,-0.000001415395,-0.000000880635,0.000000001930,0.000023968322,0.000000078361,-0.000012780898,0.392585813999,0.407570004463,8.894616127014,0.001665432821,-2.800996605550,2.777394294739,-1.547164742147,1.571196317673,-0.785202328359,-0.000012783174,0.000000000000,-0.000000000000,0.000000000000,-0.000023968450,0.000000000000
1.350797000000,0.026210000000,9910.199999999999,-0.085866658506,-0.111229148434,0.323242874227,-0.000679424450,-0.002904674431,-2.352839566438,-0.000001415418,-0.000000880447,0.000000001906,0.000023968323,0.000000078076,-0.000012779167,0.350630074739,0.407570004463,8.870641708374,0.001653448562,-2.800948444997,2.777406454086,-1.547152821218,1.571184396744,-0.785286251699,-0.000012783174,0.000000000000,-0.000000000000,0.000000000000,-0.000023968450,0.000000000000
1.358800000000,0.027630000000,9910.207999999999,-0.085865214137,-0.111225152475,0.323243899222,-0.000710954891,-0.002941098116,-2.352815747236,-0.000001415391,-0.000000880466,0.000000001977,0.000023968324,0.000000077788,-0.000012779452,0.305677503347,0.389588981867,8.840673446655,0.001641464303,-2.800960365926,2.777406454086,-1.547152821218,1.571220278740,-0.785250488912,-0.000012783174,0.000000000000,-0.000000000000,0.000000000000,-0.000023968450,0.000000000000
1.366848000000,0.029090000000,9910.216000000000,-0.085863572811,-0.111229139063,0.323251058545,-0.000721848375,-0.002887171720,-2.352827644546,-0.000001415418,-0.000000880487,0.000000001906,0.000023968323,0.000000078075,-0.000012780030,0.275709122419,0.314668029547,8.906603813171,0.001653448562,-2.800948444997,2.777394294739,-1.547176663076,1.571184396744,-0.785274330770,-0.000012783174,0.000000000000,-0.000000000000,0.000000000000,-0.000023968450,0.000000000000
1.374798000000,0.030580000000,9910.224000000000,-0.085861141148,-0.111230255163,0.323231095533,-0.000663509473,-0.002944157238,-2.352767846381,-0.000001415361,-0.000000880518,0.000000001953,0.000023968320,0.000000078937,-0.000012778607,0.356623768806,0.386592149734,8.876635551453,0.001689401222,-2.800972763692,2.777430295944,-1.547128979360,1.571208357811,-0.785250488912,-0.000012783174,0.000000000000,-0.000000000000,0.000000000000,-0.000023968450,0.000000000000
1.382801000000,0.032120000000,9910.232000000000,-0.085858423757,-0.111230205320,0.323240296207,-0.000713910973,-0.002906760572,-2.352731693513,-0.000001415384,-0.000000880552,0.000000001930,0.000023968321,0.000000078649,-0.000012779750,0.431544721127,0.461513102055,8.864647865295,0.001677417080,-2.800972763692,2.777418375015,-1.547164742147,1.571196317673,-0.785202328359,-0.000012783174,0.000000000000,-0.000000000000,0.000000000000,-0.000023968450,0.000000000000
1.390803000000,0.033700000000,9910.240000000000,-0.085863046264,-0.111233227187,0.323231160844,-0.000645514981,-0.002901965746,-2.352732133968,-0.000001415399,-0.000000880493,0.000000001882,0.000023968320,0.000000078937,-0.000012778595,0.485487818718,0.593374013901,8.861651420593,0.001689401222,-2.800960365926,2.777430295944,-1.547140900289,1.571172356606,-0.785214726125,-0.000012783174,0.000000000000,-0.000000000000,0.000000000000,-0.000023968450,0.000000000000
1.398808000000,0.035330000000,9910.248000000000,-0.085856110566,-0.111230235510,0.323241426638,-0.000733719042,-0.002915193736,-2.352767866092,-0.000001415361,-0.000000880582,0.000000001953,0.000023968320,0.000000078935,-0.000012780035,0.338642746210,0.419557362795,8.885625839233,0.001689401222,-2.800972763692,2.777418375015,-1.547176663076,1.571208357811,-0.785250488912,-0.000012783174,0.000000000000,-0.000000000000,0.000000000000,-0.000023968450,0.000000000000
1.406796000000,0.036990000000,9910.255999999999,-0.085863062561,-0.111228278552,0.323231155987,-0.000674563403,-0.002972658193,-2.352791670729,-0.000001415336,-0.000000880493,0.000000002001,0.000023968320,0.000000078937,-0.000012778595,0.134857729077,0.170819789171,8.951556205750,0.001689401222,-2.800960365926,2.777430295944,-1.547140900289,1.571232318878,-0.785274330770,-0.000012783174,0.000000000000,-0.000000000000,0.000000000000,-0.000023968450,0.000000000000
1.414798000000,0.038680000000,9910.263999999999,-0.085865725252,-0.111227214182,0.323231156986,-0.000668817477,-0.002958435705,-2.352767969195,-0.000001415370,-0.000000880459,0.000000001977,0.000023968322,0.000000078363,-0.000012778595,0.242743909359,0.257728099823,8.894616127014,0.001665432821,-2.800960365926,2.777430295944,-1.547140900289,1.571220278740,-0.785226647054,-0.000012783174,0.000000000000,-0.000000000000,0.000000000000,-0.000023968450,0.000000000000
1.422794000000,0.040430000000,9910.271999999999,-0.085859866236,-0.111232262776,0.323228747880,-0.000685214320,-0.002918590868,-2.352720175181,-0.000001415363,-0.000000880534,0.000000001930,0.000023968319,0.000000079223,-0.000012779167,0.437538385391,0.497475177050,8.831682205200,0.001701385481,-2.800960365926,2.777442216873,-1.547176663076,1.571196317673,-0.785214726125,-0.000012783174,0.000000000000,-0.000000000000,0.000000000000,-0.000023968450,0.000000000000
1.430793000000,0.042200000000,9910.279999999999,-0.085863056049,-0.111230256038,0.323231157964,-0.000662956031,-0.002944408872,-2.352767856206,-0.000001415361,-0.000000880493,0.000000001953,0.000023968320,0.000000078937,-0.000012778595,0.473500460386,0.644320249557,8.738780975342,0.001689401222,-2.800960365926,2.777430295944,-1.547140900289,1.571208357811,-0.785250488912,-0.000012783174,0.000000000000,-0.000000000000,0.000000000000,-0.000023968450,0.000000000000
1.438805000000,0.044020000000,9910.287999999999,-0.085860976275,-0.111228153134,0.323244970159,-0.000713921176,-0.002906799045,-2.352779949171,0.000000006443,-0.000001978096,0.000000001930,0.000023968323,0.000000078075,0.000000003424,0.221766039729,0.368611127138,8.816698074341,0.001653448562,-2.800972763692,2.777406454086,-1.547152821218,1.571196317673,-0.785226647054,0.000000000000,0.000000000000,-0.000000000000,0.000000000000,-0.000023968450,0.000000000000
1.446789000000,0.045850000000,9910.296000000000,-0.085855744744,-0.111231246410,0.323255565573,-0.000728191834,-0.002900894861,-2.352743943262,0.000000006514,-0.000001978096,0.000000001930,0.000023968320,0.000000078938,0.000000003133,0.086908310652,0.131860882044,8.903606414795,0.001689401222,-2.800972763692,2.777382373810,-1.547140900289,1.571196317673,-0.785226647054,0.000000000000,0.000000000000,-0.000000000000,0.000000000000,-0.000023968450,0.000000000000
1.454794000000,0.047720000000,9910.304000000000,-0.085853843084,-0.111227227854,0.323241217499,-0.000745362151,-0.002943384627,-2.352779802493,0.000000006491,-0.000001978096,0.000000002001,0.000023968321,0.000000078649,0.000000003138,0.197791323066,0.122870370746,8.933574676514,0.001677417080,-2.800996605550,2.777418375015,-1.547152821218,1.571232318878,-0.785250488912,0.000000000000,0.000000000000,-0.000000000000,0.000000000000,-0.000023968450,0.000000000000
1.462787000000,0.049620000000,9910.312000000000,-0.085860450264,-0.111230259349,0.323254599160,-0.000719391712,-0.002921190412,-2.352791622534,0.000000006514,-0.000001978096,0.000000001954,0.000023968320,0.000000078938,0.000000003430,0.230756551027,0.182807132602,8.903606414795,0.001689401222,-2.800948444997,2.777382373810,-1.547152821218,1.571208357811,-0.785274330770,0.000000000000,0.000000000000,-0.000000000000,0.000000000000,-0.000023968450,0.000000000000
1.470842000000,0.051570000000,9910.320000000000,-0.085855520687,-0.111229244635,0.323230842778,-0.000725454122,-0.002934995853,-2.352767895324,0.000000006514,-0.000001978096,0.000000001977,0.000023968320,0.000000078935,0.000000003424,0.266718626022,0.269715458155,8.897612571716,0.001689401222,-2.800984684621,2.777442216873,-1.547176663076,1.571220278740,-0.785250488912,0.000000000000,0.000000000000,-0.000000000000,0.000000000000,-0.000023968450,0.000000000000
1.478792000000,0.053540000000,9910.328000000000,-0.085860872511,-0.111228187505,0.323263902181,-0.000775683575,-0.002897986031,-2.352756004684,0.000000006467,-0.000001978096,0.000000001954,0.000023968322,0.000000078362,0.000000002287,0.323658525944,0.224762871861,8.843669891357,0.001665432821,-2.800936524068,2.777370452881,-1.547200504933,1.571208357811,-0.785214726125,0.000000000000,0.000000000000,-0.000000000000,0.000000000000,-0.000023968450,0.000000000000
1.486797000000,0.055550000000,9910.335999999999,-0.085859400679,-0.111227216122,0.323254432213,-0.000725813633,-0.002934933375,-2.352779794629,0.000000006467,-0.000001978096,0.000000001977,0.000023968322,0.000000078364,0.000000003418,0.347633242607,0.305677503347,8.807707786560,0.001665432821,-2.800972763692,2.777382373810,-1.547128979360,1.571220278740,-0.785238567983,0.000000000000,0.000000000000,-0.000000000000,0.000000000000,-0.000023968450,0.000000000000
1.494800000000,0.057610000000,9910.343999999999,-0.085865200940,-0.111231268895,0.323251309353,-0.000671442599,-0.002924397066,-2.352779694418,0.000000006514,-0.000001978096,0.000000001930,0.000023968320,0.000000078939,0.000000004287,0.416560530663,0.479494124651,8.795720100403,0.001689401222,-2.800936524068,2.777382373810,-1.547128979360,1.571196317673,-0.785262409841,0.000000000000,0.000000000000,-0.000000000000,0.000000000000,-0.000023968450,0.000000000000
1.502793000000,0.059710000000,9910.351999999999,-0.085861092992,-0.111227153726,0.323240295231,-0.000719751446,-0.002920986016,-2.352791887695,0.000000006443,-0.000001978096,0.000000001953,0.000023968323,0.000000078074,0.000000003424,0.419557362795,0.383595317602,8.906603813171,0.001653448562,-2.800972763692,2.777418375015,-1.547164742147,1.571208357811,-0.785238567983,0.000000000000,0.000000000000,-0.000000000000,0.000000000000,-0.000023968450,0.000000000000
1.510786000000,0.061860000000,9910.359999999999,-0.085856097537,-0.111229218765,0.323256695993,-0.000748101088,-0.002909286547,-2.352755923450,0.000000006491,-0.000001978096,0.000000001953,0.000023968321,0.000000078650,0.000000002847,0.404573172331,0.362617433071,8.933574676514,0.001677417080,-2.800972763692,2.777382373810,-1.547152821218,1.571208357811,-0.785226647054,0.000000000000,0.000000000000,-0.000000000000,0.000000000000,-0.000023968450,0.000000000000
1.518795000000,0.064060000000,9910.368000000000,-0.085850246158,-0.111229203612,0.323265791827,-0.000804230690,-0.002886121794,-2.352779763392,0.000000006491,-0.000001978096,0.000000001953,0.000023968321,0.000000078649,0.000000001704,0.332649052143,0.212775528431,8.819695472717,0.001677417080,-2.800984684621,2.777370452881,-1.547176663076,1.571208357811,-0.785250488912,0.000000000000,0.000000000000,-0.000000000000,0.000000000000,-0.000023968450,0.000000000000
1.526788000000,0.066290000000,9910.376000000000,-0.085847586683,-0.111229283787,0.323265789851,-0.000815846301,-0.002914329928,-2.352743845341,0.000000006538,-0.000001978095,0.000000002001,0.000023968319,0.000000079223,0.000000001704,0.407570004463,0.422554194927,8.828685760498,0.001701385481,-2.800984684621,2.777370452881,-1.547176663076,1.571232318878,-0.785238567983,0.000000000000,0.000000000000,-0.000000000000,0.000000000000,-0.000023968450,0.000000000000
1.534790000000,0.068560000000,9910.384000000000,-0.085856889294,-0.111230236845,0.323247339678,-0.000747802566,-0.002909403260,-2.352744013021,0.000000006514,-0.000001978096,0.000000001953,0.000023968320,0.000000078935,0.000000002853,0.542427718639,0.374604791403,8.843669891357,0.001689401222,-2.800960365926,2.777406454086,-1.547189060842,1.571208357811,-0.785226647054,0.000000000000,0.000000000000,-0.000000000000,0.000000000000,-0.000023968450,0.000000000000
1.542786000000,0.070870000000,9910.392000000000,-0.085864263639,-0.111229134851,0.323227554961,-0.000665965693,-0.002910139876,-2.352803868095,0.000000006443,-0.000001978096,0.000000001906,0.000023968323,0.000000078074,0.000000004281,0.377601623535,0.308674335480,8.801713943481,0.001653448562,-2.800972763692,2.777442216873,-1.547152821218,1.571184396744,-0.785250488912,0.000000000000,0.000000000000,-0.000000000000,0.000000000000,-0.000023968450,0.000000000000
1.550783000000,0.073200000000,9910.400000000000,-0.085867997916,-0.111226141892,0.323242872297,-0.000691146100,-0.002932857443,-2.352803839686,0.000000006420,-0.000001978096,0.000000001953,0.000023968324,0.000000077788,0.000000004007,0.212775528431,0.275709122419,8.813701629639,0.001641464303,-2.800948444997,2.777406454086,-1.547152821218,1.571208357811,-0.785238567983,0.000000000000,0.000000000000,-0.000000000000,0.000000000000,-0.000023968450,0.000000000000
1.558779000000,0.075560000000,9910.407999999999,-0.085860284956,-0.111228157343,0.323268473594,-0.000769833976,-0.002883806806,-2.352779882683,0.000000006443,-0.000001978096,0.000000001930,0.000023968323,0.000000078075,0.000000002287,0.056939929724,0.194794490933,8.858654022217,0.001653448562,-2.800948444997,2.777358531952,-1.547176663076,1.571196317673,-0.785226647054,0.000000000000,0.000000000000,-0.000000000000,0.000000000000,-0.000023968450,0.000000000000
1.566833000000,0.077960000000,9910.415999999999,-0.085865903559,-0.111226045686,0.323246164956,-0.000721706558,-0.002887198918,-2.352791616916,0.000000006372,-0.000001978096,0.000000001906,0.000023968326,0.000000077213,0.000000003150,-0.068927280605,0.176813468337,8.867644309998,0.001617495902,-2.800960365926,2.777406454086,-1.547176663076,1.571184396744,-0.785202328359,0.000000000000,0.000000000000,-0.000000000000,0.000000000000,-0.000023968450,0.000000000000
1.574784000000,0.080360000000,9910.423999999999,-0.085862642343,-0.111228165446,0.323254496605,-0.000713655094,-0.002906950762,-2.352779895549,0.000000006443,-0.000001978096,0.000000001930,0.000023968323,0.000000078076,0.000000003430,0.092901989818,0.281702816486,8.924584388733,0.001653448562,-2.800960365926,2.777382373810,-1.547140900289,1.571196317673,-0.785226647054,0.000000000000,0.000000000000,-0.000000000000,0.000000000000,-0.000023968450,0.000000000000
1.582783000000,0.082820000000,9910.431999999999,-0.085853633779,-0.111229195628,0.323243631102,-0.000762374713,-0.002903357284,-2.352779860784,0.000000006491,-0.000001978096,0.000000001953,0.000023968321,0.000000078647,0.000000002555,0.518453061581,0.536434054375,8.843669891357,0.001677417080,-2.800984684621,2.777418375015,-1.547189060842,1.571208357811,-0.785250488912,0.000000000000,0.000000000000,-0.000000000000,0.000000000000,-0.000023968450,0.000000000000
1.590791000000,0.085340000000,9910.439999999999,-0.085852849863,-0.111230193935,0.323242351846,-0.000741945863,-0.002895157353,-2.352756012782,0.000000006491,-0.000001978096,0.000000001930,0.000023968321,0.000000078648,0.000000002853,0.752206444740,0.749209582806,8.801713943481,0.001677417080,-2.800996605550,2.777418375015,-1.547164742147,1.571196317673,-0.785226647054,0.000000000000,0.000000000000,-0.000000000000,0.000000000000,-0.000023968450,0.000000000000
1.598791000000,0.087920000000,9910.448000000000,-0.085867913033,-0.111229189600,0.323244256953,-0.000699892660,-0.002912667546,-2.352767994464,0.000000006467,-0.000001978096,0.000000001930,0.000023968322,0.000000078362,0.000000003710,0.461513102055,0.734225392342,8.783733367920,0.001665432821,-2.800924603139,2.777406454086,-1.547189060842,1.571196317673,-0.785226647054,0.000000000000,0.000000000000,-0.000000000000,0.000000000000,-0.000023968450,0.000000000000
1.606787000000,0.090540000000,9910.456000000000,-0.085853330124,-0.111228252298,0.323242452486,-0.000759391736,-0.002937606260,-2.352767838106,0.000000006514,-0.000001978095,0.000000002001,0.000023968320,0.000000078935,0.000000002853,0.272712290287,0.512459337711,8.939568519592,0.001689401222,-2.800984684621,2.777418375015,-1.547176663076,1.571232318878,-0.785250488912,0.000000000000,0.000000000000,-0.000000000000,0.000000000000,-0.000023968450,0.000000000000
1.614783000000,0.093190000000,9910.464000000000,-0.085869778666,-0.111228266285,0.323238403726,-0.000640112168,-0.002970352823,-2.352803604034,0.000000006491,-0.000001978096,0.000000001977,0.000023968321,0.000000078652,0.000000005161,0.206781849265,0.281702816486,8.954552650452,0.001677417080,-2.800936524068,2.777406454086,-1.547116581594,1.571220278740,-0.785274330770,0.000000000000,0.000000000000,-0.000000000000,0.000000000000,-0.000023968450,0.000000000000
1.622782000000,0.095880000000,9910.472000000000,-0.085863066310,-0.111225186327,0.323238030406,-0.000703293269,-0.002960812931,-2.352803760585,0.000000006443,-0.000001978096,0.000000002001,0.000023968323,0.000000078075,0.000000003995,0.356623768806,0.353626936674,8.828685760498,0.001653448562,-2.800972763692,2.777418375015,-1.547140900289,1.571232318878,-0.785250488912,0.000000000000,0.000000000000,-0.000000000000,0.000000000000,-0.000023968450,0.000000000000
1.630776000000,0.098600000000,9910.480000000000,-0.085851496102,-0.111228136973,0.323253974988,-0.000770392331,-0.002883418422,-2.352743688392,0.000000006443,-0.000001978096,0.000000001929,0.000023968323,0.000000078074,0.000000002275,0.134857729077,0.239747062325,8.885625839233,0.001653448562,-2.801008526479,2.777394294739,-1.547152821218,1.571196317673,-0.785190407430,0.000000000000,0.000000000000,-0.000000000000,0.000000000000,-0.000023968450,0.000000000000
1.638790000000,0.101320000000,9910.487999999999,-0.085868269233,-0.111230225713,0.323224325563,-0.000629096528,-0.002941795273,-2.352744111447,0.000000006491,-0.000001978096,0.000000001930,0.000023968321,0.000000078650,0.000000005150,0.107886180282,0.119873531163,8.855657577515,0.001677417080,-2.800948444997,2.777442216873,-1.547140900289,1.571196317673,-0.785214726125,0.000000000000,0.000000000000,-0.000000000000,0.000000000000,-0.000023968450,0.000000000000
1.646777000000,0.104080000000,9910.495999999999,-0.085866315384,-0.111228205044,0.323241740855,-0.000677034629,-0.002938668294,-2.352803702710,0.000000006467,-0.000001978096,0.000000001954,0.000023968322,0.000000078363,0.000000004293,0.110883019865,0.086908310652,8.855657577515,0.001665432821,-2.800948444997,2.777406454086,-1.547140900289,1.571208357811,-0.785262409841,0.000000000000,0.000000000000,-0.000000000000,0.000000000000,-0.000023968450,0.000000000000
1.654777000000,0.106860000000,9910.503999999999,-0.085861134846,-0.111227260872,0.323246362974,-0.000689484318,-0.002966512196,-2.352791639378,0.000000006491,-0.000001978096,0.000000002001,0.000023968321,0.000000078652,0.000000004275,0.137854561210,0.251734405756,8.888622283936,0.001677417080,-2.800972763692,2.777394294739,-1.547105137502,1.571232318878,-0.785262409841,0.000000000000,0.000000000000,-0.000000000000,0.000000000000,-0.000023968450,0.000000000000
1.662773000000,0.109690000000,9910.511999999999,-0.085863994602,-0.111226175753,0.323239225269,-0.000710885110,-0.002941122358,-2.352839557259,0.000000006443,-0.000001978096,0.000000001977,0.000023968323,0.000000078075,0.000000003721,0.281702816486,0.383595317602,8.867644309998,0.001653448562,-2.800960365926,2.777418375015,-1.547164742147,1.571220278740,-0.785286251699,0.000000000000,0.000000000000,-0.000000000000,0.000000000000,-0.000023968450,0.000000000000
1.670827000000,0.112610000000,9910.520000000000,-0.085869226516,-0.111229290717,0.323239683949,-0.000654735614,-0.002964318993,-2.352767798784,0.000000006514,-0.000001978096,0.000000001977,0.000023968320,0.000000078938,0.000000004864,0.590377151966,0.686275959015,8.894616127014,0.001689401222,-2.800924603139,2.777406454086,-1.547140900289,1.571220278740,-0.785250488912,0.000000000000,0.000000000000,-0.000000000000,0.000000000000,-0.000023968450,0.000000000000
1.678781000000,0.115540000000,9910.528000000000,-0.085854418250,-0.111230297833,0.323255563620,-0.000739780862,-0.002929141268,-2.352755772954,0.000000006538,-0.000001978095,0.000000001977,0.000023968319,0.000000079225,0.000000003133,0.614351868629,0.746212720871,8.849663734436,0.001701385481,-2.800972763692,2.777382373810,-1.547140900289,1.571220278740,-0.785250488912,0.000000000000,0.000000000000,-0.000000000000,0.000000000000,-0.000023968450,0.000000000000
1.686780000000,0.118560000000,9910.536000000000,-0.085861561549,-0.111228189274,0.323245031619,-0.000719166313,-0.002921254123,-2.352791802686,0.000000006467,-0.000001978096,0.000000001953,0.000023968322,0.000000078362,0.000000003435,0.554415106773,0.629336059093,8.858654022217,0.001665432821,-2.800960365926,2.777406454086,-1.547164742147,1.571208357811,-0.785250488912,0.000000000000,0.000000000000,-0.000000000000,0.000000000000,-0.000023968450,0.000000000000
