Fabs3007/Masterarbeit_Abgabe/Messungen/Roboter/Konst.Geschw 20°/richard_capture_2023-08-28_16-06-16_ground_truth.csv
Rail.Time,Rail.Position,Bot.Time,Bot.TCP_pose_0,Bot.TCP_pose_1,Bot.TCP_pose_2,Bot.TCP_pose_3,Bot.TCP_pose_4,Bot.TCP_pose_5,Bot.TCP_speed_0,Bot.TCP_speed_1,Bot.TCP_speed_2,Bot.TCP_speed_3,Bot.TCP_speed_4,Bot.TCP_speed_5,Bot.actual_tool_accelerometer_0,Bot.actual_tool_accelerometer_1,Bot.actual_tool_accelerometer_2,Bot.actual_tool_accelerometer_3,Bot.actual_tool_accelerometer_4,Bot.actual_tool_accelerometer_5,Bot.actual_q_0,Bot.actual_q_1,Bot.actual_q_2,Bot.actual_q_3,Bot.actual_q_4,Bot.actual_q_5,Bot.actual_dq_0,Bot.actual_dq_1,Bot.actual_dq_2,Bot.actual_dq_3,Bot.actual_dq_4,Bot.actual_dq_5
0.002304000000,0.000010000000,11017.000000000000,-0.085840960711,-0.111114500364,0.318484590997,-0.001996712778,-0.007024922051,-2.352903565998,0.000000000000,0.000000000000,0.000000000000,0.000000000000,0.000000000000,0.000000000000,-0.092901989818,-0.035962060094,8.858654022217,0.003642455442,-2.800361458455,2.789487600327,-1.559555355703,1.574575185776,-0.787313286458,0.000000000000,0.000000000000,-0.000000000000,0.000000000000,0.000000000000,0.000000000000
0.006139000000,0.000010000000,11017.008000000000,-0.085845740204,-0.111117663390,0.318476881002,-0.001959444153,-0.007056667208,-2.352903377410,0.000000000000,0.000000000000,0.000000000000,0.000000000000,0.000000000000,0.000000000000,-0.083911471069,-0.041955735534,8.852660179138,0.003690392245,-2.800313297902,2.789499521255,-1.559579197560,1.574587106705,-0.787360970174,0.000000000000,0.000000000000,-0.000000000000,0.000000000000,0.000000000000,0.000000000000
0.014135000000,0.000010000000,11017.016000000000,-0.085849681185,-0.111114582750,0.318481556019,-0.001959663613,-0.007056635534,-2.352915456596,0.000000000000,0.000000000000,0.000000000000,0.000000000000,0.000000000000,0.000000000000,-0.086908310652,-0.000000000000,8.774743080139,0.003654439701,-2.800313297902,2.789487600327,-1.559567276631,1.574587106705,-0.787337128316,0.000000000000,0.000000000000,-0.000000000000,0.000000000000,0.000000000000,0.000000000000
0.022135000000,0.000010000000,11017.023999999999,-0.085854508519,-0.111114693268,0.318472548031,-0.001915024883,-0.007107906092,-2.352867667091,0.000000000000,0.000000000000,0.000000000000,0.000000000000,0.000000000000,0.000000000000,-0.095898829401,-0.023974707350,8.852660179138,0.003678408219,-2.800289456044,2.789499521255,-1.559555355703,1.574611067772,-0.787313286458,0.000000000000,0.000000000000,-0.000000000000,0.000000000000,0.000000000000,0.000000000000
0.030213000000,0.000010000000,11017.031999999999,-0.085848049733,-0.111117625406,0.318475753546,-0.001939749704,-0.007048325229,-2.352891558896,0.000000000000,0.000000000000,0.000000000000,0.000000000000,0.000000000000,0.000000000000,-0.089905150235,0.002996838419,8.882628440857,0.003678408219,-2.800313297902,2.789499521255,-1.559567276631,1.574575185776,-0.787337128316,0.000000000000,0.000000000000,-0.000000000000,0.000000000000,0.000000000000,0.000000000000
0.038139000000,0.000010000000,11017.039999999999,-0.085851837457,-0.111113682756,0.318468899084,-0.001934887293,-0.007116308050,-2.352867649213,0.000000000000,0.000000000000,0.000000000000,0.000000000000,0.000000000000,0.000000000000,-0.101892501116,-0.002996838419,8.852660179138,0.003678408219,-2.800301376973,2.789511442184,-1.559567276631,1.574623107910,-0.787313286458,0.000000000000,0.000000000000,-0.000000000000,0.000000000000,0.000000000000,0.000000000000
0.046169000000,0.000010000000,11017.047999999999,-0.085833539056,-0.111113480707,0.318488910455,-0.002058600158,-0.007015934198,-2.352927322821,0.000000000000,0.000000000000,0.000000000000,0.000000000000,0.000000000000,0.000000000000,-0.104889340699,-0.017981030047,8.786729812622,0.003642455442,-2.800385300313,2.789487600327,-1.559579197560,1.574587106705,-0.787337128316,0.000000000000,0.000000000000,-0.000000000000,0.000000000000,0.000000000000,0.000000000000
0.054131000000,0.000010000000,11017.055999999999,-0.085844170102,-0.111114594953,0.318466015754,-0.001951630685,-0.007076393098,-2.352903514151,0.000000000000,0.000000000000,0.000000000000,0.000000000000,0.000000000000,0.000000000000,-0.089905150235,-0.002996838419,8.882628440857,0.003666423960,-2.800349537526,2.789523601532,-1.559555355703,1.574599146843,-0.787337128316,0.000000000000,0.000000000000,-0.000000000000,0.000000000000,0.000000000000,0.000000000000
0.062125000000,0.000010000000,11017.064000000000,-0.085853900547,-0.111119617516,0.318457195216,-0.001871670290,-0.007043248063,-2.352891757064,0.000000000000,0.000000000000,0.000000000000,0.000000000000,0.000000000000,0.000000000000,-0.080914631486,-0.023974707350,8.912597656250,0.003678408219,-2.800301376973,2.789535522461,-1.559567276631,1.574551224709,-0.787337128316,0.000000000000,0.000000000000,-0.000000000000,0.000000000000,0.000000000000,0.000000000000
0.070127000000,0.000010000000,11017.072000000000,-0.085849753310,-0.111115657826,0.318480521304,-0.001951417551,-0.007076542535,-2.352867632805,0.000000000000,0.000000000000,0.000000000000,0.000000000000,0.000000000000,0.000000000000,-0.080914631486,-0.014984191395,8.867644309998,0.003678408219,-2.800301376973,2.789487600327,-1.559567276631,1.574599146843,-0.787313286458,0.000000000000,0.000000000000,-0.000000000000,0.000000000000,0.000000000000,0.000000000000
0.078126000000,0.000010000000,11017.080000000000,-0.085859265946,-0.111112637785,0.318460818272,-0.001886650679,-0.007119610637,-2.352915556802,0.000000000000,0.000000000000,0.000000000000,0.000000000000,0.000000000000,0.000000000000,-0.104889340699,-0.020977867767,8.807707786560,0.003654439701,-2.800289456044,2.789523601532,-1.559555355703,1.574611067772,-0.787337128316,0.000000000000,0.000000000000,-0.000000000000,0.000000000000,0.000000000000,0.000000000000
0.086126000000,0.000010000000,11017.088000000000,-0.085842571533,-0.111116568937,0.318490706044,-0.002010588216,-0.007019298668,-2.352915350077,0.000000000000,0.000000000000,0.000000000000,0.000000000000,0.000000000000,0.000000000000,-0.080914631486,-0.008990515023,8.870641708374,0.003666423960,-2.800325218831,2.789475679398,-1.559591595327,1.574575185776,-0.787349049245,0.000000000000,0.000000000000,-0.000000000000,0.000000000000,0.000000000000,0.000000000000
0.094177000000,0.000010000000,11017.096000000000,-0.085846354420,-0.111113619889,0.318483856087,-0.001999941796,-0.007073055664,-2.352879550651,0.000000000000,0.000000000000,0.000000000000,0.000000000000,0.000000000000,0.000000000000,-0.122870370746,0.002996838419,8.936572074890,0.003666423960,-2.800313297902,2.789487600327,-1.559591595327,1.574611067772,-0.787313286458,0.000000000000,0.000000000000,-0.000000000000,0.000000000000,0.000000000000,0.000000000000
0.102127000000,0.000010000000,11017.103999999999,-0.085850767536,-0.111115618223,0.318487610741,-0.001974213515,-0.007050707818,-2.352915372806,0.000000000000,0.000000000000,0.000000000000,0.000000000000,0.000000000000,0.000000000000,-0.101892501116,-0.011987353675,8.849663734436,0.003666423960,-2.800289456044,2.789475679398,-1.559591595327,1.574587106705,-0.787349049245,0.000000000000,0.000000000000,-0.000000000000,0.000000000000,0.000000000000,0.000000000000
0.110130000000,0.000010000000,11017.111999999999,-0.085842883990,-0.111116573332,0.318483620957,-0.001981796389,-0.007031125659,-2.352951628125,0.000000000000,0.000000000000,0.000000000000,0.000000000000,0.000000000000,0.000000000000,-0.080914631486,0.005993676838,8.816698074341,0.003666423960,-2.800337139760,2.789487600327,-1.559567276631,1.574575185776,-0.787385288869,0.000000000000,0.000000000000,-0.000000000000,0.000000000000,0.000000000000,0.000000000000
0.118138000000,0.000010000000,11017.119999999999,-0.085848108767,-0.111116635795,0.318471074245,-0.001945545894,-0.007062341790,-2.352879638327,0.000000000000,0.000000000000,0.000000000000,0.000000000000,0.000000000000,0.000000000000,-0.089905150235,-0.029968382791,8.846666336060,0.003678408219,-2.800313297902,2.789511442184,-1.559579197560,1.574587106705,-0.787325207387,0.000000000000,0.000000000000,-0.000000000000,0.000000000000,0.000000000000,0.000000000000
0.126131000000,0.000010000000,11017.127999999999,-0.085844305865,-0.111117710138,0.318486226696,-0.001965297325,-0.007070812826,-2.352867456999,0.000000000000,0.000000000000,0.000000000000,0.000000000000,0.000000000000,0.000000000000,-0.104889340699,-0.029968382791,8.855657577515,0.003702376503,-2.800313297902,2.789475679398,-1.559555355703,1.574599146843,-0.787337128316,0.000000000000,0.000000000000,-0.000000000000,0.000000000000,0.000000000000,0.000000000000
0.134201000000,0.000010000000,11017.135999999999,-0.085850766904,-0.111115561918,0.318471078529,-0.001939840921,-0.007048330259,-2.352915558735,0.000000000000,0.000000000000,0.000000000000,0.000000000000,0.000000000000,0.000000000000,-0.098895661533,-0.023974707350,8.885625839233,0.003654439701,-2.800313297902,2.789511442184,-1.559579197560,1.574575185776,-0.787337128316,0.000000000000,0.000000000000,-0.000000000000,0.000000000000,0.000000000000,0.000000000000
0.142166000000,0.000010000000,11017.144000000000,-0.085846651259,-0.111116585542,0.318476783902,-0.001953693467,-0.007042667728,-2.352951685615,0.000000000000,0.000000000000,0.000000000000,0.000000000000,0.000000000000,0.000000000000,-0.089905150235,-0.008990515023,8.912597656250,0.003666423960,-2.800325218831,2.789499521255,-1.559567276631,1.574575185776,-0.787385288869,0.000000000000,0.000000000000,-0.000000000000,0.000000000000,0.000000000000,0.000000000000
0.150126000000,0.000010000000,11017.152000000000,-0.085837916336,-0.111117675060,0.318484744039,-0.002007364941,-0.007053529932,-2.352891285699,0.000000000000,0.000000000000,0.000000000000,0.000000000000,0.000000000000,0.000000000000,-0.092901989818,0.002996838419,8.882628440857,0.003702376503,-2.800337139760,2.789487600327,-1.559579197560,1.574599146843,-0.787360970174,0.000000000000,0.000000000000,-0.000000000000,0.000000000000,0.000000000000,0.000000000000
0.158122000000,0.000010000000,11017.160000000000,-0.085851861976,-0.111114556250,0.318489894728,-0.001940108697,-0.007048314868,-2.352951258125,0.000000000000,0.000000000000,0.000000000000,0.000000000000,0.000000000000,0.000000000000,-0.086908310652,-0.002996838419,8.834679603577,0.003642455442,-2.800313297902,2.789463520050,-1.559531513845,1.574575185776,-0.787360970174,0.000000000000,0.000000000000,-0.000000000000,0.000000000000,0.000000000000,0.000000000000
0.166122000000,0.000010000000,11017.168000000000,-0.085846824671,-0.111118635244,0.318495705797,-0.001948351154,-0.007028222575,-2.352867614009,0.000000000000,0.000000000000,0.000000000000,0.000000000000,0.000000000000,0.000000000000,-0.107886180282,-0.038958899677,8.819695472717,0.003678408219,-2.800313297902,2.789451599121,-1.559531513845,1.574563145638,-0.787313286458,0.000000000000,0.000000000000,-0.000000000000,0.000000000000,0.000000000000,0.000000000000
0.174115000000,0.000010000000,11017.175999999999,-0.085846300149,-0.111113569443,0.318471998858,-0.001965387723,-0.007070836810,-2.352939310129,0.000000000000,0.000000000000,0.000000000000,0.000000000000,0.000000000000,0.000000000000,-0.095898829401,0.017981030047,8.930578231812,0.003654439701,-2.800337139760,2.789511442184,-1.559567276631,1.574599146843,-0.787360970174,0.000000000000,0.000000000000,-0.000000000000,0.000000000000,0.000000000000,0.000000000000
0.182114000000,0.000010000000,11017.183999999999,-0.085839446748,-0.111119577130,0.318495359092,-0.001998598696,-0.006991208571,-2.352927705902,0.000000000000,0.000000000000,0.000000000000,0.000000000000,0.000000000000,0.000000000000,-0.095898829401,0.011987353675,8.900609970093,0.003678408219,-2.800337139760,2.789463520050,-1.559567276631,1.574551224709,-0.787373367940,0.000000000000,0.000000000000,-0.000000000000,0.000000000000,0.000000000000,0.000000000000
0.190132000000,0.000010000000,11017.191999999999,-0.085849689005,-0.111117641081,0.318485204943,-0.001939764068,-0.007048360636,-2.352891505763,0.000000000000,0.000000000000,0.000000000000,0.000000000000,0.000000000000,0.000000000000,-0.110883019865,-0.005993676838,8.879631996155,0.003678408219,-2.800301376973,2.789475679398,-1.559555355703,1.574575185776,-0.787337128316,0.000000000000,0.000000000000,-0.000000000000,0.000000000000,0.000000000000,0.000000000000
0.198116000000,0.000010000000,11017.199999999999,-0.085842031348,-0.111117685753,0.318466075967,-0.001950934120,-0.007076623033,-2.352867572249,0.000000000000,0.000000000000,0.000000000000,0.000000000000,0.000000000000,0.000000000000,-0.101892501116,-0.011987353675,8.825689315796,0.003702376503,-2.800337139760,2.789523601532,-1.559567276631,1.574599146843,-0.787337128316,0.000000000000,0.000000000000,-0.000000000000,0.000000000000,0.000000000000,0.000000000000
0.206124000000,0.000010000000,11017.207999999999,-0.085838469733,-0.111119683871,0.318470753869,-0.002001923607,-0.007039085671,-2.352831754356,0.000000000000,0.000000000000,0.000000000000,0.000000000000,0.000000000000,0.000000000000,-0.110883019865,-0.023974707350,8.858654022217,0.003714360762,-2.800325218831,2.789523601532,-1.559627358113,1.574587106705,-0.787313286458,0.000000000000,0.000000000000,-0.000000000000,0.000000000000,0.000000000000,0.000000000000
0.214112000000,0.000010000000,11017.216000000000,-0.085835366037,-0.111117627248,0.318491626549,-0.002030218928,-0.007027598913,-2.352915640637,0.000000000000,0.000000000000,0.000000000000,0.000000000000,0.000000000000,0.000000000000,-0.110883019865,-0.032965220511,8.870641708374,0.003690392245,-2.800349537526,2.789475679398,-1.559579197560,1.574587106705,-0.787373367940,0.000000000000,0.000000000000,-0.000000000000,0.000000000000,0.000000000000,0.000000000000
0.222135000000,0.000010000000,11017.224000000000,-0.085857484841,-0.111112686369,0.318481995027,-0.001920794695,-0.007122233305,-2.352915329321,0.000000000000,0.000000000000,0.000000000000,0.000000000000,0.000000000000,0.000000000000,-0.110883019865,-0.026971545070,8.888622283936,0.003666423960,-2.800277535115,2.789475679398,-1.559543434774,1.574623107910,-0.787349049245,0.000000000000,0.000000000000,-0.000000000000,0.000000000000,0.000000000000,0.000000000000
0.230208000000,0.000010000000,11017.232000000000,-0.085840792393,-0.111116609159,0.318473074711,-0.001974042052,-0.007050643337,-2.352927752373,0.000000000000,0.000000000000,0.000000000000,0.000000000000,0.000000000000,0.000000000000,-0.092901989818,-0.041955735534,8.909600257874,0.003678408219,-2.800349537526,2.789511442184,-1.559567276631,1.574587106705,-0.787373367940,0.000000000000,0.000000000000,-0.000000000000,0.000000000000,0.000000000000,0.000000000000
0.238128000000,0.000010000000,11017.240000000000,-0.085844282546,-0.111117613151,0.318482590646,-0.001967888903,-0.007036752876,-2.352879580672,0.000000000000,0.000000000000,0.000000000000,0.000000000000,0.000000000000,0.000000000000,-0.113879859447,-0.002996838419,8.876635551453,0.003678408219,-2.800325218831,2.789487600327,-1.559567276631,1.574575185776,-0.787325207387,0.000000000000,0.000000000000,-0.000000000000,0.000000000000,0.000000000000,0.000000000000
0.246148000000,0.000010000000,11017.248000000000,-0.085839066593,-0.111115571070,0.318485819855,-0.002016256802,-0.007033368709,-2.352939648709,0.000000000000,0.000000000000,0.000000000000,0.000000000000,0.000000000000,0.000000000000,-0.062933601439,-0.026971545070,8.849663734436,0.003666423960,-2.800349537526,2.789487600327,-1.559579197560,1.574587106705,-0.787373367940,0.000000000000,0.000000000000,-0.000000000000,0.000000000000,0.000000000000,0.000000000000
0.254120000000,0.000010000000,11017.255999999999,-0.085837823375,-0.111116646518,0.318502426934,-0.002050470498,-0.007035906330,-2.352891237708,0.000000000000,0.000000000000,0.000000000000,0.000000000000,0.000000000000,0.000000000000,-0.098895661533,0.020977867767,8.834679603577,0.003690392245,-2.800325218831,2.789451599121,-1.559591595327,1.574599146843,-0.787349049245,0.000000000000,0.000000000000,-0.000000000000,0.000000000000,0.000000000000,0.000000000000
0.262117000000,0.000010000000,11017.263999999999,-0.085841670564,-0.111114503214,0.318490499152,-0.002010630466,-0.007019303132,-2.352951219461,0.000000000000,0.000000000000,0.000000000000,0.000000000000,0.000000000000,0.000000000000,-0.086908310652,-0.008990515023,8.912597656250,0.003642455442,-2.800349537526,2.789475679398,-1.559567276631,1.574575185776,-0.787360970174,0.000000000000,0.000000000000,-0.000000000000,0.000000000000,0.000000000000,0.000000000000
0.270174000000,0.000010000000,11017.271999999999,-0.085843112316,-0.111114593751,0.318471938645,-0.001965894387,-0.007070580152,-2.352927315464,0.000000000000,0.000000000000,0.000000000000,0.000000000000,0.000000000000,0.000000000000,-0.098895661533,-0.008990515023,8.903606414795,0.003666423960,-2.800349537526,2.789511442184,-1.559555355703,1.574599146843,-0.787360970174,0.000000000000,0.000000000000,-0.000000000000,0.000000000000,0.000000000000,0.000000000000
0.278118000000,0.000010000000,11017.279999999999,-0.085850310511,-0.111116609360,0.318479296810,-0.001925709902,-0.007054136188,-2.352915440505,0.000000000000,0.000000000000,0.000000000000,0.000000000000,0.000000000000,0.000000000000,-0.083911471069,-0.000000000000,8.876635551453,0.003666423960,-2.800313297902,2.789487600327,-1.559543434774,1.574575185776,-0.787349049245,0.000000000000,0.000000000000,-0.000000000000,0.000000000000,0.000000000000,0.000000000000
0.286118000000,0.000010000000,11017.287999999999,-0.085850723364,-0.111113590271,0.318475744924,-0.001951314326,-0.007076679766,-2.352951704079,0.000000000000,0.000000000000,0.000000000000,0.000000000000,0.000000000000,0.000000000000,-0.116876691580,-0.011987353675,8.825689315796,0.003654439701,-2.800313297902,2.789499521255,-1.559567276631,1.574599146843,-0.787373367940,0.000000000000,0.000000000000,-0.000000000000,0.000000000000,0.000000000000,0.000000000000
0.294111000000,0.000010000000,11017.296000000000,-0.085842670047,-0.111115579606,0.318485981478,-0.002015821946,-0.007033545601,-2.352903429486,0.000000000000,0.000000000000,0.000000000000,0.000000000000,0.000000000000,0.000000000000,-0.107886180282,-0.008990515023,8.864647865295,0.003666423960,-2.800325218831,2.789487600327,-1.559603039418,1.574587106705,-0.787337128316,0.000000000000,0.000000000000,-0.000000000000,0.000000000000,0.000000000000,0.000000000000
0.302113000000,0.000010000000,11017.304000000000,-0.085843121594,-0.111116639733,0.318497859256,-0.001987885306,-0.007045041623,-2.352915208629,0.000000000000,0.000000000000,0.000000000000,0.000000000000,0.000000000000,0.000000000000,-0.095898829401,-0.041955735534,8.873638153076,0.003678408219,-2.800325218831,2.789451599121,-1.559543434774,1.574587106705,-0.787360970174,0.000000000000,0.000000000000,-0.000000000000,0.000000000000,0.000000000000,0.000000000000
0.310113000000,0.000010000000,11017.312000000000,-0.085841585808,-0.111117652465,0.318495594295,-0.002016548099,-0.007033253012,-2.352891327923,0.000000000000,0.000000000000,0.000000000000,0.000000000000,0.000000000000,0.000000000000,-0.092901989818,0.011987353675,8.906603813171,0.003690392245,-2.800313297902,2.789463520050,-1.559591595327,1.574587106705,-0.787349049245,0.000000000000,0.000000000000,-0.000000000000,0.000000000000,0.000000000000,0.000000000000
0.318112000000,0.000010000000,11017.320000000000,-0.085847290876,-0.111116644526,0.318474516125,-0.001931451130,-0.007068127425,-2.352891526060,0.000000000000,0.000000000000,0.000000000000,0.000000000000,0.000000000000,0.000000000000,-0.095898829401,-0.000000000000,8.873638153076,0.003678408219,-2.800325218831,2.789499521255,-1.559543434774,1.574587106705,-0.787337128316,0.000000000000,0.000000000000,-0.000000000000,0.000000000000,0.000000000000,0.000000000000
0.326108000000,0.000010000000,11017.328000000000,-0.085840754469,-0.111117674585,0.318474363709,-0.001993312470,-0.007059297583,-2.352891366724,0.000000000000,0.000000000000,0.000000000000,0.000000000000,0.000000000000,0.000000000000,-0.086908310652,-0.023974707350,8.828685760498,0.003702376503,-2.800325218831,2.789511442184,-1.559603039418,1.574599146843,-0.787360970174,0.000000000000,0.000000000000,-0.000000000000,0.000000000000,0.000000000000,0.000000000000
0.334138000000,0.000010000000,11017.335999999999,-0.085848349553,-0.111115611587,0.318481556019,-0.001959503774,-0.007056719915,-2.352939711841,0.000000000000,0.000000000000,0.000000000000,0.000000000000,0.000000000000,0.000000000000,-0.083911471069,-0.023974707350,8.834679603577,0.003666423960,-2.800313297902,2.789487600327,-1.559567276631,1.574587106705,-0.787373367940,0.000000000000,0.000000000000,-0.000000000000,0.000000000000,0.000000000000,0.000000000000
0.342119000000,0.000010000000,11017.343999999999,-0.085849104831,-0.111113574658,0.318466177371,-0.001951057444,-0.007076728384,-2.352939360300,0.000000000000,0.000000000000,0.000000000000,0.000000000000,0.000000000000,0.000000000000,-0.086908310652,-0.026971545070,8.906603813171,0.003654439701,-2.800325218831,2.789523601532,-1.559579197560,1.574599146843,-0.787360970174,0.000000000000,0.000000000000,-0.000000000000,0.000000000000,0.000000000000,0.000000000000
0.350109000000,0.000010000000,11017.351999999999,-0.085847375929,-0.111116582327,0.318478062284,-0.001968465817,-0.007036568951,-2.352903526604,0.000000000000,0.000000000000,0.000000000000,0.000000000000,0.000000000000,0.000000000000,-0.092901989818,-0.023974707350,8.888622283936,0.003666423960,-2.800313297902,2.789499521255,-1.559591595327,1.574575185776,-0.787337128316,0.000000000000,0.000000000000,-0.000000000000,0.000000000000,0.000000000000,0.000000000000
0.358112000000,0.000010000000,11017.359999999999,-0.085838798693,-0.111113595443,0.318497646205,-0.002056280243,-0.007049976656,-2.352927116657,0.000000000000,0.000000000000,0.000000000000,0.000000000000,0.000000000000,0.000000000000,-0.092901989818,-0.044952575117,8.783733367920,0.003666423960,-2.800337139760,2.789463520050,-1.559591595327,1.574611067772,-0.787360970174,0.000000000000,0.000000000000,-0.000000000000,0.000000000000,0.000000000000,0.000000000000
0.366108000000,0.000010000000,11017.368000000000,-0.085843009157,-0.111118686416,0.318464948553,-0.001930986613,-0.007068253142,-2.352891453556,0.000000000000,0.000000000000,0.000000000000,0.000000000000,0.000000000000,0.000000000000,-0.092901989818,-0.017981030047,8.810704231262,0.003702376503,-2.800337139760,2.789523601532,-1.559555355703,1.574587106705,-0.787360970174,0.000000000000,0.000000000000,-0.000000000000,0.000000000000,0.000000000000,0.000000000000
0.374162000000,0.000010000000,11017.376000000000,-0.085846054571,-0.111114477336,0.318477758325,-0.001962837356,-0.007022276640,-2.352915639358,0.000000000000,0.000000000000,0.000000000000,0.000000000000,0.000000000000,0.000000000000,-0.098895661533,-0.000000000000,8.924584388733,0.003630471183,-2.800349537526,2.789499521255,-1.559555355703,1.574563145638,-0.787313286458,0.000000000000,0.000000000000,-0.000000000000,0.000000000000,0.000000000000,0.000000000000
0.382113000000,0.000010000000,11017.384000000000,-0.085840702871,-0.111111534995,0.318491617903,-0.002042176557,-0.007055720598,-2.352903432359,0.000000000000,0.000000000000,0.000000000000,0.000000000000,0.000000000000,0.000000000000,-0.158832430840,-0.002996838419,8.915594100952,0.003642455442,-2.800349537526,2.789475679398,-1.559579197560,1.574611067772,-0.787313286458,0.000000000000,0.000000000000,-0.000000000000,0.000000000000,0.000000000000,0.000000000000
0.390109000000,0.000010000000,11017.392000000000,-0.085835070808,-0.111121612307,0.318481202966,-0.001999367617,-0.006990774343,-2.352891424347,0.000000000000,0.000000000000,0.000000000000,0.000000000000,0.000000000000,0.000000000000,-0.101892501116,-0.023974707350,8.843669891357,0.003702376503,-2.800349537526,2.789499521255,-1.559591595327,1.574551224709,-0.787360970174,0.000000000000,0.000000000000,-0.000000000000,0.000000000000,0.000000000000,0.000000000000
0.398114000000,0.000010000000,11017.400000000000,-0.085833461713,-0.111119687604,0.318497654851,-0.002044544773,-0.007021671878,-2.352867323027,0.000000000000,0.000000000000,0.000000000000,0.000000000000,0.000000000000,0.000000000000,-0.092901989818,-0.041955735534,8.831682205200,0.003714360762,-2.800337139760,2.789463520050,-1.559591595327,1.574587106705,-0.787349049245,0.000000000000,0.000000000000,-0.000000000000,0.000000000000,0.000000000000,0.000000000000
0.406107000000,0.000010000000,11017.407999999999,-0.085833668079,-0.111117567186,0.318499816953,-0.002067059743,-0.006996053204,-2.352891358893,0.000000000000,0.000000000000,0.000000000000,0.000000000000,0.000000000000,0.000000000000,-0.080914631486,-0.026971545070,8.831682205200,0.003678408219,-2.800349537526,2.789463520050,-1.559603039418,1.574575185776,-0.787337128316,0.000000000000,0.000000000000,-0.000000000000,0.000000000000,0.000000000000,0.000000000000
0.414119000000,0.000010000000,11017.415999999999,-0.085843294242,-0.111118599801,0.318483726677,-0.001976122023,-0.007016791471,-2.352879604083,0.000000000000,0.000000000000,0.000000000000,0.000000000000,0.000000000000,0.000000000000,-0.086908310652,-0.047949414700,8.831682205200,0.003678408219,-2.800325218831,2.789487600327,-1.559579197560,1.574563145638,-0.787325207387,0.000000000000,0.000000000000,-0.000000000000,0.000000000000,0.000000000000,0.000000000000
0.422109000000,0.000010000000,11017.423999999999,-0.085850723364,-0.111113590271,0.318475744924,-0.001951427212,-0.007076588772,-2.352915464635,0.000000000000,0.000000000000,0.000000000000,0.000000000000,0.000000000000,0.000000000000,-0.077917799354,-0.026971545070,8.846666336060,0.003654439701,-2.800313297902,2.789499521255,-1.559567276631,1.574599146843,-0.787337128316,0.000000000000,0.000000000000,-0.000000000000,0.000000000000,0.000000000000,0.000000000000
0.430182000000,0.000020000000,11017.431999999999,-0.085843567321,-0.111118603920,0.318476686811,-0.001947967585,-0.007028326494,-2.352891562804,0.000000000000,0.000000000000,0.000000000000,0.000000000000,0.000000000000,0.000000000000,-0.095898829401,-0.005993676838,8.891619682312,0.003678408219,-2.800337139760,2.789499521255,-1.559555355703,1.574563145638,-0.787337128316,0.000000000000,0.000000000000,-0.000000000000,0.000000000000,0.000000000000,0.000000000000
0.438111000000,0.000010000000,11017.439999999999,-0.085857345926,-0.111118647650,0.318462068637,-0.001877414262,-0.007057377995,-2.352903635273,0.000000000000,0.000000000000,0.000000000000,0.000000000000,0.000000000000,0.000000000000,-0.086908310652,-0.014984191395,8.852660179138,0.003678408219,-2.800277535115,2.789523601532,-1.559579197560,1.574563145638,-0.787349049245,0.000000000000,0.000000000000,-0.000000000000,0.000000000000,0.000000000000,0.000000000000
0.446132000000,0.000010000000,11017.448000000000,-0.085844649220,-0.111117667988,0.318487362763,-0.001973504315,-0.007050918121,-2.352903306342,0.000000000000,0.000000000000,0.000000000000,0.000000000000,0.000000000000,0.000000000000,-0.113879859447,-0.011987353675,8.837676048279,0.003690392245,-2.800313297902,2.789475679398,-1.559567276631,1.574587106705,-0.787360970174,0.000000000000,0.000000000000,-0.000000000000,0.000000000000,0.000000000000,0.000000000000
0.454097000000,0.000010000000,11017.456000000000,-0.085846902139,-0.111113583911,0.318487257038,-0.001979532902,-0.007065054320,-2.352915375556,0.000000000000,0.000000000000,0.000000000000,0.000000000000,0.000000000000,0.000000000000,-0.068927280605,-0.008990515023,8.819695472717,0.003654439701,-2.800325218831,2.789475679398,-1.559555355703,1.574599146843,-0.787337128316,0.000000000000,0.000000000000,-0.000000000000,0.000000000000,0.000000000000,0.000000000000
0.462097000000,0.000010000000,11017.464000000000,-0.085857184839,-0.111114710135,0.318476192584,-0.001901020187,-0.007113669605,-2.352855732517,0.000000000000,0.000000000000,0.000000000000,0.000000000000,0.000000000000,0.000000000000,-0.083911471069,0.005993676838,8.849663734436,0.003678408219,-2.800277535115,2.789487600327,-1.559543434774,1.574611067772,-0.787301365529,0.000000000000,0.000000000000,-0.000000000000,0.000000000000,0.000000000000,0.000000000000
0.470096000000,0.000010000000,11017.472000000000,-0.085846592073,-0.111117584991,0.318481463232,-0.001948025791,-0.007028360129,-2.352903525312,0.000000000000,0.000000000000,0.000000000000,0.000000000000,0.000000000000,0.000000000000,-0.107886180282,-0.032965220511,8.849663734436,0.003666423960,-2.800325218831,2.789487600327,-1.559555355703,1.574563145638,-0.787337128316,0.000000000000,0.000000000000,-0.000000000000,0.000000000000,0.000000000000,0.000000000000
0.478101000000,0.000010000000,11017.480000000000,-0.085854461554,-0.111117711002,0.318464339648,-0.001860586926,-0.007097210055,-2.352879632562,0.000000000000,0.000000000000,0.000000000000,0.000000000000,0.000000000000,0.000000000000,-0.119873531163,-0.029968382791,8.876635551453,0.003690392245,-2.800301376973,2.789511442184,-1.559519116079,1.574587106705,-0.787337128316,0.000000000000,0.000000000000,-0.000000000000,0.000000000000,0.000000000000,0.000000000000
0.486101000000,0.000010000000,11017.487999999999,-0.085851442858,-0.111114580692,0.318477027636,-0.001960193108,-0.007056445107,-2.352927418328,0.000000000000,0.000000000000,0.000000000000,0.000000000000,0.000000000000,0.000000000000,-0.119873531163,-0.023974707350,8.879631996155,0.003654439701,-2.800301376973,2.789499521255,-1.559591595327,1.574587106705,-0.787349049245,0.000000000000,0.000000000000,-0.000000000000,0.000000000000,0.000000000000,0.000000000000
0.494109000000,0.000010000000,11017.495999999999,-0.085850874002,-0.111116640798,0.318465297973,-0.001931740833,-0.007068032519,-2.352891608904,0.000000000000,0.000000000000,0.000000000000,0.000000000000,0.000000000000,0.000000000000,-0.113879859447,-0.000000000000,8.819695472717,0.003678408219,-2.800301376973,2.789523601532,-1.559591595327,1.574587106705,-0.787337128316,0.000000000000,0.000000000000,-0.000000000000,0.000000000000,0.000000000000,0.000000000000
0.502102000000,0.000010000000,11017.503999999999,-0.085842124037,-0.111115580413,0.318473074711,-0.001974201668,-0.007050558637,-2.352903497128,0.000000000000,0.000000000000,0.000000000000,0.000000000000,0.000000000000,0.000000000000,-0.119873531163,0.023974707350,8.879631996155,0.003666423960,-2.800349537526,2.789511442184,-1.559567276631,1.574587106705,-0.787337128316,0.000000000000,0.000000000000,-0.000000000000,0.000000000000,0.000000000000,0.000000000000
0.510092000000,0.000010000000,11017.511999999999,-0.085844904192,-0.111116581495,0.318476682496,-0.001953871877,-0.007042498578,-2.352891594682,0.000000000000,0.000000000000,0.000000000000,0.000000000000,0.000000000000,0.000000000000,-0.086908310652,-0.023974707350,8.924584388733,0.003666423960,-2.800337139760,2.789499521255,-1.559555355703,1.574575185776,-0.787325207387,0.000000000000,0.000000000000,-0.000000000000,0.000000000000,0.000000000000,0.000000000000
0.518092000000,0.000010000000,11017.519999999999,-0.085837450933,-0.111115652206,0.318480004501,-0.002013836209,-0.007067241920,-2.352867496692,0.000000000000,0.000000000000,0.000000000000,0.000000000000,0.000000000000,0.000000000000,-0.086908310652,-0.011987353675,8.864647865295,0.003690392245,-2.800349537526,2.789499521255,-1.559579197560,1.574611067772,-0.787325207387,0.000000000000,0.000000000000,-0.000000000000,0.000000000000,0.000000000000,0.000000000000
0.526094000000,0.000010000000,11017.528000000000,-0.085838486889,-0.111119666983,0.318500126938,-0.002010097279,-0.007019473763,-2.352903652943,0.000000000000,0.000000000000,0.000000000000,0.000000000000,0.000000000000,0.000000000000,-0.077917799354,-0.011987353675,8.858654022217,0.003702376503,-2.800325218831,2.789451599121,-1.559567276631,1.574575185776,-0.787373367940,0.000000000000,0.000000000000,-0.000000000000,0.000000000000,0.000000000000,0.000000000000
0.534154000000,0.000010000000,11017.536000000000,-0.085850034025,-0.111115518306,0.318478066599,-0.001962703210,-0.007022416460,-2.352939447403,0.000000000000,0.000000000000,0.000000000000,0.000000000000,0.000000000000,0.000000000000,-0.092901989818,-0.026971545070,8.840673446655,0.003642455442,-2.800313297902,2.789499521255,-1.559591595327,1.574563145638,-0.787349049245,0.000000000000,0.000000000000,-0.000000000000,0.000000000000,0.000000000000,0.000000000000
0.542117000000,0.000010000000,11017.544000000000,-0.085848344401,-0.111116595393,0.318481560302,-0.001953853670,-0.007042574135,-2.352903503607,0.000000000000,0.000000000000,0.000000000000,0.000000000000,0.000000000000,0.000000000000,-0.095898829401,-0.011987353675,8.888622283936,0.003666423960,-2.800313297902,2.789487600327,-1.559567276631,1.574575185776,-0.787337128316,0.000000000000,0.000000000000,-0.000000000000,0.000000000000,0.000000000000,0.000000000000
0.550092000000,0.000020000000,11017.552000000000,-0.085836103675,-0.111119642155,0.318480017431,-0.001996407288,-0.007024960980,-2.352867528159,0.000000000000,0.000000000000,0.000000000000,0.000000000000,0.000000000000,0.000000000000,-0.101892501116,-0.026971545070,8.912597656250,0.003702376503,-2.800349537526,2.789499521255,-1.559579197560,1.574575185776,-0.787337128316,0.000000000000,0.000000000000,-0.000000000000,0.000000000000,0.000000000000,0.000000000000
0.558094000000,0.000010000000,11017.559999999999,-0.085839262706,-0.111116640266,0.318480114293,-0.002008008076,-0.007053267028,-2.352891380132,0.000000000000,0.000000000000,0.000000000000,0.000000000000,0.000000000000,0.000000000000,-0.104889340699,0.005993676838,8.825689315796,0.003690392245,-2.800337139760,2.789499521255,-1.559591595327,1.574599146843,-0.787349049245,0.000000000000,0.000000000000,-0.000000000000,0.000000000000,0.000000000000,0.000000000000
0.566091000000,0.000010000000,11017.567999999999,-0.085842581888,-0.111114591485,0.318490697421,-0.002022207606,-0.007047518668,-2.352903365827,0.000000000000,0.000000000000,0.000000000000,0.000000000000,0.000000000000,0.000000000000,-0.098895661533,-0.017981030047,8.876635551453,0.003666423960,-2.800325218831,2.789475679398,-1.559591595327,1.574599146843,-0.787337128316,0.000000000000,0.000000000000,-0.000000000000,0.000000000000,0.000000000000,0.000000000000
0.574090000000,0.000010000000,11017.575999999999,-0.085849551933,-0.111119590801,0.318448658086,-0.001885307753,-0.007037632570,-2.352928033047,0.000000000000,0.000000000000,0.000000000000,0.000000000000,0.000000000000,0.000000000000,-0.116876691580,-0.002996838419,8.828685760498,0.003678408219,-2.800325218831,2.789559602737,-1.559579197560,1.574551224709,-0.787373367940,0.000000000000,0.000000000000,-0.000000000000,0.000000000000,0.000000000000,0.000000000000
0.582092000000,0.000010000000,11017.583999999999,-0.085843459189,-0.111118615525,0.318486036840,-0.001948011115,-0.007028313449,-2.352879579053,0.000000000000,0.000000000000,0.000000000000,0.000000000000,0.000000000000,0.000000000000,-0.131860882044,-0.026971545070,8.873638153076,0.003678408219,-2.800337139760,2.789475679398,-1.559531513845,1.574563145638,-0.787325207387,0.000000000000,0.000000000000,-0.000000000000,0.000000000000,0.000000000000,0.000000000000
0.590101000000,0.000010000000,11017.591999999999,-0.085842261436,-0.111120569978,0.318484912202,-0.001979081737,-0.006982604406,-2.352903500133,0.000000000000,0.000000000000,0.000000000000,0.000000000000,0.000000000000,0.000000000000,-0.110883019865,0.008990515023,8.936572074890,0.003678408219,-2.800325218831,2.789487600327,-1.559591595327,1.574539184570,-0.787349049245,0.000000000000,0.000000000000,-0.000000000000,0.000000000000,0.000000000000,0.000000000000
0.598097000000,0.000010000000,11017.600000000000,-0.085849064880,-0.111114620810,0.318487459789,-0.001979463808,-0.007065115212,-2.352915331723,0.000000000000,0.000000000000,0.000000000000,0.000000000000,0.000000000000,0.000000000000,-0.098895661533,-0.008990515023,8.840673446655,0.003666423960,-2.800301376973,2.789475679398,-1.559579197560,1.574599146843,-0.787349049245,0.000000000000,0.000000000000,-0.000000000000,0.000000000000,0.000000000000,0.000000000000
0.606096000000,0.000010000000,11017.608000000000,-0.085841322861,-0.111119569618,0.318485994336,-0.001998356536,-0.006991294451,-2.352915381619,0.000000000000,0.000000000000,0.000000000000,0.000000000000,0.000000000000,0.000000000000,-0.083911471069,-0.023974707350,8.822691917419,0.003678408219,-2.800325218831,2.789487600327,-1.559603039418,1.574551224709,-0.787360970174,0.000000000000,0.000000000000,-0.000000000000,0.000000000000,0.000000000000,0.000000000000
0.614090000000,0.000010000000,11017.616000000000,-0.085839076212,-0.111116548794,0.318481194392,-0.002011201262,-0.007018952928,-2.352891550996,0.000000000000,0.000000000000,0.000000000000,0.000000000000,0.000000000000,0.000000000000,-0.065930441022,-0.071924120188,8.843669891357,0.003666423960,-2.800349537526,2.789499521255,-1.559591595327,1.574575185776,-0.787325207387,0.000000000000,0.000000000000,-0.000000000000,0.000000000000,0.000000000000,0.000000000000
0.622092000000,0.000010000000,11017.624000000000,-0.085844410946,-0.111122744157,0.318480534241,-0.001933678081,-0.007034189559,-2.352867473758,0.000000000000,0.000000000000,0.000000000000,0.000000000000,0.000000000000,0.000000000000,-0.086908310652,-0.020977867767,8.888622283936,0.003726345021,-2.800301376973,2.789487600327,-1.559567276631,1.574563145638,-0.787360970174,0.000000000000,0.000000000000,-0.000000000000,0.000000000000,0.000000000000,0.000000000000
0.630170000000,0.000010000000,11017.632000000000,-0.085847366478,-0.111115604603,0.318482687747,-0.001973632662,-0.007050892762,-2.352915385079,0.000000000000,0.000000000000,0.000000000000,0.000000000000,0.000000000000,0.000000000000,-0.107886180282,-0.008990515023,8.876635551453,0.003666423960,-2.800313297902,2.789487600327,-1.559579197560,1.574587106705,-0.787349049245,0.000000000000,0.000000000000,-0.000000000000,0.000000000000,0.000000000000,0.000000000000
0.638130000000,0.000010000000,11017.639999999999,-0.085834896302,-0.111115566323,0.318509162693,-0.002072912696,-0.007010100058,-2.352891327559,0.000000000000,0.000000000000,0.000000000000,0.000000000000,0.000000000000,0.000000000000,-0.095898829401,-0.000000000000,8.873638153076,0.003666423960,-2.800349537526,2.789439678192,-1.559579197560,1.574587106705,-0.787325207387,0.000000000000,0.000000000000,-0.000000000000,0.000000000000,0.000000000000,0.000000000000
0.646123000000,0.000010000000,11017.647999999999,-0.085849391744,-0.111114619121,0.318475744924,-0.001951342601,-0.007076611999,-2.352915401306,0.000000000000,0.000000000000,0.000000000000,0.000000000000,0.000000000000,0.000000000000,-0.095898829401,-0.020977867767,8.867644309998,0.003666423960,-2.800313297902,2.789499521255,-1.559567276631,1.574599146843,-0.787349049245,0.000000000000,0.000000000000,-0.000000000000,0.000000000000,0.000000000000,0.000000000000
0.654086000000,0.000010000000,11017.655999999999,-0.085840486626,-0.111114589100,0.318502426934,-0.002050490744,-0.007035980392,-2.352939524448,0.000000000000,0.000000000000,0.000000000000,0.000000000000,0.000000000000,0.000000000000,-0.110883019865,-0.041955735534,8.873638153076,0.003666423960,-2.800325218831,2.789451599121,-1.559591595327,1.574599146843,-0.787373367940,0.000000000000,0.000000000000,-0.000000000000,0.000000000000,0.000000000000,0.000000000000
0.662085000000,0.000010000000,11017.663999999999,-0.085850777235,-0.111113584466,0.318471069907,-0.001951423874,-0.007076580400,-2.352915496076,0.000000000000,0.000000000000,0.000000000000,0.000000000000,0.000000000000,0.000000000000,-0.083911471069,-0.014984191395,8.837676048279,0.003654439701,-2.800313297902,2.789511442184,-1.559579197560,1.574599146843,-0.787337128316,0.000000000000,0.000000000000,-0.000000000000,0.000000000000,0.000000000000,0.000000000000
0.670088000000,0.000010000000,11017.671999999999,-0.085848681650,-0.111114616252,0.318469836771,-0.001937278153,-0.007082351062,-2.352915431121,0.000000000000,0.000000000000,0.000000000000,0.000000000000,0.000000000000,0.000000000000,-0.071924120188,-0.032965220511,8.837676048279,0.003666423960,-2.800325218831,2.789511442184,-1.559555355703,1.574599146843,-0.787349049245,0.000000000000,0.000000000000,-0.000000000000,0.000000000000,0.000000000000,0.000000000000
0.678087000000,0.000010000000,11017.680000000000,-0.085849386541,-0.111115612766,0.318475749262,-0.001945633672,-0.007062327004,-2.352879670216,0.000000000000,0.000000000000,0.000000000000,0.000000000000,0.000000000000,0.000000000000,-0.083911471069,-0.020977867767,8.873638153076,0.003666423960,-2.800313297902,2.789499521255,-1.559567276631,1.574587106705,-0.787313286458,0.000000000000,0.000000000000,-0.000000000000,0.000000000000,0.000000000000,0.000000000000
0.686086000000,0.000010000000,11017.688000000000,-0.085857148368,-0.111112538243,0.318468912093,-0.001917524904,-0.007074009499,-2.352963363516,0.000000000000,0.000000000000,0.000000000000,0.000000000000,0.000000000000,0.000000000000,-0.077917799354,-0.014984191395,8.888622283936,0.003630471183,-2.800301376973,2.789511442184,-1.559567276631,1.574587106705,-0.787360970174,0.000000000000,0.000000000000,-0.000000000000,0.000000000000,0.000000000000,0.000000000000
0.694095000000,0.000010000000,11017.696000000000,-0.085847250658,-0.111112548132,0.318488388755,-0.001993670659,-0.007059264323,-2.352915430558,0.000000000000,0.000000000000,0.000000000000,0.000000000000,0.000000000000,0.000000000000,-0.104889340699,-0.002996838419,8.819695472717,0.003642455442,-2.800325218831,2.789475679398,-1.559567276631,1.574599146843,-0.787325207387,0.000000000000,0.000000000000,-0.000000000000,0.000000000000,0.000000000000,0.000000000000
0.702115000000,0.000010000000,11017.704000000000,-0.085835380864,-0.111117621166,0.318486996803,-0.002030852468,-0.007027298145,-2.352891353162,0.000000000000,0.000000000000,0.000000000000,0.000000000000,0.000000000000,0.000000000000,-0.074920959771,-0.005993676838,8.879631996155,0.003690392245,-2.800349537526,2.789487600327,-1.559591595327,1.574587106705,-0.787349049245,0.000000000000,0.000000000000,-0.000000000000,0.000000000000,0.000000000000,0.000000000000
0.710081000000,0.000010000000,11017.712000000000,-0.085854858591,-0.111115531601,0.318465306572,-0.001920299804,-0.007039802773,-2.352927623884,0.000000000000,0.000000000000,0.000000000000,0.000000000000,0.000000000000,0.000000000000,-0.080914631486,-0.023974707350,8.894616127014,0.003642455442,-2.800301376973,2.789523601532,-1.559591595327,1.574563145638,-0.787337128316,0.000000000000,0.000000000000,-0.000000000000,0.000000000000,0.000000000000,0.000000000000
0.718087000000,0.000010000000,11017.719999999999,-0.085843828984,-0.111112590773,0.318500114008,-0.002027631412,-0.007061804163,-2.352951494497,0.000000000000,0.000000000000,0.000000000000,0.000000000000,0.000000000000,0.000000000000,-0.119873531163,-0.014984191395,8.876635551453,0.003654439701,-2.800325218831,2.789451599121,-1.559567276631,1.574611067772,-0.787373367940,0.000000000000,0.000000000000,-0.000000000000,0.000000000000,0.000000000000,0.000000000000
0.726089000000,0.000010000000,11017.727999999999,-0.085847328054,-0.111112639310,0.318487349754,-0.001990925854,-0.007093438669,-2.352951498195,0.000000000000,0.000000000000,0.000000000000,0.000000000000,0.000000000000,0.000000000000,-0.104889340699,-0.017981030047,8.879631996155,0.003666423960,-2.800313297902,2.789475679398,-1.559567276631,1.574623107910,-0.787385288869,0.000000000000,0.000000000000,-0.000000000000,0.000000000000,0.000000000000,0.000000000000
0.734140000000,0.000010000000,11017.735999999999,-0.085832717514,-0.111119678481,0.318486996803,-0.002030721057,-0.007027316221,-2.352879305633,0.000000000000,0.000000000000,0.000000000000,0.000000000000,0.000000000000,0.000000000000,-0.086908310652,-0.014984191395,8.849663734436,0.003714360762,-2.800349537526,2.789487600327,-1.559591595327,1.574587106705,-0.787360970174,0.000000000000,0.000000000000,-0.000000000000,0.000000000000,0.000000000000,0.000000000000
0.742106000000,0.000010000000,11017.743999999999,-0.085850364437,-0.111116603556,0.318474621794,-0.001925706564,-0.007054127817,-2.352915471945,0.000000000000,0.000000000000,0.000000000000,0.000000000000,0.000000000000,0.000000000000,-0.062933601439,-0.011987353675,8.789727210999,0.003666423960,-2.800313297902,2.789499521255,-1.559555355703,1.574575185776,-0.787349049245,0.000000000000,0.000000000000,-0.000000000000,0.000000000000,0.000000000000,0.000000000000
0.750081000000,0.000010000000,11017.752000000000,-0.085839744885,-0.111118585419,0.318478890041,-0.001976665130,-0.007016514381,-2.352879615311,0.000000000000,0.000000000000,0.000000000000,0.000000000000,0.000000000000,0.000000000000,-0.095898829401,-0.011987353675,8.828685760498,0.003678408219,-2.800349537526,2.789499521255,-1.559567276631,1.574563145638,-0.787325207387,0.000000000000,0.000000000000,-0.000000000000,0.000000000000,0.000000000000,0.000000000000
0.758080000000,0.000020000000,11017.760000000000,-0.085842428871,-0.111112573031,0.318478872797,-0.001999814716,-0.007073117807,-2.352939220136,0.000000000000,0.000000000000,0.000000000000,0.000000000000,0.000000000000,0.000000000000,-0.113879859447,-0.011987353675,8.882628440857,0.003654439701,-2.800349537526,2.789499521255,-1.559567276631,1.574611067772,-0.787360970174,0.000000000000,0.000000000000,-0.000000000000,0.000000000000,0.000000000000,0.000000000000
0.766083000000,0.000010000000,11017.768000000000,-0.085841977246,-0.111119622458,0.318479096930,-0.001976633634,-0.007016546057,-2.352867651229,0.000000000000,0.000000000000,0.000000000000,0.000000000000,0.000000000000,0.000000000000,-0.080914631486,0.014984191395,8.846666336060,0.003690392245,-2.800325218831,2.789499521255,-1.559591595327,1.574563145638,-0.787325207387,0.000000000000,0.000000000000,-0.000000000000,0.000000000000,0.000000000000,0.000000000000
0.774079000000,0.000010000000,11017.776000000000,-0.085847371681,-0.111114610958,0.318482683409,-0.001979415789,-0.007065118245,-2.352927274285,0.000000000000,0.000000000000,0.000000000000,0.000000000000,0.000000000000,0.000000000000,-0.077917799354,0.014984191395,8.804711341858,0.003666423960,-2.800313297902,2.789487600327,-1.559579197560,1.574599146843,-0.787360970174,0.000000000000,0.000000000000,-0.000000000000,0.000000000000,0.000000000000,0.000000000000
0.782078000000,0.000010000000,11017.784000000000,-0.085839841224,-0.111116557906,0.318491736318,-0.002024597379,-0.007013544112,-2.352927252805,0.000000000000,0.000000000000,0.000000000000,0.000000000000,0.000000000000,0.000000000000,-0.110883019865,-0.014984191395,8.861651420593,0.003666423960,-2.800337139760,2.789475679398,-1.559591595327,1.574575185776,-0.787360970174,0.000000000000,0.000000000000,-0.000000000000,0.000000000000,0.000000000000,0.000000000000
0.790078000000,0.000010000000,11017.791999999999,-0.085842413399,-0.111115534290,0.318478885726,-0.001982543075,-0.007030752447,-2.352915472983,0.000000000000,0.000000000000,0.000000000000,0.000000000000,0.000000000000,0.000000000000,-0.125867202878,0.011987353675,8.918590545654,0.003654439701,-2.800349537526,2.789499521255,-1.559567276631,1.574575185776,-0.787337128316,0.000000000000,0.000000000000,-0.000000000000,0.000000000000,0.000000000000,0.000000000000
0.798080000000,0.000010000000,11017.799999999999,-0.085839636701,-0.111119706889,0.318472003197,-0.001959367675,-0.007056578372,-2.352867500086,0.000000000000,0.000000000000,0.000000000000,0.000000000000,0.000000000000,0.000000000000,-0.107886180282,-0.035962060094,8.867644309998,0.003714360762,-2.800337139760,2.789511442184,-1.559567276631,1.574587106705,-0.787349049245,0.000000000000,0.000000000000,-0.000000000000,0.000000000000,0.000000000000,0.000000000000
0.806079000000,0.000010000000,11017.807999999999,-0.085845667293,-0.111117612681,0.318464952837,-0.001925393167,-0.007054152380,-2.352891611049,0.000000000000,0.000000000000,0.000000000000,0.000000000000,0.000000000000,0.000000000000,-0.059936765581,-0.029968382791,8.831682205200,0.003678408219,-2.800337139760,2.789523601532,-1.559555355703,1.574575185776,-0.787337128316,0.000000000000,0.000000000000,-0.000000000000,0.000000000000,0.000000000000,0.000000000000
0.814082000000,0.000010000000,11017.815999999999,-0.085836049579,-0.111119647956,0.318484692445,-0.001996337206,-0.007025029484,-2.352891338460,0.000000000000,0.000000000000,0.000000000000,0.000000000000,0.000000000000,0.000000000000,-0.110883019865,-0.053943090141,8.903606414795,0.003702376503,-2.800349537526,2.789487600327,-1.559567276631,1.574575185776,-0.787360970174,0.000000000000,0.000000000000,-0.000000000000,0.000000000000,0.000000000000,0.000000000000
0.822078000000,0.000010000000,11017.823999999999,-0.085842514807,-0.111112522968,0.318491727696,-0.002036348244,-0.007041746048,-2.352927315942,0.000000000000,0.000000000000,0.000000000000,0.000000000000,0.000000000000,0.000000000000,-0.098895661533,-0.041955735534,8.858654022217,0.003642455442,-2.800337139760,2.789475679398,-1.559591595327,1.574599146843,-0.787337128316,0.000000000000,0.000000000000,-0.000000000000,0.000000000000,0.000000000000,0.000000000000
0.830144000000,0.000010000000,11017.832000000000,-0.085843721941,-0.111113643788,0.318467199037,-0.001976702177,-0.007099090371,-2.352879548280,0.000000000000,0.000000000000,0.000000000000,0.000000000000,0.000000000000,0.000000000000,-0.113879859447,-0.011987353675,8.843669891357,0.003678408219,-2.800337139760,2.789523601532,-1.559579197560,1.574623107910,-0.787325207387,0.000000000000,0.000000000000,-0.000000000000,0.000000000000,0.000000000000,0.000000000000
0.838079000000,0.000010000000,11017.840000000000,-0.085839690293,-0.111115670342,0.318470701150,-0.001957500482,-0.007090369046,-2.352903314466,0.000000000000,0.000000000000,0.000000000000,0.000000000000,0.000000000000,0.000000000000,-0.095898829401,-0.000000000000,8.849663734436,0.003690392245,-2.800361458455,2.789511442184,-1.559531513845,1.574611067772,-0.787360970174,0.000000000000,0.000000000000,-0.000000000000,0.000000000000,0.000000000000,0.000000000000
0.846100000000,0.000010000000,11017.848000000000,-0.085853515119,-0.111116663725,0.318473688453,-0.001917270536,-0.007074069561,-2.352939723600,0.000000000000,0.000000000000,0.000000000000,0.000000000000,0.000000000000,0.000000000000,-0.125867202878,-0.000000000000,8.867644309998,0.003678408219,-2.800289456044,2.789499521255,-1.559567276631,1.574587106705,-0.787385288869,0.000000000000,0.000000000000,-0.000000000000,0.000000000000,0.000000000000,0.000000000000
0.854078000000,0.000010000000,11017.856000000000,-0.085854431326,-0.111114601885,0.318473587110,-0.001917507905,-0.007073944622,-2.352915521936,0.000000000000,0.000000000000,0.000000000000,0.000000000000,0.000000000000,0.000000000000,-0.086908310652,-0.035962060094,8.852660179138,0.003654439701,-2.800301376973,2.789499521255,-1.559555355703,1.574587106705,-0.787337128316,0.000000000000,0.000000000000,-0.000000000000,0.000000000000,0.000000000000,0.000000000000
0.862071000000,0.000010000000,11017.864000000000,-0.085837760099,-0.111114616245,0.318481181462,-0.002028388671,-0.007061342498,-2.352915234385,0.000000000000,0.000000000000,0.000000000000,0.000000000000,0.000000000000,0.000000000000,-0.089905150235,0.002996838419,8.843669891357,0.003678408219,-2.800349537526,2.789499521255,-1.559591595327,1.574611067772,-0.787360970174,0.000000000000,0.000000000000,-0.000000000000,0.000000000000,0.000000000000,0.000000000000
0.870074000000,0.000010000000,11017.871999999999,-0.085841281054,-0.111118728978,0.318481450295,-0.001965238820,-0.007070779185,-2.352855494492,0.000000000000,0.000000000000,0.000000000000,0.000000000000,0.000000000000,0.000000000000,-0.083911471069,-0.011987353675,8.918590545654,0.003714360762,-2.800325218831,2.789487600327,-1.559555355703,1.574599146843,-0.787337128316,0.000000000000,0.000000000000,-0.000000000000,0.000000000000,0.000000000000,0.000000000000
0.878073000000,0.000010000000,11017.879999999999,-0.085850364437,-0.111116603556,0.318474621794,-0.001925743630,-0.007054098096,-2.352903551075,0.000000000000,0.000000000000,0.000000000000,0.000000000000,0.000000000000,0.000000000000,-0.110883019865,-0.014984191395,8.849663734436,0.003666423960,-2.800313297902,2.789499521255,-1.559555355703,1.574575185776,-0.787337128316,0.000000000000,0.000000000000,-0.000000000000,0.000000000000,0.000000000000,0.000000000000
0.886075000000,0.000010000000,11017.887999999999,-0.085857918832,-0.111116627996,0.318460831202,-0.001869257792,-0.007077298498,-2.352903665467,0.000000000000,0.000000000000,0.000000000000,0.000000000000,0.000000000000,0.000000000000,-0.071924120188,-0.017981030047,8.870641708374,0.003666423960,-2.800289456044,2.789523601532,-1.559555355703,1.574575185776,-0.787337128316,0.000000000000,0.000000000000,-0.000000000000,0.000000000000,0.000000000000,0.000000000000
0.894075000000,0.000010000000,11017.895999999999,-0.085843042717,-0.111117570652,0.318476626596,-0.001948568901,-0.007028083037,-2.352903536547,0.000000000000,0.000000000000,0.000000000000,0.000000000000,0.000000000000,0.000000000000,-0.107886180282,0.008990515023,8.861651420593,0.003666423960,-2.800349537526,2.789499521255,-1.559543434774,1.574563145638,-0.787337128316,0.000000000000,0.000000000000,-0.000000000000,0.000000000000,0.000000000000,0.000000000000
0.902074000000,0.000010000000,11017.903999999999,-0.085838051916,-0.111118575548,0.318474113579,-0.001976617393,-0.007016517273,-2.352891557875,0.000000000000,0.000000000000,0.000000000000,0.000000000000,0.000000000000,0.000000000000,-0.095898829401,-0.014984191395,8.846666336060,0.003678408219,-2.800361458455,2.789511442184,-1.559567276631,1.574563145638,-0.787337128316,0.000000000000,0.000000000000,-0.000000000000,0.000000000000,0.000000000000,0.000000000000
0.910070000000,0.000010000000,11017.912000000000,-0.085834611922,-0.111117573902,0.318498730573,-0.002053604951,-0.007001558282,-2.352879446280,0.000000000000,0.000000000000,0.000000000000,0.000000000000,0.000000000000,0.000000000000,-0.113879859447,-0.008990515023,8.867644309998,0.003678408219,-2.800349537526,2.789463520050,-1.559591595327,1.574575185776,-0.787325207387,0.000000000000,0.000000000000,-0.000000000000,0.000000000000,0.000000000000,0.000000000000
0.918073000000,0.000010000000,11017.920000000000,-0.085856812793,-0.111115648792,0.318471424890,-0.001889286825,-0.007085547886,-2.352927404983,0.000000000000,0.000000000000,0.000000000000,0.000000000000,0.000000000000,0.000000000000,-0.071924120188,-0.026971545070,8.831682205200,0.003666423960,-2.800289456044,2.789499521255,-1.559543434774,1.574587106705,-0.787360970174,0.000000000000,0.000000000000,-0.000000000000,0.000000000000,0.000000000000,0.000000000000
0.926072000000,0.000010000000,11017.928000000000,-0.085855880947,-0.111115538839,0.318464129537,-0.001905647246,-0.007045829372,-2.352939552907,0.000000000000,0.000000000000,0.000000000000,0.000000000000,0.000000000000,0.000000000000,-0.095898829401,-0.023974707350,8.867644309998,0.003642455442,-2.800301376973,2.789523601532,-1.559579197560,1.574563145638,-0.787349049245,0.000000000000,0.000000000000,-0.000000000000,0.000000000000,0.000000000000,0.000000000000
0.934132000000,0.000010000000,11017.936000000000,-0.085841975420,-0.111121702977,0.318487371361,-0.001961789620,-0.007022685753,-2.352891798453,0.000000000000,0.000000000000,0.000000000000,0.000000000000,0.000000000000,0.000000000000,-0.092901989818,-0.029968382791,8.828685760498,0.003714360762,-2.800313297902,2.789475679398,-1.559567276631,1.574563145638,-0.787373367940,0.000000000000,0.000000000000,-0.000000000000,0.000000000000,0.000000000000,0.000000000000
0.942098000000,0.000010000000,11017.944000000000,-0.085845614202,-0.111116584363,0.318482590646,-0.001967862478,-0.007036819233,-2.352915406613,0.000000000000,0.000000000000,0.000000000000,0.000000000000,0.000000000000,0.000000000000,-0.101892501116,0.002996838419,8.882628440857,0.003666423960,-2.800325218831,2.789487600327,-1.559567276631,1.574575185776,-0.787349049245,0.000000000000,0.000000000000,-0.000000000000,0.000000000000,0.000000000000,0.000000000000
0.950073000000,0.000010000000,11017.951999999999,-0.085844562257,-0.111115530842,0.318462481100,-0.001954108300,-0.007042404881,-2.352927505273,0.000000000000,0.000000000000,0.000000000000,0.000000000000,0.000000000000,0.000000000000,-0.086908310652,-0.014984191395,8.876635551453,0.003654439701,-2.800349537526,2.789535522461,-1.559579197560,1.574575185776,-0.787349049245,0.000000000000,0.000000000000,-0.000000000000,0.000000000000,0.000000000000,0.000000000000
0.958063000000,0.000010000000,11017.959999999999,-0.085851832242,-0.111114676401,0.318468903447,-0.001928992377,-0.007102172581,-2.352891522466,0.000000000000,0.000000000000,0.000000000000,0.000000000000,0.000000000000,0.000000000000,-0.098895661533,-0.002996838419,8.879631996155,0.003678408219,-2.800301376973,2.789511442184,-1.559567276631,1.574611067772,-0.787337128316,0.000000000000,0.000000000000,-0.000000000000,0.000000000000,0.000000000000,0.000000000000
0.966066000000,0.000010000000,11017.967999999999,-0.085846891808,-0.111115561363,0.318487265661,-0.001967949950,-0.007036804179,-2.352915438502,0.000000000000,0.000000000000,0.000000000000,0.000000000000,0.000000000000,0.000000000000,-0.056939929724,-0.023974707350,8.843669891357,0.003654439701,-2.800325218831,2.789475679398,-1.559555355703,1.574575185776,-0.787337128316,0.000000000000,0.000000000000,-0.000000000000,0.000000000000,0.000000000000,0.000000000000
0.974068000000,0.000010000000,11017.975999999999,-0.085855465621,-0.111114505928,0.318464028175,-0.001905611112,-0.007045877952,-2.352975845935,0.000000000000,0.000000000000,0.000000000000,0.000000000000,0.000000000000,0.000000000000,-0.077917799354,-0.008990515023,8.900609970093,0.003630471183,-2.800313297902,2.789523601532,-1.559567276631,1.574563145638,-0.787373367940,0.000000000000,0.000000000000,-0.000000000000,0.000000000000,0.000000000000,0.000000000000
0.982064000000,0.000010000000,11017.984000000000,-0.085845319603,-0.111117614343,0.318476783902,-0.001953683113,-0.007042631267,-2.352927780545,0.000000000000,0.000000000000,0.000000000000,0.000000000000,0.000000000000,0.000000000000,-0.095898829401,0.002996838419,8.921587944031,0.003678408219,-2.800325218831,2.789499521255,-1.559567276631,1.574575185776,-0.787373367940,0.000000000000,0.000000000000,-0.000000000000,0.000000000000,0.000000000000,0.000000000000
0.990076000000,0.000010000000,11017.992000000000,-0.085835443022,-0.111115574557,0.318495083094,-0.002016604115,-0.007033171344,-2.352915246960,0.000000000000,0.000000000000,0.000000000000,0.000000000000,0.000000000000,0.000000000000,-0.089905150235,-0.023974707350,8.867644309998,0.003666423960,-2.800373379384,2.789463520050,-1.559531513845,1.574587106705,-0.787349049245,0.000000000000,0.000000000000,-0.000000000000,0.000000000000,0.000000000000,0.000000000000
0.998069000000,0.000010000000,11018.000000000000,-0.085842496871,-0.111114653627,0.318487151324,-0.001985155654,-0.007079107575,-2.352903286861,0.000000000000,0.000000000000,0.000000000000,0.000000000000,0.000000000000,0.000000000000,-0.104889340699,-0.032965220511,8.879631996155,0.003678408219,-2.800337139760,2.789475679398,-1.559543434774,1.574611067772,-0.787349049245,0.000000000000,0.000000000000,-0.000000000000,0.000000000000,0.000000000000,0.000000000000
1.006151000000,0.000010000000,11018.008000000000,-0.085853120643,-0.111117551783,0.318481816855,-0.001942969075,-0.007014077832,-2.352891727770,0.000000000000,0.000000000000,0.000000000000,0.000000000000,0.000000000000,0.000000000000,-0.086908310652,-0.020977867767,8.834679603577,0.003654439701,-2.800289456044,2.789487600327,-1.559591595327,1.574551224709,-0.787313286458,0.000000000000,0.000000000000,-0.000000000000,0.000000000000,0.000000000000,0.000000000000
1.014192000000,0.000010000000,11018.016000000000,-0.085835004886,-0.111115554718,0.318499812669,-0.002072906023,-0.007010083316,-2.352891390440,0.000000000000,0.000000000000,0.000000000000,0.000000000000,0.000000000000,0.000000000000,-0.083911471069,-0.023974707350,8.873638153076,0.003666423960,-2.800349537526,2.789463520050,-1.559603039418,1.574587106705,-0.787325207387,0.000000000000,0.000000000000,-0.000000000000,0.000000000000,0.000000000000,0.000000000000
1.022164000000,0.000010000000,11018.023999999999,-0.085832527099,-0.111116593788,0.318514969338,-0.002086849209,-0.007004397593,-2.352903144919,0.000000000000,0.000000000000,0.000000000000,0.000000000000,0.000000000000,0.000000000000,-0.089905150235,-0.020977867767,8.816698074341,0.003678408219,-2.800349537526,2.789427757263,-1.559579197560,1.574587106705,-0.787349049245,0.000000000000,0.000000000000,-0.000000000000,0.000000000000,0.000000000000,0.000000000000
1.030151000000,0.000010000000,11018.031999999999,-0.085855186270,-0.111117707804,0.318465618073,-0.001875172678,-0.007091261627,-2.352891555164,0.000000000000,0.000000000000,0.000000000000,0.000000000000,0.000000000000,0.000000000000,-0.101892501116,-0.020977867767,8.819695472717,0.003690392245,-2.800289456044,2.789511442184,-1.559543434774,1.574587106705,-0.787349049245,0.000000000000,0.000000000000,-0.000000000000,0.000000000000,0.000000000000,0.000000000000
1.038169000000,0.000010000000,11018.039999999999,-0.085852748458,-0.111112614602,0.318468802083,-0.001929005145,-0.007102227459,-2.352939322856,0.000000000000,0.000000000000,0.000000000000,0.000000000000,0.000000000000,0.000000000000,-0.080914631486,-0.023974707350,8.909600257874,0.003654439701,-2.800313297902,2.789511442184,-1.559555355703,1.574611067772,-0.787360970174,0.000000000000,0.000000000000,-0.000000000000,0.000000000000,0.000000000000,0.000000000000
1.046162000000,0.000010000000,11018.047999999999,-0.085844254286,-0.111114601312,0.318495589956,-0.002022536542,-0.007047400268,-2.352891422466,0.000000000000,0.000000000000,0.000000000000,0.000000000000,0.000000000000,0.000000000000,-0.101892501116,-0.005993676838,8.852660179138,0.003666423960,-2.800313297902,2.789463520050,-1.559591595327,1.574599146843,-0.787325207387,0.000000000000,0.000000000000,-0.000000000000,0.000000000000,0.000000000000,0.000000000000
1.054143000000,0.000010000000,11018.055999999999,-0.085849485996,-0.111113623449,0.318466319716,-0.001957303533,-0.007090595838,-2.352939751947,0.000000000000,0.000000000000,0.000000000000,0.000000000000,0.000000000000,0.000000000000,-0.077917799354,-0.041955735534,8.837676048279,0.003666423960,-2.800313297902,2.789523601532,-1.559591595327,1.574611067772,-0.787373367940,0.000000000000,0.000000000000,-0.000000000000,0.000000000000,0.000000000000,0.000000000000
1.062143000000,0.000010000000,11018.064000000000,-0.085850706756,-0.111117595534,0.318462795016,-0.001891484099,-0.007051544345,-2.352915572782,0.000000000000,0.000000000000,0.000000000000,0.000000000000,0.000000000000,0.000000000000,-0.089905150235,-0.014984191395,8.828685760498,0.003666423960,-2.800325218831,2.789523601532,-1.559543434774,1.574563145638,-0.787349049245,0.000000000000,0.000000000000,-0.000000000000,0.000000000000,0.000000000000,0.000000000000
1.070133000000,0.000010000000,11018.072000000000,-0.085845672456,-0.111116628874,0.318464948553,-0.001931118496,-0.007068236963,-2.352903500853,0.000000000000,0.000000000000,0.000000000000,0.000000000000,0.000000000000,0.000000000000,-0.089905150235,-0.023974707350,8.861651420593,0.003678408219,-2.800337139760,2.789523601532,-1.559555355703,1.574587106705,-0.787349049245,0.000000000000,0.000000000000,-0.000000000000,0.000000000000,0.000000000000,0.000000000000
1.078163000000,0.000010000000,11018.080000000000,-0.085843655729,-0.111119638433,0.318488503078,-0.001975937544,-0.007016932999,-2.352915758740,0.000000000000,0.000000000000,0.000000000000,0.000000000000,0.000000000000,0.000000000000,-0.101892501116,0.005993676838,8.879631996155,0.003690392245,-2.800313297902,2.789475679398,-1.559579197560,1.574563145638,-0.787373367940,0.000000000000,0.000000000000,-0.000000000000,0.000000000000,0.000000000000,0.000000000000
1.086138000000,0.000010000000,11018.088000000000,-0.085853156107,-0.111119677046,0.318472565276,-0.001891812049,-0.007051399396,-2.352855807583,0.000000000000,0.000000000000,0.000000000000,0.000000000000,0.000000000000,0.000000000000,-0.125867202878,0.002996838419,8.861651420593,0.003690392245,-2.800289456044,2.789499521255,-1.559555355703,1.574563145638,-0.787313286458,0.000000000000,0.000000000000,-0.000000000000,0.000000000000,0.000000000000,0.000000000000
1.094134000000,0.000010000000,11018.096000000000,-0.085846896948,-0.111114577556,0.318487261377,-0.001973638768,-0.007050918972,-2.352939248960,0.000000000000,0.000000000000,0.000000000000,0.000000000000,0.000000000000,0.000000000000,-0.101892501116,0.002996838419,8.852660179138,0.003654439701,-2.800325218831,2.789475679398,-1.559555355703,1.574587106705,-0.787360970174,0.000000000000,0.000000000000,-0.000000000000,0.000000000000,0.000000000000,0.000000000000
1.102167000000,0.000010000000,11018.103999999999,-0.085845693142,-0.111114595024,0.318473277261,-0.001980000555,-0.007064822124,-2.352915406216,0.000000000000,0.000000000000,0.000000000000,0.000000000000,0.000000000000,0.000000000000,-0.086908310652,-0.017981030047,8.870641708374,0.003666423960,-2.800325218831,2.789511442184,-1.559591595327,1.574599146843,-0.787349049245,0.000000000000,0.000000000000,-0.000000000000,0.000000000000,0.000000000000,0.000000000000
1.110142000000,0.000010000000,11018.111999999999,-0.085860287103,-0.111115600209,0.318455024372,-0.001855173525,-0.007083122341,-2.352939530482,0.000000000000,0.000000000000,0.000000000000,0.000000000000,0.000000000000,0.000000000000,-0.077917799354,-0.002996838419,8.825689315796,0.003654439701,-2.800289456044,2.789535522461,-1.559555355703,1.574575185776,-0.787360970174,0.000000000000,0.000000000000,-0.000000000000,0.000000000000,0.000000000000,0.000000000000
1.118138000000,0.000010000000,11018.119999999999,-0.085859594885,-0.111116688303,0.318452756431,-0.001832884863,-0.007108577306,-2.352867863101,0.000000000000,0.000000000000,0.000000000000,0.000000000000,0.000000000000,0.000000000000,-0.083911471069,-0.002996838419,8.843669891357,0.003678408219,-2.800289456044,2.789535522461,-1.559531513845,1.574587106705,-0.787313286458,0.000000000000,0.000000000000,-0.000000000000,0.000000000000,0.000000000000,0.000000000000
1.126089000000,0.000010000000,11018.127999999999,-0.085835670035,-0.111117575119,0.318492807769,-0.002039230710,-0.007007461479,-2.352891407925,0.000000000000,0.000000000000,0.000000000000,0.000000000000,0.000000000000,0.000000000000,-0.092901989818,-0.044952575117,8.882628440857,0.003678408219,-2.800349537526,2.789475679398,-1.559591595327,1.574575185776,-0.787337128316,0.000000000000,0.000000000000,-0.000000000000,0.000000000000,0.000000000000,0.000000000000
1.134149000000,0.000010000000,11018.135999999999,-0.085856456361,-0.111113616377,0.318466644191,-0.001895218151,-0.007099664126,-2.352915537902,0.000000000000,0.000000000000,0.000000000000,0.000000000000,0.000000000000,0.000000000000,-0.086908310652,-0.032965220511,8.855657577515,0.003654439701,-2.800301376973,2.789511442184,-1.559543434774,1.574599146843,-0.787337128316,0.000000000000,0.000000000000,-0.000000000000,0.000000000000,0.000000000000,0.000000000000
1.142118000000,0.000010000000,11018.144000000000,-0.085846344065,-0.111115597341,0.318483864733,-0.001988285069,-0.007044865951,-2.352903455621,0.000000000000,0.000000000000,0.000000000000,0.000000000000,0.000000000000,0.000000000000,-0.053943090141,-0.023974707350,8.831682205200,0.003666423960,-2.800313297902,2.789487600327,-1.559591595327,1.574587106705,-0.787337128316,0.000000000000,0.000000000000,-0.000000000000,0.000000000000,0.000000000000,0.000000000000
1.150087000000,0.000010000000,11018.152000000000,-0.085843206706,-0.111116577584,0.318501405274,-0.002024900569,-0.007013483031,-2.352927208624,0.000000000000,0.000000000000,0.000000000000,0.000000000000,0.000000000000,0.000000000000,-0.086908310652,-0.008990515023,8.825689315796,0.003666423960,-2.800313297902,2.789451599121,-1.559591595327,1.574575185776,-0.787360970174,0.000000000000,0.000000000000,-0.000000000000,0.000000000000,0.000000000000,0.000000000000
1.158086000000,0.000010000000,11018.160000000000,-0.085839352626,-0.111117649474,0.318482424740,-0.001974076663,-0.007050592378,-2.352891386951,0.000000000000,0.000000000000,0.000000000000,0.000000000000,0.000000000000,0.000000000000,-0.083911471069,-0.020977867767,8.879631996155,0.003690392245,-2.800349537526,2.789487600327,-1.559543434774,1.574587106705,-0.787349049245,0.000000000000,0.000000000000,-0.000000000000,0.000000000000,0.000000000000,0.000000000000
1.166088000000,0.000020000000,11018.168000000000,-0.085849709779,-0.111115617020,0.318493533608,-0.001988588257,-0.007044804867,-2.352903411442,0.000000000000,0.000000000000,0.000000000000,0.000000000000,0.000000000000,0.000000000000,-0.086908310652,-0.014984191395,8.831682205200,0.003666423960,-2.800289456044,2.789463520050,-1.559591595327,1.574587106705,-0.787337128316,0.000000000000,0.000000000000,-0.000000000000,0.000000000000,0.000000000000,0.000000000000
1.174081000000,0.000080000000,11018.175999999999,-0.085841961749,-0.111115597823,0.318487099754,-0.001974285517,-0.007050523748,-2.352879561066,0.000000000000,0.000000000000,0.000000000000,0.000000000000,0.000000000000,0.000000000000,-0.056939929724,-0.020977867767,8.855657577515,0.003666423960,-2.800349537526,2.789475679398,-1.559531513845,1.574587106705,-0.787313286458,0.000000000000,0.000000000000,-0.000000000000,0.000000000000,0.000000000000,0.000000000000
1.182083000000,0.000190000000,11018.183999999999,-0.085849816459,-0.111116639583,0.318471220878,-0.001946115715,-0.007062129808,-2.352879647751,0.000000000000,0.000000000000,0.000000000000,0.000000000000,0.000000000000,0.000000000000,0.275709122419,0.443532079458,8.906603813171,0.003678408219,-2.800301376973,2.789511442184,-1.559591595327,1.574587106705,-0.787325207387,0.000000000000,0.000000000000,-0.000000000000,0.000000000000,0.000000000000,0.000000000000
1.190092000000,0.000360000000,11018.191999999999,-0.085821935428,-0.111122776690,0.318489052873,-0.002064478891,-0.007029889000,-2.352819379230,0.000000000000,0.000000000000,0.000000000000,0.000000000000,0.000000000000,0.000000000000,0.893057823181,1.027915596962,8.747771263123,0.003762297798,-2.800373379384,2.789487600327,-1.559591595327,1.574599146843,-0.787349049245,0.000000000000,0.000000000000,-0.000000000000,0.000000000000,0.000000000000,0.000000000000
1.198088000000,0.000580000000,11018.199999999999,-0.085836408818,-0.111117800852,0.318486110791,-0.002039084158,-0.007089950285,-2.352891487808,0.000353689101,-0.000273218171,0.000000000000,0.000000000000,0.000000000000,0.003183010267,0.884067296982,1.063877582550,8.807707786560,0.003738329280,-2.800313297902,2.789487600327,-1.559615437184,1.574635028839,-0.787397209798,0.003183010267,0.000000000000,-0.000000000000,0.000000000000,0.000000000000,0.000000000000
1.206176000000,0.000820000000,11018.207999999999,-0.085841739949,-0.111121733517,0.318476885286,-0.001953540087,-0.007042592467,-2.352867456021,0.000288359136,-0.000222757953,0.000000000000,0.000000000000,0.000000000000,0.002594984137,0.227759718895,0.257728099823,8.837676048279,0.003726345021,-2.800313297902,2.789499521255,-1.559579197560,1.574575185776,-0.787360970174,0.002594984137,0.000000000000,-0.000000000000,0.000000000000,0.000000000000,0.000000000000
1.214093000000,0.001080000000,11018.216000000000,-0.085839478841,-0.111119884918,0.318477010296,-0.001982966012,-0.007112855982,-2.352807513734,0.000186080888,-0.000143746427,0.000000000000,0.000000000000,0.000000000000,0.001674595755,-0.176813468337,-0.230756551027,8.909600257874,0.003762297798,-2.800301376973,2.789499521255,-1.559591595327,1.574635028839,-0.787337128316,0.001674595755,0.000000000000,-0.000000000000,0.000000000000,0.000000000000,0.000000000000
1.222181000000,0.001370000000,11018.224000000000,-0.085839488413,-0.111121806096,0.318460370601,-0.001936695231,-0.007082371965,-2.352819684760,0.000136366976,-0.000105340904,0.000000000000,0.000000000000,0.000000000000,0.001227184664,0.155835598707,0.239747062325,8.822691917419,0.003750313539,-2.800325218831,2.789535522461,-1.559579197560,1.574599146843,-0.787337128316,0.001227184664,0.000000000000,-0.000000000000,0.000000000000,0.000000000000,0.000000000000
1.230210000000,0.001700000000,11018.232000000000,-0.085826236070,-0.111123925393,0.318490542077,-0.002032732919,-0.007075882022,-2.352759546177,0.000107959249,-0.000083382007,0.000000000000,0.000000000000,0.000000000000,0.000971521193,0.320661693811,0.452522575855,8.828685760498,0.003798250342,-2.800337139760,2.789475679398,-1.559579197560,1.574623107910,-0.787325207387,0.000971521193,0.000000000000,-0.000000000000,0.000000000000,0.000000000000,0.000000000000
1.238139000000,0.002080000000,11018.240000000000,-0.085833107382,-0.111119773926,0.318478872797,-0.001999481646,-0.007073072962,-2.352855330974,0.000089489193,-0.000069124830,0.000000000000,0.000000000000,0.000000000000,0.000805339951,0.509462535381,0.632332861423,8.780735969543,0.003738329280,-2.800349537526,2.789499521255,-1.559567276631,1.574611067772,-0.787360970174,0.000805339951,0.000000000000,-0.000000000000,0.000000000000,0.000000000000,0.000000000000
1.246090000000,0.002500000000,11018.248000000000,-0.085835265771,-0.111121806806,0.318488388755,-0.001993132552,-0.007059297064,-2.352843335605,0.000089490830,-0.000069126569,0.000000000000,0.000000000000,0.000000000000,0.000805339951,0.479494124651,0.458516269922,8.840673446655,0.003750313539,-2.800325218831,2.789475679398,-1.559567276631,1.574599146843,-0.787360970174,0.000805339951,0.000000000000,-0.000000000000,0.000000000000,0.000000000000,0.000000000000
1.254095000000,0.002950000000,11018.255999999999,-0.085825460430,-0.111125893630,0.318480008809,-0.002007535880,-0.007053221073,-2.352795433302,0.000089494122,-0.000069118672,0.000000000000,0.000000000000,0.000000000000,0.000805339951,0.281702816486,0.212775528431,8.954552650452,0.003798250342,-2.800349537526,2.789499521255,-1.559579197560,1.574599146843,-0.787360970174,0.000805339951,0.000000000000,-0.000000000000,0.000000000000,0.000000000000,0.000000000000
1.262085000000,0.003440000000,11018.263999999999,-0.085831984765,-0.111126867053,0.318489675737,-0.001996069637,-0.007025020418,-2.352795526616,0.000089494906,-0.000069123926,0.000000000000,0.000000000000,0.000000000000,0.000805339951,0.260724931955,0.212775528431,8.909600257874,0.003786266083,-2.800313297902,2.789475679398,-1.559591595327,1.574575185776,-0.787349049245,0.000805339951,0.000000000000,-0.000000000000,0.000000000000,0.000000000000,0.000000000000
1.270085000000,0.003970000000,11018.271999999999,-0.085831608292,-0.111117848839,0.318493000892,-0.002017200025,-0.007115361542,-2.352819314394,0.000089487643,-0.000069123623,0.000000000000,0.000000000000,0.000000000000,0.000805339951,0.380598455667,0.332649052143,8.765751838684,0.003750313539,-2.800349537526,2.789463520050,-1.559531513845,1.574647068977,-0.787337128316,0.000805339951,0.000000000000,-0.000000000000,0.000000000000,0.000000000000,0.000000000000
1.278087000000,0.004530000000,11018.279999999999,-0.085837280685,-0.111122808783,0.318481454633,-0.001959239905,-0.007056593963,-2.352831494354,0.000089491637,-0.000069128191,0.000000000000,0.000000000000,0.000000000000,0.000805339951,0.314668029547,0.386592149734,8.822691917419,0.003750313539,-2.800325218831,2.789487600327,-1.559555355703,1.574587106705,-0.787349049245,0.000805339951,0.000000000000,-0.000000000000,0.000000000000,0.000000000000,0.000000000000
1.286077000000,0.005130000000,11018.287999999999,-0.085831810008,-0.111126941067,0.318495550542,-0.001958816401,-0.007056678197,-2.352771542131,0.000088074405,-0.000068026579,0.000000000000,0.000000000000,0.000000000000,0.000792556733,0.191797658801,0.233753383160,8.939568519592,0.003798250342,-2.800325218831,2.789451599121,-1.559519116079,1.574587106705,-0.787337128316,0.000792556733,0.000000000000,-0.000000000000,0.000000000000,0.000000000000,0.000000000000
1.294110000000,0.005770000000,11018.296000000000,-0.085838118670,-0.111119879353,0.318465032618,-0.001953994026,-0.007124678414,-2.352807574994,0.000075284628,-0.000058156028,0.000000000000,0.000000000000,0.000000000000,0.000677508186,0.377601623535,0.395582646132,8.873638153076,0.003762297798,-2.800325218831,2.789523601532,-1.559567276631,1.574635028839,-0.787337128316,0.000677508186,0.000000000000,-0.000000000000,0.000000000000,0.000000000000,0.000000000000
1.302085000000,0.006460000000,11018.304000000000,-0.085828240295,-0.111121840196,0.318499952381,-0.002027898451,-0.007061356980,-2.352795456395,-0.000017045877,0.000013165888,0.000000000000,0.000000000000,0.000000000000,-0.000153398083,0.560408771038,0.560408771038,8.780735969543,0.003762297798,-2.800349537526,2.789451599121,-1.559543434774,1.574611067772,-0.787325207387,-0.000153398083,0.000000000000,-0.000000000000,0.000000000000,0.000000000000,0.000000000000
1.310081000000,0.007170000000,11018.312000000000,-0.085835932083,-0.111125722143,0.318514226480,-0.001931052663,-0.006985782865,-2.352831535450,-0.000475691312,0.000270894424,0.002592958879,0.000005045279,-0.001835969541,-0.003186596467,0.431544721127,0.305677503347,9.017486572266,0.003726345021,-2.800349537526,2.789403676987,-1.559447590505,1.574527263641,-0.787325207387,-0.003208576469,0.000000000000,-0.007056311704,0.008892294951,0.000000000000,0.000000000000
1.318074000000,0.007930000000,11018.320000000000,-0.085854091532,-0.111131524293,0.318530159220,-0.001825271931,-0.006847826526,-2.352855974819,-0.000900585412,-0.002042600194,0.001993613890,0.031287852870,-0.002701615315,-0.004350014886,0.254731267691,0.101892501116,9.092407226562,0.003666423960,-2.800289456044,2.789355754852,-1.559423748647,1.574395418167,-0.787289444600,-0.006327670999,0.000000000000,-0.005752427969,0.008628642187,-0.031278830022,0.001941444469
1.326083000000,0.008720000000,11018.328000000000,-0.085845867093,-0.111129512442,0.318567290022,-0.001887439760,-0.006838706594,-2.352819013238,-0.001509878633,-0.000239627067,0.004384463146,0.009316380596,-0.010587841216,-0.000296276629,0.347633242607,0.491481482983,8.561966896057,0.003654439701,-2.800325218831,2.789271831512,-1.559351746236,1.574407339096,-0.787240807210,-0.006276538130,0.000000000000,-0.013754694723,0.024423850700,-0.009275790304,0.005920207128
1.334161000000,0.009560000000,11018.335999999999,-0.085862348643,-0.111138196881,0.318588700600,-0.001648323907,-0.006656417712,-2.352879446485,-0.000329681732,-0.003007530997,0.006853970326,0.043459377329,0.004392812588,0.009267769518,0.473500460386,0.479494124651,9.134363174438,0.003558565862,-2.800349537526,2.789187908173,-1.559123818074,1.574203610420,-0.787205044423,-0.006851781160,0.000000000000,-0.016451943666,0.012367720716,-0.043502736837,0.016058862209
1.342148000000,0.010430000000,11018.343999999999,-0.085847183024,-0.111143931750,0.318671225319,-0.001746301788,-0.006451650256,-2.352783082814,-0.001256275969,0.000690195407,0.007733560915,0.009986814469,-0.009311104063,-0.010860905318,0.251734405756,0.695266485214,8.891619682312,0.003510629060,-2.800409142171,2.789008140564,-1.559016052877,1.574084162712,-0.787061039601,-0.017755828798,-0.009421198629,-0.022191589698,0.041010018438,-0.009946906939,0.006807039957
1.350196000000,0.011340000000,11018.351999999999,-0.085844217478,-0.111145657643,0.318757435936,-0.001717147884,-0.006298697046,-2.352758440008,0.000285568240,-0.003161529082,0.011238804333,0.049906955167,0.007810799481,0.023440443189,0.224762871861,0.374604791403,9.356129646301,0.003414755221,-2.800481144582,2.788792610168,-1.558752361928,1.573964357376,-0.786940876638,-0.011300325394,-0.005317800213,-0.026946930215,0.024879252538,-0.049974218011,0.034658379853
1.358193000000,0.012290000000,11018.359999999999,-0.085828885960,-0.111147349285,0.318860887365,-0.001787298931,-0.006104760172,-2.352757987257,0.000479040331,0.000121935662,0.013149504878,0.019374799335,0.002534085339,-0.009296379261,0.437538385391,0.248737588525,9.038464546204,0.003318881383,-2.800588909780,2.788552761078,-1.558512989675,1.573844432831,-0.786845032369,-0.020184630528,-0.016004532576,-0.033287383616,0.046906258911,-0.019390476868,0.010785803199
1.366162000000,0.013270000000,11018.368000000000,-0.085835351736,-0.111154747498,0.318944842259,-0.001654458398,-0.005779915860,-2.352853816084,0.000523200581,-0.002062724171,0.017106160663,0.048229737101,0.008105102449,0.026637373180,0.527443528175,0.644320249557,9.299189567566,0.003139117965,-2.800672833120,2.788336992264,-1.558213059102,1.573568820953,-0.786761109029,-0.022549517453,-0.014726215973,-0.042056642473,0.049135323614,-0.048296429217,0.049063418061
1.374085000000,0.014290000000,11018.376000000000,-0.085831975295,-0.111161260380,0.319108322778,-0.001590147592,-0.005459879323,-2.352829277551,0.000613664988,-0.001220595531,0.021059008101,0.042166709637,0.011513339389,-0.010509681259,0.434541553259,0.494478315115,9.197297096252,0.002971338807,-2.800780598317,2.787929534912,-1.557745758687,1.573317170143,-0.786569420491,-0.026563433930,-0.015966184437,-0.051298875362,0.056014269590,-0.042232409120,0.015915051103
1.382072000000,0.015350000000,11018.384000000000,-0.085809699342,-0.111177593668,0.319299069805,-0.001580741502,-0.004952445337,-2.352684607539,0.000311503062,-0.001954763565,0.024910114336,0.056083427207,0.007010500219,0.003864387727,0.272712290287,0.545424580574,9.275214195251,0.002803559648,-2.800960365926,2.787474155426,-1.557254139577,1.572946071625,-0.786257568990,-0.031472172588,-0.019660521299,-0.062317971140,0.075356811285,-0.056134112179,0.035161718726
1.390080000000,0.016460000000,11018.392000000000,-0.085818494105,-0.111188595553,0.319518908830,-0.001469442364,-0.004354743524,-2.352887884621,0.000148752454,-0.001623313179,0.024430718849,0.052321980123,0.007927164726,0.001308151998,0.401576340199,0.437538385391,9.479000091553,0.002479985589,-2.801068607961,2.786934852600,-1.556703392659,1.572478652000,-0.786137882863,-0.031715054065,-0.018139323220,-0.060835123062,0.071378044784,-0.052371066064,0.032860744745
1.398085000000,0.017590000000,11018.400000000000,-0.085809336414,-0.111195953883,0.319721739670,-0.001510612968,-0.003891632321,-2.352862690723,0.000232822108,-0.000694521073,0.020738776399,0.036260203229,0.011146275547,-0.012991699410,0.227759718895,0.707253873348,8.987518310547,0.002252659760,-2.801188294088,2.786455631256,-1.556271855031,1.572154760361,-0.785886112844,-0.027036411688,-0.013652428985,-0.050519101322,0.053209960461,-0.036312203854,0.013925669715
1.406121000000,0.018770000000,11018.407999999999,-0.085798325245,-0.111206406328,0.319870728440,-0.001478830487,-0.003491705134,-2.352813945023,-0.000290537318,-0.000908272548,0.016359208309,0.033254916536,0.001618404873,0.006139218155,0.302680671215,0.221766039729,8.010548591614,0.002084880602,-2.801319901143,2.786096096039,-1.555876557027,1.571855068207,-0.785670105611,-0.021629130468,-0.011683820747,-0.041622012854,0.051891695708,-0.033268209547,0.027659591287
1.414081000000,0.019970000000,11018.415999999999,-0.085814833768,-0.111212831000,0.319946707736,-0.001190401591,-0.003231343369,-2.352921460375,-0.000277987436,-0.000771983027,0.011190273092,0.026076472899,-0.001303778066,0.000015951046,0.455519437790,0.206781849265,7.728846073151,0.001893133041,-2.801415745412,2.785868406296,-1.555421177541,1.571579813957,-0.785586182271,-0.016247414052,-0.009830260649,-0.029094502330,0.040362872183,-0.026077674702,0.016178704798
1.422090000000,0.021200000000,11018.423999999999,-0.085821791280,-0.111224640719,0.319989042619,-0.000984828062,-0.003051975029,-2.352957306322,0.000230411274,-0.000961674947,0.005413761502,0.019460679885,0.000673917729,-0.007540198317,0.473500460386,0.083911471069,8.154397010803,0.001845196122,-2.801451985036,2.785736560822,-1.555157486592,1.571388125420,-0.785574261342,-0.007580421865,-0.006276538130,-0.013793043792,0.019462382421,-0.019462382421,0.000000000000
1.430074000000,0.022470000000,11018.431999999999,-0.085836195040,-0.111220502789,0.320031838747,-0.000973832979,-0.003023640892,-2.352896913930,-0.000378025985,-0.000390714973,0.001877369268,0.010197089726,-0.003790671099,0.006501220422,0.041955735534,0.173816621304,8.529002189636,0.001773290802,-2.801403824483,2.785628557205,-1.555097881948,1.571364164352,-0.785442177449,-0.005292234011,-0.003298058873,-0.005790777504,0.012942963280,-0.010186591186,0.011768509634
1.438097000000,0.023780000000,11018.439999999999,-0.085841890589,-0.111217606285,0.319987402788,-0.000917473343,-0.003129410727,-2.353065245483,-0.000345339755,0.000035972504,-0.005683116690,-0.001599457009,0.001332535763,-0.022487158221,0.407570004463,0.329652220011,8.208340644836,0.001797259320,-2.801391903554,2.785724639893,-1.555133644735,1.571424007416,-0.785634342824,0.001214401447,0.003374757711,0.014905179851,-0.019678097218,0.001605886151,-0.023656859994
1.446075000000,0.025120000000,11018.448000000000,-0.085871674267,-0.111204166199,0.319950434710,-0.000687264014,-0.003571142803,-2.352681030922,-0.001792470225,0.001623142216,0.009202706601,-0.026451648666,-0.021085474764,0.022146782305,0.056939929724,0.494478315115,8.250295639038,0.001881148899,-2.801296059285,2.785748481750,-1.554953877126,1.571675658226,-0.785334412252,0.006276538130,0.006276538130,-0.028429778293,0.043191149831,0.026485137641,0.015771239996
1.454169000000,0.026530000000,11018.456000000000,-0.085871407168,-0.111177632390,0.319986792027,-0.000722654082,-0.004018758921,-2.353052028443,-0.000879246643,0.004360666429,0.008802540118,-0.052166917268,-0.006669467910,-0.013723714497,0.878073632717,0.251734405756,10.054392814636,0.001893133041,-2.801344219838,2.785628557205,-1.554678265248,1.572010874748,-0.785718266164,-0.000805339951,0.002684466541,-0.023968450725,0.027731496841,0.052179317921,-0.012966931798
1.462147000000,0.027950000000,11018.464000000000,-0.085872115619,-0.111139843993,0.320122842196,-0.001011399934,-0.004395536971,-2.352930551711,0.001037960280,0.004364061448,0.019863596758,-0.052332202994,0.009813527872,-0.004287155223,-0.260724931955,-0.122870370746,10.908491134644,0.001797259320,-2.801344219838,2.785304784775,-1.554450813924,1.572370409966,-0.785502258931,-0.000805339951,0.000000000000,-0.048256479204,0.038253646344,0.052275191993,-0.003571299138
1.470137000000,0.029420000000,11018.472000000000,-0.085846362365,-0.111102478193,0.320327697257,-0.001518398771,-0.004864562914,-2.352904457405,-0.000155785713,0.005484104350,0.022775537979,-0.067402877895,-0.001317275610,0.048700467114,0.236750230193,0.248737588525,9.928524971008,0.001833211980,-2.801344219838,2.784837245941,-1.554210964833,1.572862148285,-0.785514179860,0.000524110103,0.003259709338,-0.058355186135,0.056373797357,0.067351348698,0.048032775521
1.478127000000,0.030920000000,11018.480000000000,-0.085844491521,-0.111053386402,0.320562873648,-0.001933615160,-0.005552372787,-2.352961623205,0.000058260126,0.007143508964,0.028372710618,-0.087556931306,0.003473275586,-0.046041625374,0.677285492420,0.641323387623,9.338148117065,0.001857180381,-2.801260296498,2.784262180328,-1.553815666829,1.573484897614,-0.785598103200,0.000524110103,0.005381715950,-0.071330107749,0.061958447099,0.087508812547,-0.046738479286
1.486075000000,0.032460000000,11018.487999999999,-0.085835444611,-0.110997489314,0.320790535571,-0.002260548369,-0.006424870013,-2.352706723840,0.001073774464,0.008085732115,0.032420798534,-0.099033736711,0.010018494116,0.033088810976,0.509462535381,0.005993676838,8.957550048828,0.001905117300,-2.801272217427,2.783674955368,-1.553192440663,1.574215650558,-0.785394493734,0.000524110103,0.002505501965,-0.080239981413,0.067543096840,0.098941765726,0.032381378114
1.494074000000,0.034060000000,11018.495999999999,-0.085829518408,-0.110917467283,0.321062494779,-0.002815642130,-0.007452308807,-2.353002002200,0.000930183338,0.009971745149,0.036124465171,-0.121949534228,0.005346757485,-0.011996426125,0.365614265203,-0.296687006950,9.230261802673,0.001845196122,-2.801272217427,2.783003807068,-1.552617375051,1.575126409531,-0.785634342824,0.000524110103,0.001687378855,-0.090798884630,0.083266399801,0.121879570186,-0.012751216069
1.502134000000,0.035690000000,11018.503999999999,-0.085846178126,-0.110830012784,0.321343074756,-0.003210451328,-0.008809119243,-2.352792315281,-0.001856844170,0.011186665200,0.039218801671,-0.136787079055,-0.006977046447,-0.028174585297,-0.017981030047,0.431544721127,9.694771766663,0.001881148899,-2.801164452230,2.782260417938,-1.551862064992,1.576228618622,-0.785466019307,0.000524110103,0.014304371551,-0.101396135986,0.093381084502,0.136740013957,-0.028953889385
1.510070000000,0.037350000000,11018.511999999999,-0.085843388985,-0.110727505712,0.321709160577,-0.003860246507,-0.010227138925,-2.352941085271,0.001086978837,0.012978553707,0.046608560745,-0.158552565218,0.011933126767,0.030850889839,0.869083106518,0.416560530663,9.778683662415,0.001857180381,-2.801128212606,2.781337499619,-1.551023308431,1.577450990677,-0.785598103200,0.000524110103,0.005790777504,-0.116020083427,0.098006993532,0.158431455493,0.030056437477
1.518084000000,0.039060000000,11018.519999999999,-0.085830982485,-0.110616192592,0.322107589494,-0.004687402475,-0.011752858125,-2.352883784849,-0.000169935612,0.014724741478,0.049868505663,-0.180044804706,0.002405577727,-0.043403970464,-0.032965220511,0.479494124651,9.625844955444,0.001857180381,-2.801080528890,2.780354976654,-1.550232235585,1.578804850578,-0.785549942647,0.000766990415,0.010341587476,-0.126438364387,0.112627752125,0.179955124855,-0.044509414583
1.526065000000,0.040800000000,11018.528000000000,-0.085850448290,-0.110493243098,0.322516872953,-0.005308248503,-0.013577950283,-2.352825695341,-0.000782387536,0.015787798334,0.054154251405,-0.193030716166,0.000727925652,0.038602476922,0.182807132602,0.197791323066,9.173321723938,0.001869164640,-2.800936524068,2.779288291931,-1.549214188253,1.580314040184,-0.785514179860,0.000766990415,0.013959225267,-0.137981578708,0.123054027557,0.192922055721,0.037486657500
1.534135000000,0.042600000000,11018.536000000000,-0.085843850361,-0.110357399655,0.322977673020,-0.006137292333,-0.015550113362,-2.352920573577,0.000169081445,0.017604374457,0.058292869703,-0.215084973176,-0.000720847453,-0.031222999703,0.365614265203,0.278705954552,9.464015007019,0.001893133041,-2.800888840352,2.778113365173,-1.548099819814,1.581991910934,-0.785646263753,0.000766990415,0.008360195905,-0.148911193013,0.140095591545,0.214997008443,-0.032381378114
1.542158000000,0.044430000000,11018.544000000000,-0.085852991605,-0.110217657868,0.323460817572,-0.006906936933,-0.017577787675,-2.352750067244,-0.000534660519,0.018736157205,0.063327164382,-0.228905301377,0.002482013378,0.022759541958,0.101892501116,0.323658525944,9.745718002319,0.001893133041,-2.800780598317,2.776867151260,-1.546912972127,1.583692908287,-0.785490338002,0.000766990415,0.015531555749,-0.161106333137,0.142612278461,0.228778868914,0.021595574915
1.550158000000,0.046270000000,11018.552000000000,-0.085842867992,-0.110052261552,0.324001662447,-0.007985059076,-0.019959903078,-2.352922188673,-0.000315880337,0.020589244120,0.067666810351,-0.251432267641,0.001292293705,0.005026696698,0.668294966221,0.356623768806,9.520955085754,0.001929085702,-2.800696674977,2.775500774384,-1.545702759420,1.585742235184,-0.785718266164,0.000766990415,0.014828481711,-0.172572836280,0.155627146363,0.251309216022,0.003810983617
1.558163000000,0.048150000000,11018.559999999999,-0.085846230170,-0.109879798083,0.324570578858,-0.009009820944,-0.022361733988,-2.352828099742,0.000341852558,0.021736727642,0.072161844911,-0.265388183415,0.004379777964,-0.046132551647,-0.056939929724,0.413563698530,9.380104064941,0.001881148899,-2.800600830709,2.774050474167,-1.544372383748,1.587790727615,-0.785598103200,0.000766990415,0.013997575268,-0.183234006166,0.163033396006,0.265258848667,-0.047385625541
1.566080000000,0.050040000000,11018.567999999999,-0.085852237769,-0.109698700361,0.325183970914,-0.010029421520,-0.024998458557,-2.352874659734,-0.000900914591,0.022837966574,0.076619202034,-0.278879751649,-0.004564295745,0.032796761920,0.431544721127,0.182807132602,9.338148117065,0.001893133041,-2.800469223653,2.772468566895,-1.542874638234,1.590007424355,-0.785682026540,0.000766990415,0.018100973219,-0.197231590748,0.183382615447,0.278753072023,0.031518511474
1.574085000000,0.051990000000,11018.575999999999,-0.085849448308,-0.109509706996,0.325837914720,-0.011250759084,-0.027683779436,-2.352916399487,0.000178211464,0.024778513812,0.082169492576,-0.302390455586,0.003744632712,-0.041546514732,0.206781849265,0.464509934187,9.568904876709,0.001905117300,-2.800313297902,2.770814180374,-1.541460816060,1.592319607735,-0.785765949880,0.000715857721,0.017998708412,-0.209209412336,0.185395970941,0.302242159843,-0.042831622064
1.582069000000,0.053970000000,11018.583999999999,-0.085848518260,-0.109304868708,0.326509477493,-0.012505411015,-0.030602044169,-2.352713686184,0.000278398436,0.025793060677,0.086415019239,-0.314779510998,0.006081979321,0.019809207253,0.407570004463,0.494478315115,9.547926902771,0.001905117300,-2.800169769918,2.769100666046,-1.539926830922,1.594812035561,-0.785598103200,0.000715857721,0.019430423155,-0.220023989677,0.193880796432,0.314609885216,0.018503643572
1.590072000000,0.056000000000,11018.591999999999,-0.085841202744,-0.109099282414,0.327244022022,-0.013811257287,-0.033584282235,-2.352830328327,0.000560308526,0.026575199369,0.091075917589,-0.325929251520,0.005598088271,-0.010293334203,0.707253873348,0.359620600939,9.559914588928,0.001953054219,-2.800001923238,2.767230987549,-1.538284603749,1.597364306450,-0.785802189504,0.002237055451,0.020747089759,-0.232027381659,0.204139292240,0.325755208731,-0.013182647526
1.598038000000,0.058050000000,11018.600000000000,-0.085843309772,-0.108875823965,0.327987403212,-0.015147941128,-0.036782166223,-2.352665405511,0.000573669746,0.028680568546,0.095625863706,-0.351539514946,0.006466132015,-0.040132485776,0.257728099823,0.611355006695,9.083416938782,0.001953054219,-2.799822155629,2.765325069427,-1.536570851003,1.600083947182,-0.785682026540,0.002237055451,0.023546606302,-0.243468329310,0.210850462317,0.351353526115,-0.043071307242
1.606134000000,0.060190000000,11018.608000000000,-0.085849668958,-0.108638736657,0.328761754740,-0.016508834937,-0.040252441936,-2.352662291231,0.000034423635,0.029953922061,0.099310380643,-0.367037598012,0.000799773380,0.036229419194,0.830124199390,0.200788170099,9.350135803223,0.001989006996,-2.799606148397,2.763323307037,-1.534737412130,1.603007316589,-0.785765949880,0.002173139481,0.024697091430,-0.255139350891,0.229449972510,0.366861104965,0.033364083618
1.614073000000,0.062330000000,11018.616000000000,-0.085846934313,-0.108390638264,0.329578993156,-0.017994984365,-0.043787949818,-2.352760185071,-0.000349091079,0.031330194268,0.103473623834,-0.383818826621,-0.000705418313,-0.029439592889,0.575392961502,0.659304440022,9.694771766663,0.001977022737,-2.799426380788,2.761226177216,-1.532844368611,1.606014609337,-0.785909954702,0.002173139481,0.029682528228,-0.265813320875,0.234243676066,0.383639037609,-0.032381378114
1.622081000000,0.064540000000,11018.624000000000,-0.085858690578,-0.108133813180,0.330430108086,-0.019451537036,-0.047514424088,-2.352528526875,-0.000271785539,0.032483005116,0.109522623828,-0.398020676831,-0.000173385025,-0.001270275965,0.407570004463,0.422554194927,9.508968353271,0.001989006996,-2.799162689839,2.759021043777,-1.530843559896,1.609154105186,-0.785754028951,0.002249838552,0.031702268869,-0.281702786684,0.248552829027,0.397828340530,-0.004290352575
1.630074000000,0.066780000000,11018.632000000000,-0.085852749895,-0.107864362113,0.331343860632,-0.021152106250,-0.051424784764,-2.352632795780,-0.000360589434,0.033626824923,0.113843495790,-0.415042108295,-0.002203719572,-0.006422572595,0.994950354099,0.473500460386,9.643825531006,0.002048928058,-2.798887077962,2.756684064865,-1.528854195272,1.612496972084,-0.785993878041,0.005151618738,0.035844016820,-0.293476104736,0.257756710052,0.414845943451,-0.012415657751
1.638095000000,0.069060000000,11018.639999999999,-0.085846889893,-0.107586903697,0.332291802553,-0.022912118387,-0.055373299594,-2.352465735664,0.000706658931,0.035058897527,0.120047860418,-0.435003441193,0.006196554219,-0.047964340201,0.425551056862,0.970975637436,9.362122535706,0.002060912317,-2.798611466085,2.754262685776,-1.526804749166,1.615887761116,-0.785921875631,0.007529288996,0.039014246315,-0.307192444801,0.257708787918,0.434763729572,-0.056445702910
1.646070000000,0.071370000000,11018.647999999999,-0.085869095707,-0.107295815800,0.333216834977,-0.024493267799,-0.059661709307,-2.352389642004,-0.000401839901,0.036143667892,0.122477085397,-0.446515000898,-0.000232867708,0.039007353774,0.896054685116,0.332649052143,9.056445121765,0.002096864861,-2.798251930867,2.751841783524,-1.524611775075,1.619470715523,-0.785970036183,0.005790777504,0.041596446186,-0.316396325827,0.274990022182,0.446292549372,0.032381378114
1.654148000000,0.073730000000,11018.655999999999,-0.085855043020,-0.106996911946,0.334244795116,-0.026433070833,-0.063951956029,-2.352405405043,0.000119560623,0.037737810430,0.127470910831,-0.468002373037,0.000765200217,-0.009789642792,0.428547888994,0.518453061581,9.598873138428,0.002144801896,-2.797940079366,2.749216794968,-1.522430721913,1.623161077499,-0.786137882863,0.007721036673,0.044472660869,-0.328795999289,0.280766427517,0.467768281698,-0.018503643572
1.662062000000,0.076080000000,11018.663999999999,-0.085853321839,-0.106682300368,0.335295803749,-0.028369530889,-0.068486353449,-2.352111385051,0.000114087484,0.039485540645,0.132540653324,-0.489590239829,0.003320807940,0.026072253697,0.299683839083,0.611355006695,9.667800903320,0.002180754440,-2.797580544149,2.746508359909,-1.520129982625,1.627031207085,-0.785993878041,0.007912784815,0.048115864396,-0.342179983854,0.289850473404,0.489339888096,0.017161410302
1.670089000000,0.078450000000,11018.671999999999,-0.085861649824,-0.106363974885,0.336397794504,-0.030273892887,-0.073138892974,-2.352132327071,-0.000381680214,0.040771019432,0.137149752504,-0.501151586687,0.002601003441,0.009442926825,0.737222254276,0.581386625767,9.721743583679,0.002240675502,-2.797137085591,2.743655681610,-1.517721478139,1.630973339081,-0.786197487508,0.003860518336,0.051707938313,-0.354451835155,0.298455148935,0.500892698765,0.004530037288
1.678061000000,0.080800000000,11018.680000000000,-0.085859139375,-0.106031928959,0.337529889174,-0.032327637147,-0.077972838000,-2.351875162485,0.000291660773,0.041257692012,0.141287436178,-0.515502633869,-0.003205030614,-0.029050110558,0.011987353675,0.692269682884,9.601869583130,0.002312581055,-2.796705547963,2.740731239319,-1.515276734029,1.635095477104,-0.786149803792,0.011773303151,0.054648067802,-0.366276264191,0.309983968735,0.515249788761,-0.042040660977
1.686057000000,0.083170000000,11018.688000000000,-0.085857825035,-0.105691124647,0.338709264335,-0.034393125980,-0.082917168747,-2.351654536852,0.000121657479,0.042692856550,0.145475942703,-0.526888204913,0.005102634750,0.040425916383,0.356623768806,0.155835598707,9.481996536255,0.002360517858,-2.796262089406,2.737675189972,-1.512687985097,1.639300823212,-0.786125485097,0.005790777504,0.056731723249,-0.376822382212,0.315209090710,0.526610851288,0.033555831760
1.694057000000,0.085540000000,11018.696000000000,-0.085858208040,-0.105335602249,0.339873297200,-0.036502178342,-0.088112979124,-2.351623932713,0.000746095675,0.044021888037,0.150906080669,-0.546587122639,-0.000806495932,-0.022111722239,-0.044952575117,0.059936765581,9.479000091553,0.002420438919,-2.795806709920,2.734642982483,-1.510100189839,1.643698692322,-0.786317650472,0.008973787539,0.058457452804,-0.391753137112,0.329422384501,0.546312928200,-0.032381378114
