Fabs3007/Masterarbeit_Abgabe/Messungen/Roboter/Bodenwelle sehr schnell/richard_capture_2023-08-28_16-19-41_ground_truth.csv
Rail.Time,Rail.Position,Bot.Time,Bot.TCP_pose_0,Bot.TCP_pose_1,Bot.TCP_pose_2,Bot.TCP_pose_3,Bot.TCP_pose_4,Bot.TCP_pose_5,Bot.TCP_speed_0,Bot.TCP_speed_1,Bot.TCP_speed_2,Bot.TCP_speed_3,Bot.TCP_speed_4,Bot.TCP_speed_5,Bot.actual_tool_accelerometer_0,Bot.actual_tool_accelerometer_1,Bot.actual_tool_accelerometer_2,Bot.actual_tool_accelerometer_3,Bot.actual_tool_accelerometer_4,Bot.actual_tool_accelerometer_5,Bot.actual_q_0,Bot.actual_q_1,Bot.actual_q_2,Bot.actual_q_3,Bot.actual_q_4,Bot.actual_q_5,Bot.actual_dq_0,Bot.actual_dq_1,Bot.actual_dq_2,Bot.actual_dq_3,Bot.actual_dq_4,Bot.actual_dq_5
0.007079000000,0.000010000000,11821.951999999999,-0.085875697148,-0.111212598642,0.319994480362,-0.000813081193,-0.002792615204,-2.352944838000,-0.000004258904,0.000001315195,0.000000001824,0.000023968339,0.000000073253,-0.000038348634,-0.095898829401,-0.056939929724,8.852660179138,0.001474059653,-2.801391903554,2.785712480545,-1.555145565663,1.571148395538,-0.785190407430,-0.000038349521,0.000000000000,-0.000000000000,0.000000000000,-0.000023968450,0.000000000000
0.007600000000,0.000010000000,11821.959999999999,-0.085867466483,-0.111208672246,0.320014052614,-0.000912436788,-0.002834243970,-2.352908882789,-0.000004258730,0.000001314879,0.000000001943,0.000023968338,0.000000073540,-0.000038350062,-0.122870370746,-0.014984191395,8.843669891357,0.001486043911,-2.801403824483,2.785676717758,-1.555157486592,1.571208357811,-0.785166565572,-0.000038349521,0.000000000000,-0.000000000000,0.000000000000,-0.000023968450,0.000000000000
0.015581000000,0.000010000000,11821.967999999999,-0.085861006184,-0.111212671504,0.320021004270,-0.000929084598,-0.002794321564,-2.352909136948,-0.000004258837,0.000001314632,0.000000001895,0.000023968336,0.000000074106,-0.000038350640,-0.143848240376,-0.017981030047,8.849663734436,0.001509637921,-2.801415745412,2.785664558411,-1.555157486592,1.571184396744,-0.785190407430,-0.000038349521,0.000000000000,-0.000000000000,0.000000000000,-0.000023968450,0.000000000000
0.023602000000,0.000010000000,11821.975999999999,-0.085876334086,-0.111213681404,0.320008710542,-0.000818934462,-0.002806843303,-2.352908859532,-0.000004258898,0.000001315219,0.000000001848,0.000023968337,0.000000073829,-0.000038348634,-0.140851408243,-0.041955735534,8.846666336060,0.001498028170,-2.801368061696,2.785676717758,-1.555133644735,1.571160435677,-0.785178486501,-0.000038349521,0.000000000000,-0.000000000000,0.000000000000,-0.000023968450,0.000000000000
0.031580000000,0.000010000000,11821.983999999999,-0.085868069684,-0.111209673063,0.320024753874,-0.000920893185,-0.002814209599,-2.352932695120,-0.000004258768,0.000001314902,0.000000001919,0.000023968338,0.000000073541,-0.000038350354,-0.101892501116,-0.050946250558,8.822691917419,0.001486043911,-2.801391903554,2.785652637482,-1.555157486592,1.571196317673,-0.785190407430,-0.000038349521,0.000000000000,-0.000000000000,0.000000000000,-0.000023968450,0.000000000000
0.039576000000,0.000010000000,11821.992000000000,-0.085866151031,-0.111214709416,0.320017818572,-0.000881150807,-0.002797525751,-2.352861396496,-0.000002837214,0.000000217187,0.000000001872,0.000023968335,0.000000074394,-0.000025566609,-0.119873531163,-0.041955735534,8.834679603577,0.001521622064,-2.801391903554,2.785664558411,-1.555145565663,1.571172356606,-0.785154644643,-0.000025566347,0.000000000000,-0.000000000000,0.000000000000,-0.000023968450,0.000000000000
0.047575000000,0.000010000000,11822.000000000000,-0.085872678799,-0.111213665538,0.320006194945,-0.000846976136,-0.002795247949,-2.352932742485,-0.000002837234,0.000000217354,0.000000001848,0.000023968337,0.000000073828,-0.000025566032,-0.128864049911,-0.008990515023,8.846666336060,0.001498028170,-2.801379982625,2.785688638687,-1.555157486592,1.571160435677,-0.785202328359,-0.000025566347,0.000000000000,-0.000000000000,0.000000000000,-0.000023968450,0.000000000000
0.055568000000,0.000010000000,11822.008000000000,-0.085869053332,-0.111209677915,0.320023622630,-0.000906852242,-0.002820006088,-2.352932685923,-0.000002837156,0.000000217261,0.000000001919,0.000023968338,0.000000073542,-0.000025566895,-0.104889340699,-0.032965220511,8.816698074341,0.001486043911,-2.801391903554,2.785652637482,-1.555145565663,1.571196317673,-0.785190407430,-0.000025566347,0.000000000000,-0.000000000000,0.000000000000,-0.000023968450,0.000000000000
0.063568000000,0.000010000000,11822.016000000000,-0.085870692322,-0.111211699896,0.320000282624,-0.000850371017,-0.002843258088,-2.352897259827,-0.000002837161,0.000000217303,0.000000001919,0.000023968336,0.000000074106,-0.000025565746,-0.134857729077,-0.041955735534,8.843669891357,0.001509637921,-2.801391903554,2.785700559616,-1.555145565663,1.571196317673,-0.785178486501,-0.000025566347,0.000000000000,-0.000000000000,0.000000000000,-0.000023968450,0.000000000000
0.071564000000,0.000010000000,11822.023999999999,-0.085875788524,-0.111208681684,0.320006294646,-0.000870290099,-0.002851719731,-2.352944678579,-0.000002837131,0.000000217433,0.000000001943,0.000023968338,0.000000073540,-0.000025566032,-0.137854561210,-0.044952575117,8.855657577515,0.001486043911,-2.801368061696,2.785688638687,-1.555169407521,1.571208357811,-0.785202328359,-0.000025566347,0.000000000000,-0.000000000000,0.000000000000,-0.000023968450,0.000000000000
0.079563000000,0.000010000000,11822.031999999999,-0.085868774995,-0.111212683469,0.320017818572,-0.000881145132,-0.002797567135,-2.352920753129,-0.000002837209,0.000000217254,0.000000001872,0.000023968337,0.000000073829,-0.000025566609,-0.134857729077,-0.053943090141,8.846666336060,0.001498028170,-2.801391903554,2.785664558411,-1.555145565663,1.571172356606,-0.785190407430,-0.000025566347,0.000000000000,-0.000000000000,0.000000000000,-0.000023968450,0.000000000000
0.087578000000,0.000010000000,11822.039999999999,-0.085871980426,-0.111211686776,0.320000283572,-0.000844582099,-0.002829230320,-2.352920804864,-0.000002837184,0.000000217336,0.000000001895,0.000023968337,0.000000073828,-0.000025565746,-0.137854561210,-0.008990515023,8.861651420593,0.001498028170,-2.801391903554,2.785700559616,-1.555145565663,1.571184396744,-0.785190407430,-0.000025566347,0.000000000000,-0.000000000000,0.000000000000,-0.000023968450,0.000000000000
0.095574000000,0.000010000000,11822.047999999999,-0.085878105246,-0.111210666593,0.319992318437,-0.000802512616,-0.002846608394,-2.352908959483,-0.000002837181,0.000000217492,0.000000001895,0.000023968338,0.000000073541,-0.000025564889,-0.104889340699,-0.017981030047,8.840673446655,0.001486043911,-2.801379982625,2.785712480545,-1.555133644735,1.571184396744,-0.785166565572,-0.000025566347,0.000000000000,-0.000000000000,0.000000000000,-0.000023968450,0.000000000000
0.103564000000,0.000010000000,11822.055999999999,-0.085873228589,-0.111211722877,0.320013349798,-0.000836037591,-0.002849238625,-2.352921006707,-0.000002837161,0.000000217368,0.000000001919,0.000023968336,0.000000074109,-0.000025565454,-0.104889340699,-0.026971545070,8.882628440857,0.001509637921,-2.801379982625,2.785664558411,-1.555109326039,1.571196317673,-0.785202328359,-0.000025566347,0.000000000000,-0.000000000000,0.000000000000,-0.000023968450,0.000000000000
0.111564000000,0.000010000000,11822.064000000000,-0.085870936847,-0.111213686825,0.320022700276,-0.000881101803,-0.002797648954,-2.352945371097,-0.000002837212,0.000000217309,0.000000001872,0.000023968336,0.000000074107,-0.000025566609,-0.086908310652,-0.050946250558,8.822691917419,0.001509637921,-2.801368061696,2.785652637482,-1.555157486592,1.571172356606,-0.785226647054,-0.000025566347,0.000000000000,-0.000000000000,0.000000000000,-0.000023968450,0.000000000000
0.119566000000,0.000010000000,11822.072000000000,-0.085871795848,-0.111211660505,0.320022596783,-0.000881160915,-0.002797608607,-2.352944636624,-0.000002837207,0.000000217331,0.000000001872,0.000023968338,0.000000073542,-0.000025566609,-0.101892501116,-0.065930441022,8.810704231262,0.001486043911,-2.801379982625,2.785652637482,-1.555145565663,1.571172356606,-0.785202328359,-0.000025566347,0.000000000000,-0.000000000000,0.000000000000,-0.000023968450,0.000000000000
0.127590000000,0.000010000000,11822.080000000000,-0.085879689118,-0.111209646834,0.320014734264,-0.000844934660,-0.002829200118,-2.352944707903,-0.000002837179,0.000000217533,0.000000001896,0.000023968339,0.000000073255,-0.000025565752,-0.110883019865,-0.047949414700,8.867644309998,0.001474059653,-2.801356140767,2.785664558411,-1.555145565663,1.571184396744,-0.785190407430,-0.000025566347,0.000000000000,-0.000000000000,0.000000000000,-0.000023968450,0.000000000000
0.135565000000,0.000010000000,11822.088000000000,-0.085877596080,-0.111206633838,0.320009734564,-0.000856327819,-0.002857472665,-2.352932833555,-0.000002837125,0.000000217479,0.000000001943,0.000023968339,0.000000072967,-0.000025565746,-0.116876691580,-0.032965220511,8.864647865295,0.001462075510,-2.801379982625,2.785676717758,-1.555133644735,1.571208357811,-0.785166565572,-0.000025566347,0.000000000000,-0.000000000000,0.000000000000,-0.000023968450,0.000000000000
0.143564000000,0.000010000000,11822.096000000000,-0.085865240352,-0.111212673369,0.320027120790,-0.000943138021,-0.002788602691,-2.352921064900,-0.000002837186,0.000000217164,0.000000001895,0.000023968336,0.000000074105,-0.000025567752,-0.083911471069,-0.041955735534,8.870641708374,0.001509637921,-2.801379982625,2.785652637482,-1.555193249379,1.571184396744,-0.785202328359,-0.000025566347,0.000000000000,-0.000000000000,0.000000000000,-0.000023968450,0.000000000000
0.151578000000,0.000010000000,11822.103999999999,-0.085870923139,-0.111210703955,0.320006088615,-0.000864419212,-0.002837484539,-2.352920768498,-0.000002837158,0.000000217309,0.000000001919,0.000023968337,0.000000073828,-0.000025566032,-0.104889340699,-0.065930441022,8.846666336060,0.001498028170,-2.801391903554,2.785688638687,-1.555145565663,1.571196317673,-0.785190407430,-0.000025566347,0.000000000000,-0.000000000000,0.000000000000,-0.000023968450,0.000000000000
0.159566000000,0.000010000000,11822.111999999999,-0.085869733503,-0.111213710510,0.319988451903,-0.000816196803,-0.002840874343,-2.352873403432,-0.000002837189,0.000000217279,0.000000001895,0.000023968335,0.000000074393,-0.000025565169,-0.101892501116,-0.065930441022,8.885625839233,0.001521622064,-2.801403824483,2.785724639893,-1.555133644735,1.571184396744,-0.785166565572,-0.000025566347,0.000000000000,-0.000000000000,0.000000000000,-0.000023968450,0.000000000000
0.167559000000,0.000010000000,11822.119999999999,-0.085867079956,-0.111211645698,0.320025887001,-0.000923276187,-0.002780200550,-2.352944654855,-0.000002837206,0.000000217211,0.000000001872,0.000023968338,0.000000073541,-0.000025567466,-0.101892501116,-0.050946250558,8.885625839233,0.001486043911,-2.801391903554,2.785652637482,-1.555169407521,1.571172356606,-0.785202328359,-0.000025566347,0.000000000000,-0.000000000000,0.000000000000,-0.000023968450,0.000000000000
0.175555000000,0.000010000000,11822.127999999999,-0.085870027879,-0.111212644079,0.320022494194,-0.000875345399,-0.002783560236,-2.352957039047,-0.000002837232,0.000000217286,0.000000001848,0.000023968338,0.000000073542,-0.000025566609,-0.116876691580,-0.065930441022,8.849663734436,0.001486043911,-2.801391903554,2.785652637482,-1.555133644735,1.571160435677,-0.785214726125,-0.000025566347,0.000000000000,-0.000000000000,0.000000000000,-0.000023968450,0.000000000000
0.183573000000,0.000010000000,11822.135999999999,-0.085859768465,-0.111214688245,0.320016214401,-0.000922930653,-0.002780244598,-2.352897199604,-0.000002837214,0.000000217024,0.000000001872,0.000023968335,0.000000074392,-0.000025567460,-0.098895661533,-0.053943090141,8.840673446655,0.001521622064,-2.801415745412,2.785676717758,-1.555169407521,1.571172356606,-0.785190407430,-0.000025566347,0.000000000000,-0.000000000000,0.000000000000,-0.000023968450,0.000000000000
0.191560000000,0.000010000000,11822.144000000000,-0.085877672804,-0.111206627968,0.320005059864,-0.000856339281,-0.002857451976,-2.352920944097,-0.000002837125,0.000000217481,0.000000001943,0.000023968339,0.000000072967,-0.000025565746,-0.119873531163,-0.035962060094,8.882628440857,0.001462075510,-2.801379982625,2.785688638687,-1.555145565663,1.571208357811,-0.785154644643,-0.000025566347,0.000000000000,-0.000000000000,0.000000000000,-0.000023968450,0.000000000000
0.199559000000,0.000010000000,11822.152000000000,-0.085871544663,-0.111208641913,0.320013025861,-0.000892557492,-0.002825891324,-2.352932803354,-0.000002837153,0.000000217325,0.000000001919,0.000023968339,0.000000073253,-0.000025566603,-0.125867202878,-0.026971545070,8.885625839233,0.001474059653,-2.801391903554,2.785676717758,-1.555157486592,1.571196317673,-0.785178486501,-0.000025566347,0.000000000000,-0.000000000000,0.000000000000,-0.000023968450,0.000000000000
0.207558000000,0.000010000000,11822.160000000000,-0.085865955611,-0.111210706713,0.320023519095,-0.000906810752,-0.002819998090,-2.352932612806,-0.000002837158,0.000000217182,0.000000001919,0.000023968337,0.000000073829,-0.000025566895,-0.104889340699,-0.038958899677,8.810704231262,0.001498028170,-2.801403824483,2.785652637482,-1.555133644735,1.571196317673,-0.785202328359,-0.000025566347,0.000000000000,-0.000000000000,0.000000000000,-0.000023968450,0.000000000000
0.215558000000,0.000010000000,11822.168000000000,-0.085879088785,-0.111210671445,0.319991187099,-0.000788441889,-0.002852429173,-2.352932791505,-0.000002837181,0.000000217518,0.000000001895,0.000023968338,0.000000073542,-0.000025564603,-0.113879859447,-0.041955735534,8.843669891357,0.001486043911,-2.801379982625,2.785712480545,-1.555121723806,1.571184396744,-0.785190407430,-0.000025566347,0.000000000000,-0.000000000000,0.000000000000,-0.000023968450,0.000000000000
0.223585000000,0.000010000000,11822.175999999999,-0.085881263456,-0.111208627274,0.320012322923,-0.000816317330,-0.002840996642,-2.352944741651,-0.000002837176,0.000000217573,0.000000001896,0.000023968339,0.000000072969,-0.000025565169,-0.098895661533,-0.023974707350,8.876635551453,0.001462075510,-2.801368061696,2.785664558411,-1.555109326039,1.571184396744,-0.785178486501,-0.000025566347,0.000000000000,-0.000000000000,0.000000000000,-0.000023968450,0.000000000000
0.231559000000,0.000010000000,11822.183999999999,-0.085877032516,-0.111211613363,0.320010973136,-0.000846995645,-0.002795304372,-2.352981007986,-0.000002837229,0.000000217465,0.000000001848,0.000023968339,0.000000073254,-0.000025566032,-0.119873531163,-0.035962060094,8.804711341858,0.001474059653,-2.801368061696,2.785676717758,-1.555157486592,1.571160435677,-0.785226647054,-0.000025566347,0.000000000000,-0.000000000000,0.000000000000,-0.000023968450,0.000000000000
0.239556000000,0.000010000000,11822.191999999999,-0.085872353345,-0.111208658510,0.320021360107,-0.000878775002,-0.002831613722,-2.352956572493,-0.000002837153,0.000000217345,0.000000001919,0.000023968339,0.000000073255,-0.000025566323,-0.086908310652,-0.035962060094,8.837676048279,0.001474059653,-2.801391903554,2.785652637482,-1.555121723806,1.571196317673,-0.785202328359,-0.000025566347,0.000000000000,-0.000000000000,0.000000000000,-0.000023968450,0.000000000000
0.247561000000,0.000010000000,11822.199999999999,-0.085865750222,-0.111211681080,0.320025886055,-0.000929136307,-0.002794356234,-2.352908813884,-0.000002837183,0.000000217177,0.000000001895,0.000023968337,0.000000073828,-0.000025567466,-0.110883019865,-0.038958899677,8.837676048279,0.001498028170,-2.801391903554,2.785652637482,-1.555169407521,1.571184396744,-0.785178486501,-0.000025566347,0.000000000000,-0.000000000000,0.000000000000,-0.000023968450,0.000000000000
0.255554000000,0.000010000000,11822.207999999999,-0.085870485062,-0.111211652085,0.320005986977,-0.000852816011,-0.002809217989,-2.352908930092,-0.000002837206,0.000000217298,0.000000001872,0.000023968338,0.000000073541,-0.000025566032,-0.104889340699,-0.044952575117,8.837676048279,0.001486043911,-2.801403824483,2.785688638687,-1.555133644735,1.571172356606,-0.785166565572,-0.000025566347,0.000000000000,-0.000000000000,0.000000000000,-0.000023968450,0.000000000000
0.263557000000,0.000010000000,11822.216000000000,-0.085881853391,-0.111213686297,0.319986707620,-0.000782262236,-0.002838429478,-2.352933591606,-0.000002837212,0.000000217588,0.000000001872,0.000023968336,0.000000074106,-0.000025564597,-0.089905150235,-0.059936765581,8.840673446655,0.001509637921,-2.801344219838,2.785724639893,-1.555169407521,1.571172356606,-0.785214726125,-0.000025566347,0.000000000000,-0.000000000000,0.000000000000,-0.000023968450,0.000000000000
0.271556000000,0.000010000000,11822.224000000000,-0.085871327243,-0.111210701659,0.320019154938,-0.000906830709,-0.002820046288,-2.352932673630,-0.000002837158,0.000000217319,0.000000001919,0.000023968337,0.000000073828,-0.000025566895,-0.125867202878,-0.044952575117,8.831682205200,0.001498028170,-2.801368061696,2.785664558411,-1.555181328450,1.571196317673,-0.785202328359,-0.000025566347,0.000000000000,-0.000000000000,0.000000000000,-0.000023968450,0.000000000000
0.279552000000,0.000010000000,11822.232000000000,-0.085877043588,-0.111213721207,0.320011281611,-0.000858586485,-0.002823577738,-2.352933446143,-0.000002837189,0.000000217466,0.000000001896,0.000023968335,0.000000074393,-0.000025566032,-0.113879859447,-0.059936765581,8.849663734436,0.001521622064,-2.801332298909,2.785676717758,-1.555193249379,1.571184396744,-0.785226647054,-0.000025566347,0.000000000000,-0.000000000000,0.000000000000,-0.000023968450,0.000000000000
0.287558000000,0.000010000000,11822.240000000000,-0.085883592500,-0.111210638648,0.320003110518,-0.000810691905,-0.002826753397,-2.352969094742,-0.000002837204,0.000000217633,0.000000001872,0.000023968339,0.000000073254,-0.000025565174,-0.122870370746,-0.032965220511,8.834679603577,0.001474059653,-2.801344219838,2.785688638687,-1.555157486592,1.571172356606,-0.785214726125,-0.000025566347,0.000000000000,-0.000000000000,0.000000000000,-0.000023968450,0.000000000000
0.295551000000,0.000010000000,11822.248000000000,-0.085866173175,-0.111211634978,0.320022343525,-0.000937356184,-0.002774357649,-2.352908932760,-0.000002837206,0.000000217187,0.000000001872,0.000023968338,0.000000073539,-0.000025567752,-0.119873531163,-0.011987353675,8.873638153076,0.001486043911,-2.801391903554,2.785664558411,-1.555193249379,1.571172356606,-0.785166565572,-0.000025566347,0.000000000000,-0.000000000000,0.000000000000,-0.000023968450,0.000000000000
0.303553000000,0.000010000000,11822.255999999999,-0.085868562462,-0.111214663190,0.320011897413,-0.000860979397,-0.002789451838,-2.352933498868,-0.000002837237,0.000000217249,0.000000001848,0.000023968336,0.000000074107,-0.000025566317,-0.128864049911,-0.020977867767,8.834679603577,0.001509637921,-2.801391903554,2.785676717758,-1.555145565663,1.571160435677,-0.785214726125,-0.000025566347,0.000000000000,-0.000000000000,0.000000000000,-0.000023968450,0.000000000000
0.311553000000,0.000010000000,11822.263999999999,-0.085870333414,-0.111212685995,0.320011999053,-0.000872630251,-0.002817696173,-2.352933479680,-0.000002837186,0.000000217294,0.000000001895,0.000023968336,0.000000074106,-0.000025566317,-0.104889340699,-0.029968382791,8.807707786560,0.001509637921,-2.801379982625,2.785676717758,-1.555157486592,1.571184396744,-0.785214726125,-0.000025566347,0.000000000000,-0.000000000000,0.000000000000,-0.000023968450,0.000000000000
0.319552000000,0.000010000000,11822.271999999999,-0.085873579619,-0.111211607037,0.320006091434,-0.000846991220,-0.002795246305,-2.352969098953,-0.000002837229,0.000000217377,0.000000001848,0.000023968339,0.000000073254,-0.000025566032,-0.092901989818,-0.053943090141,8.846666336060,0.001474059653,-2.801391903554,2.785688638687,-1.555145565663,1.571160435677,-0.785214726125,-0.000025566347,0.000000000000,-0.000000000000,0.000000000000,-0.000023968450,0.000000000000
0.327579000000,0.000010000000,11822.279999999999,-0.085873745152,-0.111211687047,0.320000387082,-0.000844559923,-0.002829274313,-2.352945133327,-0.000002837184,0.000000217381,0.000000001895,0.000023968337,0.000000073828,-0.000025565746,-0.119873531163,-0.041955735534,8.852660179138,0.001498028170,-2.801379982625,2.785700559616,-1.555157486592,1.571184396744,-0.785214726125,-0.000025566347,0.000000000000,-0.000000000000,0.000000000000,-0.000023968450,0.000000000000
0.335557000000,0.000010000000,11822.287999999999,-0.085872880422,-0.111206619145,0.320013024891,-0.000898427859,-0.002840076093,-2.352944772682,-0.000002837125,0.000000217359,0.000000001943,0.000023968339,0.000000072966,-0.000025566603,-0.095898829401,-0.056939929724,8.849663734436,0.001462075510,-2.801391903554,2.785676717758,-1.555157486592,1.571208357811,-0.785178486501,-0.000025566347,0.000000000000,-0.000000000000,0.000000000000,-0.000023968450,0.000000000000
0.343556000000,0.000010000000,11822.296000000000,-0.085878780989,-0.111212710954,0.320006549499,-0.000802500534,-0.002846665469,-2.352885290683,-0.000002837187,0.000000217510,0.000000001896,0.000023968336,0.000000074109,-0.000025564889,-0.107886180282,-0.026971545070,8.864647865295,0.001509637921,-2.801356140767,2.785676717758,-1.555121723806,1.571184396744,-0.785166565572,-0.000025566347,0.000000000000,-0.000000000000,0.000000000000,-0.000023968450,0.000000000000
0.351552000000,0.000010000000,11822.304000000000,-0.085868182920,-0.111216799395,0.319994581078,-0.000830479937,-0.002835000853,-2.352837448157,-0.000002837197,0.000000217239,0.000000001895,0.000023968332,0.000000075255,-0.000025565460,-0.098895661533,-0.041955735534,8.882628440857,0.001557574724,-2.801379982625,2.785712480545,-1.555157486592,1.571184396744,-0.785166565572,-0.000025566347,0.000000000000,-0.000000000000,0.000000000000,-0.000023968450,0.000000000000
0.359545000000,0.000010000000,11822.312000000000,-0.085877467862,-0.111210621383,0.319994582024,-0.000824702973,-0.002820884168,-2.352969138054,-0.000002837204,0.000000217476,0.000000001872,0.000023968339,0.000000073253,-0.000025565460,-0.107886180282,-0.044952575117,8.900609970093,0.001474059653,-2.801379982625,2.785712480545,-1.555157486592,1.571172356606,-0.785214726125,-0.000025566347,0.000000000000,-0.000000000000,0.000000000000,-0.000023968450,0.000000000000
0.367545000000,0.000010000000,11822.320000000000,-0.085871363681,-0.111210631158,0.320022493269,-0.000881186595,-0.002797579316,-2.352944690167,-0.000002837204,0.000000217320,0.000000001872,0.000023968339,0.000000073255,-0.000025566609,-0.104889340699,-0.038958899677,8.894616127014,0.001474059653,-2.801391903554,2.785652637482,-1.555133644735,1.571172356606,-0.785190407430,-0.000025566347,0.000000000000,-0.000000000000,0.000000000000,-0.000023968450,0.000000000000
0.375553000000,0.000010000000,11822.328000000000,-0.085869150928,-0.111214697001,0.320002650599,-0.000866783499,-0.002803469376,-2.352897254388,-0.000002837214,0.000000217264,0.000000001872,0.000023968335,0.000000074392,-0.000025566317,-0.113879859447,-0.050946250558,8.840673446655,0.001521622064,-2.801379982625,2.785700559616,-1.555181328450,1.571172356606,-0.785190407430,-0.000025566347,0.000000000000,-0.000000000000,0.000000000000,-0.000023968450,0.000000000000
0.383556000000,0.000010000000,11822.335999999999,-0.085872804475,-0.111209634160,0.320004854740,-0.000844601303,-0.002829236659,-2.352956653034,-0.000002837179,0.000000217357,0.000000001895,0.000023968339,0.000000073254,-0.000025565746,-0.134857729077,-0.041955735534,8.867644309998,0.001474059653,-2.801403824483,2.785688638687,-1.555121723806,1.571184396744,-0.785202328359,-0.000025566347,0.000000000000,-0.000000000000,0.000000000000,-0.000023968450,0.000000000000
0.391549000000,0.000010000000,11822.343999999999,-0.085869758615,-0.111212688333,0.320016687305,-0.000867162057,-0.002803313852,-2.352873059975,-0.000002837209,0.000000217279,0.000000001872,0.000023968337,0.000000073829,-0.000025566323,-0.122870370746,-0.050946250558,8.849663734436,0.001498028170,-2.801391903554,2.785664558411,-1.555133644735,1.571172356606,-0.785142723714,-0.000025566347,0.000000000000,-0.000000000000,0.000000000000,-0.000023968450,0.000000000000
0.399542000000,0.000010000000,11822.351999999999,-0.085866224026,-0.111212678245,0.320025989569,-0.000929082187,-0.002794412191,-2.352933453525,-0.000002837186,0.000000217189,0.000000001895,0.000023968336,0.000000074106,-0.000025567466,-0.086908310652,-0.080914631486,8.867644309998,0.001509637921,-2.801379982625,2.785652637482,-1.555181328450,1.571184396744,-0.785214726125,-0.000025566347,0.000000000000,-0.000000000000,0.000000000000,-0.000023968450,0.000000000000
0.407551000000,0.000010000000,11822.359999999999,-0.085874722640,-0.111213669399,0.319999257651,-0.000818934592,-0.002806795976,-2.352896991748,-0.000002837234,0.000000217406,0.000000001848,0.000023968337,0.000000073828,-0.000025565460,-0.113879859447,-0.059936765581,8.903606414795,0.001498028170,-2.801379982625,2.785700559616,-1.555145565663,1.571160435677,-0.785166565572,-0.000025566347,0.000000000000,-0.000000000000,0.000000000000,-0.000023968450,0.000000000000
0.415541000000,0.000010000000,11822.367999999999,-0.085876026483,-0.111214683275,0.320007579227,-0.000804875237,-0.002812637349,-2.352897239967,-0.000002837237,0.000000217439,0.000000001848,0.000023968336,0.000000074108,-0.000025565174,-0.122870370746,-0.032965220511,8.861651420593,0.001509637921,-2.801368061696,2.785676717758,-1.555121723806,1.571160435677,-0.785178486501,-0.000025566347,0.000000000000,-0.000000000000,0.000000000000,-0.000023968450,0.000000000000
0.423583000000,0.000010000000,11822.376000000000,-0.085878101828,-0.111208651022,0.320005164324,-0.000850447055,-0.002843310693,-2.352932826180,-0.000002837153,0.000000217492,0.000000001919,0.000023968339,0.000000073254,-0.000025565746,-0.116876691580,-0.050946250558,8.825689315796,0.001474059653,-2.801368061696,2.785688638687,-1.555157486592,1.571196317673,-0.785178486501,-0.000025566347,0.000000000000,-0.000000000000,0.000000000000,-0.000023968450,0.000000000000
0.431551000000,0.000010000000,11822.384000000000,-0.085873487011,-0.111210672959,0.320027374027,-0.000887037280,-0.002811805952,-2.352932679363,-0.000002837181,0.000000217374,0.000000001896,0.000023968338,0.000000073542,-0.000025566609,-0.122870370746,-0.020977867767,8.876635551453,0.001486043911,-2.801368061696,2.785640716553,-1.555145565663,1.571184396744,-0.785190407430,-0.000025566347,0.000000000000,-0.000000000000,0.000000000000,-0.000023968450,0.000000000000
0.439551000000,0.000010000000,11822.392000000000,-0.085865147015,-0.111210690095,0.320015184828,-0.000920564169,-0.002814301142,-2.352932685372,-0.000002837158,0.000000217161,0.000000001919,0.000023968337,0.000000073827,-0.000025567175,-0.092901989818,-0.035962060094,8.879631996155,0.001498028170,-2.801403824483,2.785676717758,-1.555169407521,1.571196317673,-0.785202328359,-0.000025566347,0.000000000000,-0.000000000000,0.000000000000,-0.000023968450,0.000000000000
0.447544000000,0.000010000000,11822.400000000000,-0.085871872685,-0.111211654637,0.320017922085,-0.000881186352,-0.002797575438,-2.352920826247,-0.000002837206,0.000000217333,0.000000001872,0.000023968338,0.000000073541,-0.000025566609,-0.104889340699,-0.038958899677,8.828685760498,0.001486043911,-2.801379982625,2.785664558411,-1.555157486592,1.571172356606,-0.785178486501,-0.000025566347,0.000000000000,-0.000000000000,0.000000000000,-0.000023968450,0.000000000000
0.455543000000,0.000010000000,11822.407999999999,-0.085868445922,-0.111215733235,0.320013234758,-0.000880863056,-0.002797668919,-2.352849463723,-0.000002837217,0.000000217246,0.000000001872,0.000023968334,0.000000074680,-0.000025566603,-0.131860882044,-0.029968382791,8.831682205200,0.001533606322,-2.801368061696,2.785676717758,-1.555181328450,1.571172356606,-0.785154644643,-0.000025566347,0.000000000000,-0.000000000000,0.000000000000,-0.000023968450,0.000000000000
0.463543000000,0.000010000000,11822.415999999999,-0.085871532662,-0.111209717453,0.320016787953,-0.000884591588,-0.002845803042,-2.352932630509,-0.000002837133,0.000000217325,0.000000001943,0.000023968337,0.000000073829,-0.000025566323,-0.101892501116,-0.062933601439,8.858654022217,0.001498028170,-2.801379982625,2.785664558411,-1.555145565663,1.571208357811,-0.785202328359,-0.000025566347,0.000000000000,-0.000000000000,0.000000000000,-0.000023968450,0.000000000000
0.471545000000,0.000010000000,11822.423999999999,-0.085876188921,-0.111211710230,0.319998227005,-0.000822259552,-0.002854925749,-2.352933499846,-0.000002837161,0.000000217444,0.000000001919,0.000023968336,0.000000074107,-0.000025565174,-0.122870370746,-0.053943090141,8.840673446655,0.001509637921,-2.801368061696,2.785700559616,-1.555145565663,1.571196317673,-0.785214726125,-0.000025566347,0.000000000000,-0.000000000000,0.000000000000,-0.000023968450,0.000000000000
0.479538000000,0.000010000000,11822.431999999999,-0.085880298747,-0.111212689976,0.319992526338,-0.000796643307,-0.002832472772,-2.352908929963,-0.000002837209,0.000000217549,0.000000001872,0.000023968337,0.000000073828,-0.000025564889,-0.128864049911,-0.044952575117,8.891619682312,0.001498028170,-2.801356140767,2.785712480545,-1.555157486592,1.571172356606,-0.785178486501,-0.000025566347,0.000000000000,-0.000000000000,0.000000000000,-0.000023968450,0.000000000000
0.487547000000,0.000010000000,11822.439999999999,-0.085875531075,-0.111210676796,0.320020436783,-0.000858952039,-0.002823390734,-2.352932691947,-0.000002837181,0.000000217427,0.000000001896,0.000023968338,0.000000073543,-0.000025566037,-0.098895661533,-0.035962060094,8.876635551453,0.001486043911,-2.801368061696,2.785652637482,-1.555133644735,1.571184396744,-0.785190407430,-0.000025566347,0.000000000000,-0.000000000000,0.000000000000,-0.000023968450,0.000000000000
0.495537000000,0.000010000000,11822.448000000000,-0.085872890311,-0.111210713682,0.320003826020,-0.000836337328,-0.002849077318,-2.352920749486,-0.000002837159,0.000000217359,0.000000001919,0.000023968337,0.000000073829,-0.000025565460,-0.107886180282,-0.035962060094,8.840673446655,0.001498028170,-2.801391903554,2.785688638687,-1.555121723806,1.571196317673,-0.785190407430,-0.000025566347,0.000000000000,-0.000000000000,0.000000000000,-0.000023968450,0.000000000000
0.503539000000,0.000010000000,11822.456000000000,-0.085878279621,-0.111210681898,0.320019408963,-0.000844933544,-0.002829193668,-2.352920771273,-0.000002837181,0.000000217497,0.000000001896,0.000023968338,0.000000073543,-0.000025565752,-0.122870370746,-0.041955735534,8.825689315796,0.001486043911,-2.801356140767,2.785652637482,-1.555133644735,1.571184396744,-0.785178486501,-0.000025566347,0.000000000000,-0.000000000000,0.000000000000,-0.000023968450,0.000000000000
0.511539000000,0.000010000000,11822.464000000000,-0.085869604040,-0.111214715907,0.320022700276,-0.000881140910,-0.002797596514,-2.352885226449,-0.000002837214,0.000000217275,0.000000001872,0.000023968335,0.000000074394,-0.000025566609,-0.116876691580,-0.068927280605,8.858654022217,0.001521622064,-2.801368061696,2.785652637482,-1.555157486592,1.571172356606,-0.785178486501,-0.000025566347,0.000000000000,-0.000000000000,0.000000000000,-0.000023968450,0.000000000000
0.519544000000,0.000010000000,11822.472000000000,-0.085871304970,-0.111213776328,0.320014629844,-0.000850609515,-0.002843224759,-2.352897058035,-0.000002837167,0.000000217319,0.000000001919,0.000023968334,0.000000074682,-0.000025565752,-0.116876691580,-0.065930441022,8.912597656250,0.001533606322,-2.801368061696,2.785664558411,-1.555133644735,1.571196317673,-0.785202328359,-0.000025566347,0.000000000000,-0.000000000000,0.000000000000,-0.000023968450,0.000000000000
0.527568000000,0.000010000000,11822.480000000000,-0.085876937591,-0.111210635428,0.320015763030,-0.000853087234,-0.002809227086,-2.352969040857,-0.000001415579,-0.000000880317,0.000000001872,0.000023968339,0.000000073255,-0.000012782864,-0.104889340699,-0.062933601439,8.849663734436,0.001474059653,-2.801368061696,2.785664558411,-1.555145565663,1.571172356606,-0.785214726125,-0.000012783174,0.000000000000,-0.000000000000,0.000000000000,-0.000023968450,0.000000000000
0.535546000000,0.000010000000,11822.487999999999,-0.085877497315,-0.111212702506,0.320014837714,-0.000844870902,-0.002829224461,-2.352921060370,-0.000001415535,-0.000000880310,0.000000001896,0.000023968336,0.000000074108,-0.000012782578,-0.125867202878,-0.038958899677,8.837676048279,0.001509637921,-2.801344219838,2.785664558411,-1.555157486592,1.571184396744,-0.785202328359,-0.000012783174,0.000000000000,-0.000000000000,0.000000000000,-0.000023968450,0.000000000000
0.543533000000,0.000010000000,11822.495999999999,-0.085880589714,-0.111207588217,0.320014630793,-0.000844979867,-0.002829173553,-2.352956745578,-0.000001415588,-0.000000880271,0.000000001896,0.000023968340,0.000000072681,-0.000012782578,-0.140851408243,-0.020977867767,8.852660179138,0.001450091251,-2.801368061696,2.785664558411,-1.555133644735,1.571184396744,-0.785178486501,-0.000012783174,0.000000000000,-0.000000000000,0.000000000000,-0.000023968450,0.000000000000
0.551535000000,0.000010000000,11822.503999999999,-0.085873307142,-0.111212635144,0.320000285443,-0.000832957489,-0.002801007361,-2.352932817803,-0.000001415581,-0.000000880364,0.000000001848,0.000023968338,0.000000073541,-0.000012782572,-0.116876691580,-0.035962060094,8.813701629639,0.001486043911,-2.801391903554,2.785700559616,-1.555145565663,1.571160435677,-0.785190407430,-0.000012783174,0.000000000000,-0.000000000000,0.000000000000,-0.000023968450,0.000000000000
0.559538000000,0.000010000000,11822.511999999999,-0.085870110839,-0.111210660724,0.320017817626,-0.000887043960,-0.002811726850,-2.352908880872,-0.000001415556,-0.000000880404,0.000000001895,0.000023968338,0.000000073541,-0.000012783435,-0.125867202878,-0.032965220511,8.861651420593,0.001486043911,-2.801391903554,2.785664558411,-1.555145565663,1.571184396744,-0.785166565572,-0.000012783174,0.000000000000,-0.000000000000,0.000000000000,-0.000023968450,0.000000000000
0.567534000000,0.000010000000,11822.519999999999,-0.085869470286,-0.111211599433,0.320020081997,-0.000903500488,-0.002771910421,-2.352920913132,-0.000001415592,-0.000000880413,0.000000001848,0.000023968339,0.000000073253,-0.000012784007,-0.119873531163,-0.044952575117,8.870641708374,0.001474059653,-2.801391903554,2.785664558411,-1.555169407521,1.571160435677,-0.785166565572,-0.000012783174,0.000000000000,-0.000000000000,0.000000000000,-0.000023968450,0.000000000000
0.575530000000,0.000010000000,11822.528000000000,-0.085865673197,-0.111207640417,0.320026911823,-0.000954837505,-0.002816782264,-2.352944672676,-0.000001415541,-0.000000880461,0.000000001943,0.000023968338,0.000000073253,-0.000012784578,-0.140851408243,-0.047949414700,8.846666336060,0.001474059653,-2.801403824483,2.785652637482,-1.555169407521,1.571208357811,-0.785190407430,-0.000012783174,0.000000000000,-0.000000000000,0.000000000000,-0.000023968450,0.000000000000
0.583542000000,0.000010000000,11822.536000000000,-0.085875824178,-0.111214673816,0.320009945315,-0.000832964744,-0.002801063422,-2.352897269332,-0.000001415561,-0.000000880331,0.000000001848,0.000023968336,0.000000074107,-0.000012782572,-0.116876691580,-0.044952575117,8.831682205200,0.001509637921,-2.801356140767,2.785676717758,-1.555157486592,1.571160435677,-0.785178486501,-0.000012783174,0.000000000000,-0.000000000000,0.000000000000,-0.000023968450,0.000000000000
0.591532000000,0.000010000000,11822.544000000000,-0.085869149332,-0.111209618382,0.320002339060,-0.000872686747,-0.002817604140,-2.352944772807,-0.000001415566,-0.000000880417,0.000000001895,0.000023968339,0.000000073253,-0.000012783144,-0.095898829401,-0.065930441022,8.819695472717,0.001474059653,-2.801415745412,2.785700559616,-1.555145565663,1.571184396744,-0.785190407430,-0.000012783174,0.000000000000,-0.000000000000,0.000000000000,-0.000023968450,0.000000000000
0.599534000000,0.000010000000,11822.552000000000,-0.085870554986,-0.111210614560,0.320014159011,-0.000894939944,-0.002791882106,-2.352944762939,-0.000001415579,-0.000000880399,0.000000001872,0.000023968339,0.000000073253,-0.000012783715,-0.125867202878,-0.068927280605,8.903606414795,0.001474059653,-2.801391903554,2.785676717758,-1.555169407521,1.571172356606,-0.785190407430,-0.000012783174,0.000000000000,-0.000000000000,0.000000000000,-0.000023968450,0.000000000000
0.607534000000,0.000010000000,11822.559999999999,-0.085869553226,-0.111213662701,0.320019054266,-0.000889386771,-0.002777759614,-2.352932707769,-0.000001415571,-0.000000880412,0.000000001848,0.000023968337,0.000000073828,-0.000012783721,-0.122870370746,-0.038958899677,8.783733367920,0.001498028170,-2.801379982625,2.785664558411,-1.555169407521,1.571160435677,-0.785202328359,-0.000012783174,0.000000000000,-0.000000000000,0.000000000000,-0.000023968450,0.000000000000
0.615536000000,0.000010000000,11822.567999999999,-0.085869886236,-0.111213725841,0.320015658592,-0.000858884059,-0.002823357230,-2.352897135497,-0.000001415525,-0.000000880407,0.000000001895,0.000023968335,0.000000074395,-0.000012782864,-0.116876691580,-0.065930441022,8.810704231262,0.001521622064,-2.801379982625,2.785664558411,-1.555133644735,1.571184396744,-0.785190407430,-0.000012783174,0.000000000000,-0.000000000000,0.000000000000,-0.000023968450,0.000000000000
0.623572000000,0.000010000000,11822.575999999999,-0.085864135218,-0.111211690554,0.320008144077,-0.000892452368,-0.002825864856,-2.352921078841,-0.000001415522,-0.000000880481,0.000000001919,0.000023968336,0.000000074106,-0.000012783429,-0.128864049911,-0.044952575117,8.885625839233,0.001509637921,-2.801415745412,2.785688638687,-1.555145565663,1.571196317673,-0.785202328359,-0.000012783174,0.000000000000,-0.000000000000,0.000000000000,-0.000023968450,0.000000000000
0.631547000000,0.000010000000,11822.583999999999,-0.085868470530,-0.111212691589,0.320016686359,-0.000872936379,-0.002817544333,-2.352909119316,-0.000001415535,-0.000000880425,0.000000001895,0.000023968336,0.000000074107,-0.000012783149,-0.125867202878,-0.041955735534,8.891619682312,0.001509637921,-2.801391903554,2.785664558411,-1.555133644735,1.571184396744,-0.785190407430,-0.000012783174,0.000000000000,-0.000000000000,0.000000000000,-0.000023968450,0.000000000000
0.639534000000,0.000010000000,11822.591999999999,-0.085876357067,-0.111213675964,0.319988763374,-0.000810358964,-0.002826774812,-2.352909273068,-0.000001415548,-0.000000880325,0.000000001872,0.000023968336,0.000000074105,-0.000012781995,-0.080914631486,-0.053943090141,8.882628440857,0.001509637921,-2.801368061696,2.785724639893,-1.555169407521,1.571172356606,-0.785190407430,-0.000012783174,0.000000000000,-0.000000000000,0.000000000000,-0.000023968450,0.000000000000
0.647539000000,0.000010000000,11822.600000000000,-0.085869778754,-0.111214704157,0.320013234758,-0.000880824520,-0.002797720855,-2.352909131651,-0.000001415537,-0.000000880409,0.000000001872,0.000023968335,0.000000074393,-0.000012783429,-0.080914631486,-0.032965220511,8.855657577515,0.001521622064,-2.801368061696,2.785676717758,-1.555181328450,1.571172356606,-0.785202328359,-0.000012783174,0.000000000000,-0.000000000000,0.000000000000,-0.000023968450,0.000000000000
0.655533000000,0.000010000000,11822.608000000000,-0.085856956140,-0.111212613762,0.320028908391,-0.000960150531,-0.002748448173,-2.352932737038,-0.000001415581,-0.000000880573,0.000000001848,0.000023968338,0.000000073540,-0.000012785161,-0.110883019865,-0.056939929724,8.864647865295,0.001486043911,-2.801440064107,2.785652637482,-1.555157486592,1.571160435677,-0.785190407430,-0.000012783174,0.000000000000,-0.000000000000,0.000000000000,-0.000023968450,0.000000000000
0.663532000000,0.000010000000,11822.616000000000,-0.085873659350,-0.111210617343,0.320001415810,-0.000852751660,-0.002809305367,-2.352992957943,-0.000001415579,-0.000000880359,0.000000001872,0.000023968339,0.000000073253,-0.000012782858,-0.101892501116,-0.035962060094,8.801713943481,0.001474059653,-2.801391903554,2.785700559616,-1.555157486592,1.571172356606,-0.785238567983,-0.000012783174,0.000000000000,-0.000000000000,0.000000000000,-0.000023968450,0.000000000000
0.671528000000,0.000010000000,11822.624000000000,-0.085876931547,-0.111212612916,0.320015764878,-0.000841487333,-0.002780964426,-2.352932829959,-0.000001415604,-0.000000880317,0.000000001824,0.000023968339,0.000000073255,-0.000012782864,-0.125867202878,-0.035962060094,8.837676048279,0.001474059653,-2.801368061696,2.785664558411,-1.555145565663,1.571148395538,-0.785178486501,-0.000012783174,0.000000000000,-0.000000000000,0.000000000000,-0.000023968450,0.000000000000
0.679527000000,0.000010000000,11822.632000000000,-0.085885378267,-0.111209601216,0.319986604175,-0.000782330040,-0.002838421366,-2.352981144192,-0.000001415590,-0.000000880209,0.000000001872,0.000023968339,0.000000072966,-0.000012781424,-0.089905150235,-0.050946250558,8.876635551453,0.001462075510,-2.801356140767,2.785724639893,-1.555157486592,1.571172356606,-0.785214726125,-0.000012783174,0.000000000000,-0.000000000000,0.000000000000,-0.000023968450,0.000000000000
0.687533000000,0.000010000000,11822.639999999999,-0.085871191302,-0.111212675545,0.320008559111,-0.000886705263,-0.002811885004,-2.352909211659,-0.000001415535,-0.000000880391,0.000000001895,0.000023968336,0.000000074105,-0.000012783429,-0.104889340699,-0.035962060094,8.828685760498,0.001509637921,-2.801368061696,2.785688638687,-1.555193249379,1.571184396744,-0.785190407430,-0.000012783174,0.000000000000,-0.000000000000,0.000000000000,-0.000023968450,0.000000000000
0.695529000000,0.000010000000,11822.647999999999,-0.085871269285,-0.111210653820,0.320007220843,-0.000872671952,-0.002817660320,-2.352944697589,-0.000001415556,-0.000000880390,0.000000001895,0.000023968338,0.000000073540,-0.000012783144,-0.128864049911,-0.050946250558,8.882628440857,0.001486043911,-2.801391903554,2.785688638687,-1.555157486592,1.571184396744,-0.785202328359,-0.000012783174,0.000000000000,-0.000000000000,0.000000000000,-0.000023968450,0.000000000000
0.703559000000,0.000010000000,11822.655999999999,-0.085865814005,-0.111214658024,0.320012925147,-0.000875056271,-0.002783599148,-2.352897259034,-0.000001415560,-0.000000880459,0.000000001848,0.000023968336,0.000000074106,-0.000012783429,-0.113879859447,-0.026971545070,8.819695472717,0.001509637921,-2.801403824483,2.785676717758,-1.555145565663,1.571160435677,-0.785178486501,-0.000012783174,0.000000000000,-0.000000000000,0.000000000000,-0.000023968450,0.000000000000
0.711527000000,0.000010000000,11822.663999999999,-0.085876763001,-0.111211657687,0.320005166219,-0.000838798520,-0.002815071005,-2.352908949838,-0.000001415569,-0.000000880319,0.000000001872,0.000023968338,0.000000073541,-0.000012782572,-0.098895661533,-0.053943090141,8.879631996155,0.001486043911,-2.801368061696,2.785688638687,-1.555157486592,1.571172356606,-0.785166565572,-0.000012783174,0.000000000000,-0.000000000000,0.000000000000,-0.000023968450,0.000000000000
0.719527000000,0.000010000000,11822.671999999999,-0.085889428795,-0.111205594911,0.320010266230,-0.000794112851,-0.002866651192,-2.352944854225,-0.000001415586,-0.000000880158,0.000000001919,0.000023968341,0.000000072395,-0.000012781424,-0.125867202878,-0.071924120188,8.882628440857,0.001438106992,-2.801344219838,2.785664558411,-1.555109326039,1.571196317673,-0.785154644643,-0.000012783174,0.000000000000,-0.000000000000,0.000000000000,-0.000023968450,0.000000000000
0.727553000000,0.000010000000,11822.680000000000,-0.085868247672,-0.111208667644,0.320015287391,-0.000926485360,-0.002828466140,-2.352908901702,-0.000001415530,-0.000000880428,0.000000001943,0.000023968338,0.000000073540,-0.000012784001,-0.098895661533,-0.035962060094,8.882628440857,0.001486043911,-2.801391903554,2.785676717758,-1.555181328450,1.571208357811,-0.785166565572,-0.000012783174,0.000000000000,-0.000000000000,0.000000000000,-0.000023968450,0.000000000000
0.735528000000,0.000010000000,11822.688000000000,-0.085878999688,-0.111211623044,0.320008710542,-0.000818957746,-0.002806860223,-2.352944748950,-0.000001415592,-0.000000880291,0.000000001848,0.000023968339,0.000000073255,-0.000012782287,-0.125867202878,-0.038958899677,8.828685760498,0.001474059653,-2.801368061696,2.785676717758,-1.555133644735,1.571160435677,-0.785190407430,-0.000012783174,0.000000000000,-0.000000000000,0.000000000000,-0.000023968450,0.000000000000
0.743525000000,0.000010000000,11822.696000000000,-0.085860945380,-0.111214719113,0.320017597012,-0.000943380153,-0.002788435386,-2.352885229544,-0.000001415514,-0.000000880521,0.000000001895,0.000023968334,0.000000074678,-0.000012784584,-0.125867202878,-0.038958899677,8.801713943481,0.001533606322,-2.801391903554,2.785676717758,-1.555205647145,1.571184396744,-0.785190407430,-0.000012783174,0.000000000000,-0.000000000000,0.000000000000,-0.000023968450,0.000000000000
0.751524000000,0.000010000000,11822.704000000000,-0.085875696559,-0.111209589462,0.320007325300,-0.000866895989,-0.002803475561,-2.352944848514,-0.000001415590,-0.000000880333,0.000000001872,0.000023968339,0.000000072966,-0.000012783144,-0.122870370746,-0.014984191395,8.891619682312,0.001462075510,-2.801379982625,2.785688638687,-1.555169407521,1.571172356606,-0.785178486501,-0.000012783174,0.000000000000,-0.000000000000,0.000000000000,-0.000023968450,0.000000000000
0.759523000000,0.000010000000,11822.712000000000,-0.085873970562,-0.111211718098,0.320014629844,-0.000850662759,-0.002843216926,-2.352909105497,-0.000001415523,-0.000000880355,0.000000001919,0.000023968336,0.000000074108,-0.000012782578,-0.119873531163,-0.044952575117,8.861651420593,0.001509637921,-2.801368061696,2.785664558411,-1.555133644735,1.571196317673,-0.785190407430,-0.000012783174,0.000000000000,-0.000000000000,0.000000000000,-0.000023968450,0.000000000000
0.767526000000,0.000010000000,11822.719999999999,-0.085875481317,-0.111212692771,0.319992318437,-0.000802474927,-0.002846603291,-2.352885365493,-0.000001415535,-0.000000880336,0.000000001895,0.000023968336,0.000000074107,-0.000012781715,-0.086908310652,-0.062933601439,8.843669891357,0.001509637921,-2.801379982625,2.785712480545,-1.555133644735,1.571184396744,-0.785166565572,-0.000012783174,0.000000000000,-0.000000000000,0.000000000000,-0.000023968450,0.000000000000
0.775525000000,0.000010000000,11822.727999999999,-0.085873881552,-0.111215678939,0.320019308285,-0.000827364913,-0.002786786764,-2.352921052340,-0.000001415573,-0.000000880356,0.000000001824,0.000023968336,0.000000074109,-0.000012782578,-0.101892501116,-0.056939929724,8.873638153076,0.001509637921,-2.801368061696,2.785652637482,-1.555121723806,1.571148395538,-0.785202328359,-0.000012783174,0.000000000000,-0.000000000000,0.000000000000,-0.000023968450,0.000000000000
0.783524000000,0.000010000000,11822.735999999999,-0.085874675066,-0.111211692318,0.319983983289,-0.000821991206,-0.002854973068,-2.352909266204,-0.000001415523,-0.000000880346,0.000000001919,0.000023968336,0.000000074105,-0.000012781995,-0.107886180282,-0.035962060094,8.840673446655,0.001509637921,-2.801379982625,2.785736560822,-1.555169407521,1.571196317673,-0.785190407430,-0.000012783174,0.000000000000,-0.000000000000,0.000000000000,-0.000023968450,0.000000000000
0.791517000000,0.000010000000,11822.743999999999,-0.085871198573,-0.111208682201,0.320011893623,-0.000884333603,-0.002845881281,-2.352932715956,-0.000001415531,-0.000000880391,0.000000001943,0.000023968338,0.000000073541,-0.000012783144,-0.128864049911,-0.041955735534,8.834679603577,0.001486043911,-2.801391903554,2.785676717758,-1.555145565663,1.571208357811,-0.785190407430,-0.000012783174,0.000000000000,-0.000000000000,0.000000000000,-0.000023968450,0.000000000000
0.799517000000,0.000010000000,11822.751999999999,-0.085873211624,-0.111212694742,0.320021569008,-0.000867123086,-0.002803409314,-2.352920731767,-0.000001415558,-0.000000880365,0.000000001872,0.000023968337,0.000000073829,-0.000012783149,-0.113879859447,-0.065930441022,8.912597656250,0.001498028170,-2.801368061696,2.785652637482,-1.555145565663,1.571172356606,-0.785190407430,-0.000012783174,0.000000000000,-0.000000000000,0.000000000000,-0.000023968450,0.000000000000
0.807519000000,0.000010000000,11822.760000000000,-0.085877503430,-0.111210725018,0.320014835795,-0.000856543762,-0.002857424861,-2.352897189562,-0.000001415510,-0.000000880310,0.000000001943,0.000023968336,0.000000074108,-0.000012782578,-0.113879859447,-0.059936765581,8.885625839233,0.001509637921,-2.801344219838,2.785664558411,-1.555157486592,1.571208357811,-0.785178486501,-0.000012783174,0.000000000000,-0.000000000000,0.000000000000,-0.000023968450,0.000000000000
0.815518000000,0.000010000000,11822.768000000000,-0.085866378665,-0.111210650770,0.320019976592,-0.000915074822,-0.002800152888,-2.352944652447,-0.000001415556,-0.000000880452,0.000000001895,0.000023968338,0.000000073541,-0.000012784007,-0.113879859447,-0.062933601439,8.855657577515,0.001486043911,-2.801403824483,2.785664558411,-1.555157486592,1.571184396744,-0.785202328359,-0.000012783174,0.000000000000,-0.000000000000,0.000000000000,-0.000023968450,0.000000000000
0.823545000000,0.000010000000,11822.776000000000,-0.085878656527,-0.111210679596,0.320007577356,-0.000816586076,-0.002840842935,-2.352896963715,-0.000001415556,-0.000000880295,0.000000001896,0.000023968338,0.000000073543,-0.000012782001,-0.110883019865,-0.047949414700,8.831682205200,0.001486043911,-2.801368061696,2.785676717758,-1.555121723806,1.571184396744,-0.785154644643,-0.000012783174,0.000000000000,-0.000000000000,0.000000000000,-0.000023968450,0.000000000000
0.831523000000,0.000010000000,11822.784000000000,-0.085876046061,-0.111209722859,0.320015863636,-0.000870580861,-0.002851624394,-2.352920719834,-0.000001415520,-0.000000880328,0.000000001943,0.000023968337,0.000000073829,-0.000012782864,-0.125867202878,-0.044952575117,8.837676048279,0.001498028170,-2.801356140767,2.785664558411,-1.555157486592,1.571208357811,-0.785190407430,-0.000012783174,0.000000000000,-0.000000000000,0.000000000000,-0.000023968450,0.000000000000
0.839519000000,0.000010000000,11822.791999999999,-0.085868571618,-0.111211701878,0.320011894593,-0.000878415060,-0.002831719932,-2.352933455374,-0.000001415523,-0.000000880424,0.000000001919,0.000023968336,0.000000074107,-0.000012783144,-0.116876691580,-0.044952575117,8.906603813171,0.001509637921,-2.801391903554,2.785676717758,-1.555145565663,1.571196317673,-0.785214726125,-0.000012783174,0.000000000000,-0.000000000000,0.000000000000,-0.000023968450,0.000000000000
0.847516000000,0.000010000000,11822.799999999999,-0.085865150076,-0.111209696433,0.320015183858,-0.000926429306,-0.002828471214,-2.352920749504,-0.000001415520,-0.000000880468,0.000000001943,0.000023968337,0.000000073827,-0.000012784001,-0.104889340699,-0.044952575117,8.834679603577,0.001498028170,-2.801403824483,2.785676717758,-1.555169407521,1.571208357811,-0.785190407430,-0.000012783174,0.000000000000,-0.000000000000,0.000000000000,-0.000023968450,0.000000000000
0.855518000000,0.000010000000,11822.807999999999,-0.085873941480,-0.111213673991,0.319998022826,-0.000804812020,-0.002812634545,-2.352957053573,-0.000001415571,-0.000000880355,0.000000001848,0.000023968337,0.000000073829,-0.000012782001,-0.113879859447,-0.053943090141,8.858654022217,0.001498028170,-2.801391903554,2.785700559616,-1.555121723806,1.571160435677,-0.785226647054,-0.000012783174,0.000000000000,-0.000000000000,0.000000000000,-0.000023968450,0.000000000000
0.863514000000,0.000010000000,11822.815999999999,-0.085877660764,-0.111210582944,0.320005063654,-0.000832976850,-0.002801063841,-2.352981083188,-0.000001415602,-0.000000880308,0.000000001848,0.000023968339,0.000000072967,-0.000012782572,-0.113879859447,-0.041955735534,8.879631996155,0.001462075510,-2.801379982625,2.785688638687,-1.555145565663,1.571160435677,-0.785214726125,-0.000012783174,0.000000000000,-0.000000000000,0.000000000000,-0.000023968450,0.000000000000
0.871517000000,0.000010000000,11822.823999999999,-0.085879775072,-0.111210726521,0.320013705462,-0.000836641187,-0.002849065488,-2.352932646194,-0.000001415533,-0.000000880281,0.000000001919,0.000023968337,0.000000073830,-0.000012782292,-0.146845072508,-0.029968382791,8.858654022217,0.001498028170,-2.801344219838,2.785664558411,-1.555145565663,1.571196317673,-0.785202328359,-0.000012783174,0.000000000000,-0.000000000000,0.000000000000,-0.000023968450,0.000000000000
0.879519000000,0.000010000000,11822.832000000000,-0.085871189456,-0.111211653351,0.320011896488,-0.000866809486,-0.002803498518,-2.352957078478,-0.000001415569,-0.000000880391,0.000000001872,0.000023968338,0.000000073541,-0.000012783144,-0.119873531163,-0.035962060094,8.846666336060,0.001486043911,-2.801391903554,2.785676717758,-1.555145565663,1.571172356606,-0.785214726125,-0.000012783174,0.000000000000,-0.000000000000,0.000000000000,-0.000023968450,0.000000000000
0.887527000000,0.000010000000,11822.840000000000,-0.085877841396,-0.111211629961,0.320019307363,-0.000833300828,-0.002800952047,-2.352932774428,-0.000001415592,-0.000000880306,0.000000001848,0.000023968339,0.000000073256,-0.000012782578,-0.107886180282,-0.029968382791,8.864647865295,0.001474059653,-2.801368061696,2.785652637482,-1.555121723806,1.571160435677,-0.785178486501,-0.000012783174,0.000000000000,-0.000000000000,0.000000000000,-0.000023968450,0.000000000000
0.895517000000,0.000010000000,11822.848000000000,-0.085872735710,-0.111212741331,0.320009839025,-0.000850329183,-0.002843347536,-2.352921471940,-0.000001415512,-0.000000880371,0.000000001919,0.000023968335,0.000000074394,-0.000012782572,-0.137854561210,-0.017981030047,8.888622283936,0.001521622064,-2.801368061696,2.785676717758,-1.555145565663,1.571196317673,-0.785214726125,-0.000012783174,0.000000000000,-0.000000000000,0.000000000000,-0.000023968450,0.000000000000
0.903511000000,0.000010000000,11822.856000000000,-0.085870987743,-0.111210606405,0.319997768858,-0.000866869153,-0.002803407066,-2.352920986810,-0.000001415579,-0.000000880393,0.000000001872,0.000023968339,0.000000073252,-0.000012783144,-0.107886180282,-0.044952575117,8.822691917419,0.001474059653,-2.801403824483,2.785712480545,-1.555169407521,1.571172356606,-0.785166565572,-0.000012783174,0.000000000000,-0.000000000000,0.000000000000,-0.000023968450,0.000000000000
0.911507000000,0.000010000000,11822.864000000000,-0.085871997248,-0.111213685835,0.320016894309,-0.000867101273,-0.002803399092,-2.352909153486,-0.000001415548,-0.000000880380,0.000000001872,0.000023968336,0.000000074107,-0.000012783149,-0.122870370746,-0.068927280605,8.843669891357,0.001509637921,-2.801368061696,2.785664558411,-1.555157486592,1.571172356606,-0.785190407430,-0.000012783174,0.000000000000,-0.000000000000,0.000000000000,-0.000023968450,0.000000000000
0.919512000000,0.000010000000,11822.871999999999,-0.085879603312,-0.111212623853,0.320019411757,-0.000827443115,-0.002786800214,-2.352944719449,-0.000001415605,-0.000000880283,0.000000001824,0.000023968339,0.000000073256,-0.000012782578,-0.137854561210,-0.029968382791,8.861651420593,0.001474059653,-2.801356140767,2.785652637482,-1.555133644735,1.571148395538,-0.785190407430,-0.000012783174,0.000000000000,-0.000000000000,0.000000000000,-0.000023968450,0.000000000000
0.927539000000,0.000010000000,11822.879999999999,-0.085865750222,-0.111211681080,0.320025886055,-0.000929107801,-0.002794381763,-2.352932655723,-0.000001415545,-0.000000880460,0.000000001895,0.000023968337,0.000000073828,-0.000012784292,-0.122870370746,-0.017981030047,8.858654022217,0.001498028170,-2.801391903554,2.785652637482,-1.555169407521,1.571184396744,-0.785202328359,-0.000012783174,0.000000000000,-0.000000000000,0.000000000000,-0.000023968450,0.000000000000
0.935511000000,0.000010000000,11822.887999999999,-0.085879434752,-0.111211668657,0.320008813087,-0.000824739482,-0.002820919046,-2.352932760320,-0.000001415569,-0.000000880285,0.000000001872,0.000023968338,0.000000073542,-0.000012782287,-0.119873531163,-0.029968382791,8.846666336060,0.001486043911,-2.801356140767,2.785676717758,-1.555145565663,1.571172356606,-0.785190407430,-0.000012783174,0.000000000000,-0.000000000000,0.000000000000,-0.000023968450,0.000000000000
0.943507000000,0.000010000000,11822.895999999999,-0.085877105049,-0.111208581484,0.320039206459,-0.000909620866,-0.002785954937,-2.352968611833,-0.000001415600,-0.000000880315,0.000000001872,0.000023968340,0.000000072681,-0.000012784012,-0.113879859447,-0.026971545070,8.825689315796,0.001450091251,-2.801356140767,2.785616636276,-1.555157486592,1.571172356606,-0.785190407430,-0.000012783174,0.000000000000,-0.000000000000,0.000000000000,-0.000023968450,0.000000000000
0.951509000000,0.000010000000,11822.903999999999,-0.085872596013,-0.111211602197,0.320007222714,-0.000861061684,-0.002789424670,-2.352944789894,-0.000001415592,-0.000000880373,0.000000001848,0.000023968339,0.000000073253,-0.000012783144,-0.113879859447,-0.041955735534,8.846666336060,0.001474059653,-2.801391903554,2.785688638687,-1.555157486592,1.571160435677,-0.785190407430,-0.000012783174,0.000000000000,-0.000000000000,0.000000000000,-0.000023968450,0.000000000000
0.959509000000,0.000010000000,11822.912000000000,-0.085881640418,-0.111207549083,0.320021672480,-0.000867196609,-0.002803463909,-2.353004981361,-0.000001415611,-0.000000880257,0.000000001872,0.000023968341,0.000000072393,-0.000012783149,-0.110883019865,-0.032965220511,8.876635551453,0.001438106992,-2.801356140767,2.785652637482,-1.555157486592,1.571172356606,-0.785214726125,-0.000012783174,0.000000000000,-0.000000000000,0.000000000000,-0.000023968450,0.000000000000
0.967511000000,0.000010000000,11822.920000000000,-0.085861414846,-0.111210680097,0.320017343728,-0.000948595097,-0.002802728926,-2.352968933369,-0.000001415532,-0.000000880516,0.000000001919,0.000023968337,0.000000073826,-0.000012784572,-0.095898829401,-0.038958899677,8.855657577515,0.001498028170,-2.801415745412,2.785676717758,-1.555181328450,1.571196317673,-0.785238567983,-0.000012783174,0.000000000000,-0.000000000000,0.000000000000,-0.000023968450,0.000000000000
0.975511000000,0.000010000000,11822.928000000000,-0.085873299707,-0.111210593018,0.320033194476,-0.000889748851,-0.002777661620,-2.352956644657,-0.000001415602,-0.000000880364,0.000000001848,0.000023968339,0.000000072968,-0.000012783727,-0.116876691580,-0.059936765581,8.861651420593,0.001462075510,-2.801379982625,2.785628557205,-1.555133644735,1.571160435677,-0.785190407430,-0.000012783174,0.000000000000,-0.000000000000,0.000000000000,-0.000023968450,0.000000000000
0.983516000000,0.000010000000,11822.936000000000,-0.085866249077,-0.111214703532,0.320013027755,-0.000880794007,-0.002797696245,-2.352921509832,-0.000001415537,-0.000000880454,0.000000001872,0.000023968335,0.000000074393,-0.000012783429,-0.116876691580,-0.029968382791,8.831682205200,0.001521622064,-2.801391903554,2.785676717758,-1.555157486592,1.571172356606,-0.785214726125,-0.000012783174,0.000000000000,-0.000000000000,0.000000000000,-0.000023968450,0.000000000000
0.991509000000,0.000010000000,11822.944000000000,-0.085870318312,-0.111214755253,0.320015762084,-0.000858858070,-0.002823386254,-2.352897081954,-0.000001415514,-0.000000880402,0.000000001896,0.000023968334,0.000000074682,-0.000012782864,-0.119873531163,-0.023974707350,8.861651420593,0.001533606322,-2.801368061696,2.785664558411,-1.555145565663,1.571184396744,-0.785202328359,-0.000012783174,0.000000000000,-0.000000000000,0.000000000000,-0.000023968450,0.000000000000
0.999505000000,0.000010000000,11822.951999999999,-0.085863751664,-0.111213670334,0.320019977538,-0.000909186528,-0.002785966443,-2.352921073267,-0.000001415548,-0.000000880486,0.000000001872,0.000023968336,0.000000074106,-0.000012784007,-0.125867202878,-0.068927280605,8.882628440857,0.001509637921,-2.801403824483,2.785664558411,-1.555157486592,1.571172356606,-0.785202328359,-0.000012783174,0.000000000000,-0.000000000000,0.000000000000,-0.000023968450,0.000000000000
1.007620000000,0.000010000000,11822.959999999999,-0.085875880240,-0.111209642793,0.320021568062,-0.000872997599,-0.002817608830,-2.352956606589,-0.000001415566,-0.000000880331,0.000000001896,0.000023968339,0.000000073255,-0.000012783149,-0.095898829401,-0.017981030047,8.885625839233,0.001474059653,-2.801368061696,2.785652637482,-1.555145565663,1.571184396744,-0.785202328359,-0.000012783174,0.000000000000,-0.000000000000,0.000000000000,-0.000023968450,0.000000000000
1.015549000000,0.000010000000,11822.967999999999,-0.085875601789,-0.111212648416,0.320015763955,-0.000847260939,-0.002795194613,-2.352968991839,-0.000001415581,-0.000000880334,0.000000001848,0.000023968338,0.000000073542,-0.000012782864,-0.131860882044,-0.023974707350,8.858654022217,0.001486043911,-2.801368061696,2.785664558411,-1.555145565663,1.571160435677,-0.785226647054,-0.000012783174,0.000000000000,-0.000000000000,0.000000000000,-0.000023968450,0.000000000000
1.023552000000,0.000010000000,11822.975999999999,-0.085872614257,-0.111209716430,0.320010865855,-0.000870310573,-0.002851669244,-2.352896890324,-0.000001415520,-0.000000880372,0.000000001943,0.000023968337,0.000000073829,-0.000012782858,-0.125867202878,-0.062933601439,8.789727210999,0.001498028170,-2.801379982625,2.785676717758,-1.555145565663,1.571208357811,-0.785166565572,-0.000012783174,0.000000000000,-0.000000000000,0.000000000000,-0.000023968450,0.000000000000
1.031612000000,0.000010000000,11822.983999999999,-0.085868774081,-0.111209674328,0.320030663317,-0.000934973897,-0.002808414432,-2.352908840736,-0.000001415543,-0.000000880422,0.000000001919,0.000023968338,0.000000073541,-0.000012784292,-0.119873531163,-0.044952575117,8.846666336060,0.001486043911,-2.801379982625,2.785640716553,-1.555169407521,1.571196317673,-0.785166565572,-0.000012783174,0.000000000000,-0.000000000000,0.000000000000,-0.000023968450,0.000000000000
1.039554000000,0.000010000000,11822.992000000000,-0.085877038559,-0.111209635875,0.320010971265,-0.000858683594,-0.002823492306,-2.352944739558,-0.000001415566,-0.000000880316,0.000000001896,0.000023968339,0.000000073254,-0.000012782858,-0.104889340699,-0.041955735534,8.903606414795,0.001474059653,-2.801368061696,2.785676717758,-1.555157486592,1.571184396744,-0.785190407430,-0.000012783174,0.000000000000,-0.000000000000,0.000000000000,-0.000023968450,0.000000000000
1.047620000000,0.000010000000,11823.000000000000,-0.085866068000,-0.111216692769,0.320022495117,-0.000869438722,-0.002769371343,-2.352921475451,-0.000001415562,-0.000000880456,0.000000001824,0.000023968335,0.000000074395,-0.000012783435,-0.107886180282,-0.038958899677,8.858654022217,0.001521622064,-2.801391903554,2.785652637482,-1.555133644735,1.571148395538,-0.785214726125,-0.000012783174,0.000000000000,-0.000000000000,0.000000000000,-0.000023968450,0.000000000000
1.055604000000,0.000010000000,11823.008000000000,-0.085880491912,-0.111212651466,0.320003007995,-0.000804931635,-0.002812640781,-2.352908954287,-0.000001415581,-0.000000880272,0.000000001848,0.000023968338,0.000000073542,-0.000012782001,-0.098895661533,-0.062933601439,8.828685760498,0.001486043911,-2.801356140767,2.785688638687,-1.555145565663,1.571160435677,-0.785166565572,-0.000012783174,0.000000000000,-0.000000000000,0.000000000000,-0.000023968450,0.000000000000
1.063619000000,0.000010000000,11823.016000000000,-0.085882265784,-0.111209690403,0.320003108623,-0.000822376492,-0.002854926820,-2.352908921436,-0.000001415544,-0.000000880249,0.000000001919,0.000023968338,0.000000073542,-0.000012782001,-0.122870370746,-0.053943090141,8.765751838684,0.001486043911,-2.801344219838,2.785688638687,-1.555157486592,1.571196317673,-0.785166565572,-0.000012783174,0.000000000000,-0.000000000000,0.000000000000,-0.000023968450,0.000000000000
1.071621000000,0.000010000000,11823.023999999999,-0.085871875734,-0.111210660974,0.320017921139,-0.000887022800,-0.002811770765,-2.352932732498,-0.000001415556,-0.000000880382,0.000000001895,0.000023968338,0.000000073541,-0.000012783435,-0.122870370746,-0.041955735534,8.891619682312,0.001486043911,-2.801379982625,2.785664558411,-1.555157486592,1.571184396744,-0.785190407430,-0.000012783174,0.000000000000,-0.000000000000,0.000000000000,-0.000023968450,0.000000000000
1.079605000000,0.000010000000,11823.031999999999,-0.085875414425,-0.111210569707,0.320014366939,-0.000889181428,-0.002777879177,-2.352956781170,-0.000001415602,-0.000000880337,0.000000001848,0.000023968339,0.000000072965,-0.000012783715,-0.122870370746,-0.035962060094,8.879631996155,0.001462075510,-2.801368061696,2.785676717758,-1.555193249379,1.571160435677,-0.785190407430,-0.000012783174,0.000000000000,-0.000000000000,0.000000000000,-0.000023968450,0.000000000000
1.087610000000,0.000010000000,11823.039999999999,-0.085874926354,-0.111211701762,0.320006399084,-0.000864393930,-0.002837564281,-2.352933506794,-0.000001415523,-0.000000880343,0.000000001919,0.000023968336,0.000000074106,-0.000012782858,-0.092901989818,-0.056939929724,8.819695472717,0.001509637921,-2.801356140767,2.785688638687,-1.555181328450,1.571196317673,-0.785214726125,-0.000012783174,0.000000000000,-0.000000000000,0.000000000000,-0.000023968450,0.000000000000
1.095604000000,0.000010000000,11823.047999999999,-0.085873563848,-0.111210667092,0.320022699330,-0.000887062856,-0.002811772640,-2.352908868986,-0.000001415556,-0.000000880360,0.000000001896,0.000023968338,0.000000073542,-0.000012783435,-0.104889340699,-0.038958899677,8.879631996155,0.001486043911,-2.801368061696,2.785652637482,-1.555157486592,1.571184396744,-0.785166565572,-0.000012783174,0.000000000000,-0.000000000000,0.000000000000,-0.000023968450,0.000000000000
1.103627000000,0.000010000000,11823.055999999999,-0.085874725200,-0.111209676363,0.320012101596,-0.000878483694,-0.002831748596,-2.352944671183,-0.000001415543,-0.000000880345,0.000000001919,0.000023968338,0.000000073541,-0.000012783144,-0.119873531163,-0.059936765581,8.819695472717,0.001486043911,-2.801368061696,2.785676717758,-1.555169407521,1.571196317673,-0.785202328359,-0.000012783174,0.000000000000,-0.000000000000,0.000000000000,-0.000023968450,0.000000000000
1.111615000000,0.000010000000,11823.064000000000,-0.085871630650,-0.111209711566,0.320011997135,-0.000884351373,-0.002845872717,-2.352896899656,-0.000001415520,-0.000000880385,0.000000001943,0.000023968337,0.000000073828,-0.000012783144,-0.107886180282,-0.053943090141,8.822691917419,0.001498028170,-2.801379982625,2.785676717758,-1.555157486592,1.571208357811,-0.785166565572,-0.000012783174,0.000000000000,-0.000000000000,0.000000000000,-0.000023968450,0.000000000000
1.119635000000,0.000010000000,11823.072000000000,-0.085881532843,-0.111208592760,0.320018129883,-0.000824500131,-0.002821052123,-2.352980560338,-0.000001415600,-0.000000880259,0.000000001872,0.000023968340,0.000000072682,-0.000012782281,-0.125867202878,-0.047949414700,8.855657577515,0.001450091251,-2.801368061696,2.785652637482,-1.555109326039,1.571172356606,-0.785202328359,-0.000012783174,0.000000000000,-0.000000000000,0.000000000000,-0.000023968450,0.000000000000
1.127583000000,0.000010000000,11823.080000000000,-0.085879590971,-0.111210663258,0.319999462736,-0.000830583615,-0.002835085493,-2.352932808863,-0.000001415556,-0.000000880283,0.000000001896,0.000023968338,0.000000073540,-0.000012782287,-0.107886180282,-0.035962060094,8.843669891357,0.001486043911,-2.801356140767,2.785700559616,-1.555169407521,1.571184396744,-0.785190407430,-0.000012783174,0.000000000000,-0.000000000000,0.000000000000,-0.000023968450,0.000000000000
1.135588000000,0.000010000000,11823.088000000000,-0.085875785476,-0.111209675347,0.320006295616,-0.000864439324,-0.002837536820,-2.352944693241,-0.000001415543,-0.000000880332,0.000000001919,0.000023968338,0.000000073540,-0.000012782858,-0.101892501116,-0.044952575117,8.804711341858,0.001486043911,-2.801368061696,2.785688638687,-1.555169407521,1.571196317673,-0.785202328359,-0.000012783174,0.000000000000,-0.000000000000,0.000000000000,-0.000023968450,0.000000000000
1.143563000000,0.000010000000,11823.096000000000,-0.085866883617,-0.111211695721,0.320007116362,-0.000878419127,-0.002831679878,-2.352921079293,-0.000001415522,-0.000000880446,0.000000001919,0.000023968336,0.000000074106,-0.000012783144,-0.095898829401,-0.047949414700,8.804711341858,0.001509637921,-2.801403824483,2.785688638687,-1.555145565663,1.571196317673,-0.785202328359,-0.000012783174,0.000000000000,-0.000000000000,0.000000000000,-0.000023968450,0.000000000000
1.151562000000,0.000010000000,11823.103999999999,-0.085878650363,-0.111208610284,0.320003930480,-0.000830579634,-0.002835085940,-2.352981044885,-0.000001415577,-0.000000880295,0.000000001895,0.000023968339,0.000000072967,-0.000012782287,-0.086908310652,-0.059936765581,8.903606414795,0.001462075510,-2.801379982625,2.785688638687,-1.555133644735,1.571184396744,-0.785214726125,-0.000012783174,0.000000000000,-0.000000000000,0.000000000000,-0.000023968450,0.000000000000
1.159562000000,0.000010000000,11823.111999999999,-0.085864833414,-0.111213669324,0.320014055478,-0.000894904255,-0.002791832573,-2.352885333072,-0.000001415548,-0.000000880472,0.000000001872,0.000023968336,0.000000074106,-0.000012783715,-0.101892501116,-0.056939929724,8.855657577515,0.001509637921,-2.801403824483,2.785676717758,-1.555157486592,1.571172356606,-0.785166565572,-0.000012783174,0.000000000000,-0.000000000000,0.000000000000,-0.000023968450,0.000000000000
1.167570000000,0.000020000000,11823.119999999999,-0.085870561030,-0.111208637072,0.320014157117,-0.000906612831,-0.002820081970,-2.352920891701,-0.000001415554,-0.000000880399,0.000000001919,0.000023968339,0.000000073253,-0.000012783715,-0.116876691580,-0.053943090141,8.849663734436,0.001474059653,-2.801391903554,2.785676717758,-1.555169407521,1.571196317673,-0.785166565572,-0.000012783174,0.000000000000,-0.000000000000,0.000000000000,-0.000023968450,0.000000000000
1.175563000000,0.000070000000,11823.127999999999,-0.085866307023,-0.111214741522,0.320024961829,-0.000915010557,-0.002800223548,-2.352909485731,-0.000001415514,-0.000000880453,0.000000001896,0.000023968334,0.000000074681,-0.000012784007,-0.065930441022,-0.044952575117,8.912597656250,0.001533606322,-2.801368061696,2.785652637482,-1.555181328450,1.571184396744,-0.785214726125,-0.000012783174,0.000000000000,-0.000000000000,0.000000000000,-0.000023968450,0.000000000000
1.183569000000,0.000180000000,11823.135999999999,-0.085875385729,-0.111209716114,0.319989890852,-0.000847671680,-0.002877441506,-2.352921146101,-0.000001415497,-0.000000880337,0.000000001966,0.000023968336,0.000000074105,-0.000012782281,0.461513102055,0.494478315115,8.864647865295,0.001509637921,-2.801368061696,2.785724639893,-1.555181328450,1.571220278740,-0.785202328359,-0.000012783174,0.000000000000,-0.000000000000,0.000000000000,-0.000023968450,0.000000000000
1.191565000000,0.000360000000,11823.144000000000,-0.085865255753,-0.111211781174,0.320030764869,-0.000946534016,-0.002836664419,-2.352873179107,-0.000001415476,-0.000000880466,0.000000001967,0.000023968334,0.000000074681,-0.000012784292,0.872079968452,0.964981973171,8.738780975342,0.001533606322,-2.801368061696,2.785640716553,-1.555181328450,1.571220278740,-0.785178486501,-0.000012783174,0.000000000000,-0.000000000000,0.000000000000,-0.000023968450,0.000000000000
1.199567000000,0.000570000000,11823.152000000000,-0.085874811435,-0.111209708556,0.319994579159,-0.000842189132,-0.002863262562,-2.352920807678,-0.000001415520,-0.000000880344,0.000000001943,0.000023968337,0.000000073827,-0.000012782287,0.734225392342,0.830124199390,8.747771263123,0.001498028170,-2.801379982625,2.785712480545,-1.555157486592,1.571208357811,-0.785190407430,-0.000012783174,0.000000000000,-0.000000000000,0.000000000000,-0.000023968450,0.000000000000
1.207613000000,0.000810000000,11823.160000000000,-0.085863897757,-0.111210643163,0.320009213814,-0.000901306393,-0.002805765852,-2.352932766033,-0.000001415556,-0.000000880484,0.000000001895,0.000023968338,0.000000073540,-0.000012783727,0.107886180282,0.176813468337,8.921587944031,0.001486043911,-2.801428143178,2.785688638687,-1.555145565663,1.571184396744,-0.785190407430,-0.000012783174,0.000000000000,-0.000000000000,0.000000000000,-0.000023968450,0.000000000000
1.215591000000,0.001070000000,11823.168000000000,-0.085866855455,-0.111214710707,0.320023728039,-0.000895145356,-0.002791806564,-2.352909067908,-0.000001415537,-0.000000880446,0.000000001872,0.000023968335,0.000000074394,-0.000012783721,-0.131860882044,-0.065930441022,8.924584388733,0.001521622064,-2.801379982625,2.785652637482,-1.555157486592,1.571172356606,-0.785202328359,-0.000012783174,0.000000000000,-0.000000000000,0.000000000000,-0.000023968450,0.000000000000
1.223599000000,0.001360000000,11823.175999999999,-0.085883705368,-0.111208693420,0.319985469960,-0.000785821523,-0.002886559633,-2.352897042077,-0.000001415531,-0.000000880231,0.000000001943,0.000023968338,0.000000073541,-0.000012781138,0.107886180282,0.194794490933,8.813701629639,0.001486043911,-2.801356140767,2.785724639893,-1.555145565663,1.571208357811,-0.785154644643,-0.000012783174,0.000000000000,-0.000000000000,0.000000000000,-0.000023968450,0.000000000000
1.231604000000,0.001680000000,11823.183999999999,-0.085860989844,-0.111215777988,0.320041260996,-0.000943371487,-0.002788506726,-2.352885017437,-0.000001415503,-0.000000880521,0.000000001896,0.000023968333,0.000000074969,-0.000012784584,0.293690145016,0.344636410475,8.861651420593,0.001545590581,-2.801379982625,2.785616636276,-1.555157486592,1.571184396744,-0.785202328359,-0.000012783174,0.000000000000,-0.000000000000,0.000000000000,-0.000023968450,0.000000000000
1.239604000000,0.002060000000,11823.191999999999,-0.085870615597,-0.111211705763,0.320004957323,-0.000850359623,-0.002843278704,-2.352909149285,-0.000001415523,-0.000000880398,0.000000001919,0.000023968336,0.000000074107,-0.000012782572,0.503468811512,0.599367678165,8.816698074341,0.001509637921,-2.801391903554,2.785688638687,-1.555133644735,1.571196317673,-0.785190407430,-0.000012783174,0.000000000000,-0.000000000000,0.000000000000,-0.000023968450,0.000000000000
1.247585000000,0.002480000000,11823.199999999999,-0.085871121211,-0.111213713112,0.320000387082,-0.000844552170,-0.002829244599,-2.352897220777,-0.000001415525,-0.000000880391,0.000000001895,0.000023968335,0.000000074393,-0.000012782572,0.497475177050,0.680282294750,8.792723655701,0.001521622064,-2.801379982625,2.785700559616,-1.555157486592,1.571184396744,-0.785190407430,-0.000012783174,0.000000000000,-0.000000000000,0.000000000000,-0.000023968450,0.000000000000
1.255535000000,0.002940000000,11823.207999999999,-0.085867667850,-0.111210697474,0.320008350192,-0.000898362300,-0.002840047260,-2.352885320852,-0.000001415510,-0.000000880436,0.000000001943,0.000023968336,0.000000074105,-0.000012783429,0.239747062325,0.374604791403,8.837676048279,0.001509637921,-2.801391903554,2.785688638687,-1.555169407521,1.571208357811,-0.785166565572,-0.000012783174,0.000000000000,-0.000000000000,0.000000000000,-0.000023968450,0.000000000000
1.263510000000,0.003420000000,11823.216000000000,-0.085865005223,-0.111215818391,0.320011998105,-0.000878345824,-0.002831730335,-2.352885528398,-0.000001415480,-0.000000880469,0.000000001919,0.000023968332,0.000000075255,-0.000012783144,0.131860882044,0.191797658801,8.849663734436,0.001557574724,-2.801379982625,2.785676717758,-1.555157486592,1.571196317673,-0.785214726125,-0.000012783174,0.000000000000,-0.000000000000,0.000000000000,-0.000023968450,0.000000000000
1.271497000000,0.003950000000,11823.224000000000,-0.085874556555,-0.111207710631,0.320021565171,-0.000890384833,-0.002859900533,-2.352968897100,-0.000001415518,-0.000000880348,0.000000001967,0.000023968338,0.000000073542,-0.000012783149,0.290693312883,0.209778681397,8.831682205200,0.001486043911,-2.801368061696,2.785652637482,-1.555145565663,1.571220278740,-0.785226647054,-0.000012783174,0.000000000000,-0.000000000000,0.000000000000,-0.000023968450,0.000000000000
1.279494000000,0.004500000000,11823.232000000000,-0.085877755697,-0.111208691388,0.320004032051,-0.000842222959,-0.002863300147,-2.352932738791,-0.000001415531,-0.000000880307,0.000000001943,0.000023968338,0.000000073541,-0.000012782287,0.290693312883,0.206781849265,8.873638153076,0.001486043911,-2.801368061696,2.785688638687,-1.555145565663,1.571208357811,-0.785190407430,-0.000012783174,0.000000000000,-0.000000000000,0.000000000000,-0.000023968450,0.000000000000
1.287493000000,0.005100000000,11823.240000000000,-0.085869260961,-0.111209725693,0.320017918248,-0.000904376569,-0.002854073320,-2.352945333975,-0.000001415497,-0.000000880415,0.000000001966,0.000023968336,0.000000074107,-0.000012783435,0.236750230193,0.179810300469,8.933574676514,0.001509637921,-2.801379982625,2.785664558411,-1.555157486592,1.571220278740,-0.785226647054,-0.000012783174,0.000000000000,-0.000000000000,0.000000000000,-0.000023968450,0.000000000000
1.295492000000,0.005740000000,11823.248000000000,-0.085862686408,-0.111216788798,0.319996636633,-0.000858545980,-0.002823371192,-2.352837447737,-0.000001415493,-0.000000880499,0.000000001895,0.000023968332,0.000000075254,-0.000012782858,0.395582646132,0.368611127138,8.846666336060,0.001557574724,-2.801403824483,2.785712480545,-1.555157486592,1.571184396744,-0.785166565572,-0.000012783174,0.000000000000,-0.000000000000,0.000000000000,-0.000023968450,0.000000000000
1.303498000000,0.006430000000,11823.255999999999,-0.085865176620,-0.111211733379,0.320018946963,-0.000912627736,-0.002834187862,-2.352909045303,-0.000001415499,-0.000000880467,0.000000001943,0.000023968335,0.000000074394,-0.000012783721,0.530440390110,0.590377151966,8.756761550903,0.001521622064,-2.801391903554,2.785664558411,-1.555157486592,1.571208357811,-0.785202328359,-0.000012783174,0.000000000000,-0.000000000000,0.000000000000,-0.000023968450,0.000000000000
1.311491000000,0.007140000000,11823.263999999999,-0.085869415827,-0.111208708575,0.319991842922,-0.000875733825,-0.002865807938,-2.352945142968,-0.000001415507,-0.000000880413,0.000000001966,0.000023968337,0.000000073826,-0.000012782852,0.209778681397,0.440535247326,8.837676048279,0.001498028170,-2.801403824483,2.785724639893,-1.555169407521,1.571220278740,-0.785214726125,-0.000012783174,0.000000000000,-0.000000000000,0.000000000000,-0.000023968450,0.000000000000
1.319490000000,0.007900000000,11823.271999999999,-0.085867251110,-0.111208775957,0.320011890661,-0.000901711939,-0.002888142699,-2.352897093511,-0.000001415461,-0.000000880441,0.000000002014,0.000023968335,0.000000074394,-0.000012783144,0.131860882044,0.326655387878,8.888622283936,0.001521622064,-2.801391903554,2.785676717758,-1.555145565663,1.571244239807,-0.785190407430,-0.000012783174,0.000000000000,-0.000000000000,0.000000000000,-0.000023968450,0.000000000000
1.327587000000,0.008690000000,11823.279999999999,-0.085872252892,-0.111210658672,0.320006089563,-0.000858660155,-0.002823431901,-2.352920846276,-0.000001415556,-0.000000880377,0.000000001895,0.000023968338,0.000000073541,-0.000012782858,0.374604791403,0.404573172331,8.858654022217,0.001486043911,-2.801391903554,2.785688638687,-1.555145565663,1.571184396744,-0.785178486501,-0.000012783174,0.000000000000,-0.000000000000,0.000000000000,-0.000023968450,0.000000000000
1.335589000000,0.009530000000,11823.287999999999,-0.085873939706,-0.111212680712,0.320007531313,-0.000872657555,-0.002817712583,-2.352921132960,-0.000001415535,-0.000000880355,0.000000001896,0.000023968336,0.000000074105,-0.000012783144,0.233753383160,0.269715458155,8.900609970093,0.001509637921,-2.801356140767,2.785688638687,-1.555193249379,1.571184396744,-0.785202328359,-0.000012783174,0.000000000000,-0.000000000000,0.000000000000,-0.000023968450,0.000000000000
1.343582000000,0.010390000000,11823.296000000000,-0.085868810960,-0.111212759820,0.320001516455,-0.000870216925,-0.002851671448,-2.352885216962,-0.000001415489,-0.000000880421,0.000000001943,0.000023968334,0.000000074680,-0.000012782858,0.290693312883,0.347633242607,8.822691917419,0.001533606322,-2.801379982625,2.785700559616,-1.555169407521,1.571208357811,-0.785190407430,-0.000012783174,0.000000000000,-0.000000000000,0.000000000000,-0.000023968450,0.000000000000
1.351557000000,0.011290000000,11823.304000000000,-0.085867376679,-0.111211779245,0.320019152996,-0.000918445576,-0.002848240355,-2.352873223990,-0.000001415476,-0.000000880439,0.000000001966,0.000023968334,0.000000074680,-0.000012783721,0.554415106773,0.497475177050,8.702818870544,0.001533606322,-2.801368061696,2.785664558411,-1.555181328450,1.571220278740,-0.785178486501,-0.000012783174,0.000000000000,-0.000000000000,0.000000000000,-0.000023968450,0.000000000000
1.359517000000,0.012240000000,11823.312000000000,-0.085866803826,-0.111209740663,0.320016668909,-0.000952645722,-0.002850734307,-2.352909085224,-0.000001415474,-0.000000880446,0.000000001990,0.000023968335,0.000000074391,-0.000012784298,0.248737588525,0.401576340199,8.888622283936,0.001521622064,-2.801368061696,2.785676717758,-1.555217568074,1.571232318878,-0.785202328359,-0.000012783174,0.000000000000,-0.000000000000,0.000000000000,-0.000023968450,0.000000000000
1.367495000000,0.013220000000,11823.320000000000,-0.085878536902,-0.111208686786,0.320005266823,-0.000856241444,-0.002857547941,-2.352957076722,-0.000001415531,-0.000000880297,0.000000001943,0.000023968338,0.000000073541,-0.000012782572,0.278705954552,0.368611127138,8.954552650452,0.001486043911,-2.801356140767,2.785688638687,-1.555169407521,1.571208357811,-0.785214726125,-0.000012783174,0.000000000000,-0.000000000000,0.000000000000,-0.000023968450,0.000000000000
1.375488000000,0.014250000000,11823.328000000000,-0.085855516789,-0.111213778032,0.320009108300,-0.000912802037,-0.002834001700,-2.352909419677,-0.000001415478,-0.000000880591,0.000000001943,0.000023968333,0.000000074967,-0.000012783727,0.161829262972,0.212775528431,8.894616127014,0.001545590581,-2.801440064107,2.785688638687,-1.555133644735,1.571208357811,-0.785226647054,-0.000012783174,0.000000000000,-0.000000000000,0.000000000000,-0.000023968450,0.000000000000
1.383488000000,0.015310000000,11823.335999999999,-0.085878581754,-0.111211717671,0.320008914640,-0.000836308067,-0.002849195934,-2.352945387026,-0.000001415523,-0.000000880296,0.000000001919,0.000023968336,0.000000074107,-0.000012782287,0.392585813999,0.452522575855,8.840673446655,0.001509637921,-2.801344219838,2.785676717758,-1.555157486592,1.571196317673,-0.785226647054,-0.000012783174,0.000000000000,-0.000000000000,0.000000000000,-0.000023968450,0.000000000000
1.391481000000,0.016410000000,11823.343999999999,-0.085870339528,-0.111210708507,0.320011997135,-0.000884288598,-0.002845908575,-2.352921052672,-0.000001415510,-0.000000880401,0.000000001943,0.000023968336,0.000000074106,-0.000012783144,0.212775528431,0.353626936674,8.888622283936,0.001509637921,-2.801379982625,2.785676717758,-1.555157486592,1.571208357811,-0.785202328359,-0.000012783174,0.000000000000,-0.000000000000,0.000000000000,-0.000023968450,0.000000000000
1.399495000000,0.017540000000,11823.351999999999,-0.085881561108,-0.111209689137,0.319997199147,-0.000808309604,-0.002860708671,-2.352920854351,-0.000001415544,-0.000000880258,0.000000001919,0.000023968338,0.000000073542,-0.000012781715,0.278705954552,0.494478315115,8.864647865295,0.001486043911,-2.801356140767,2.785700559616,-1.555145565663,1.571196317673,-0.785178486501,-0.000012783174,0.000000000000,-0.000000000000,0.000000000000,-0.000023968450,0.000000000000
1.407482000000,0.018710000000,11823.359999999999,-0.085863157699,-0.111209708191,0.320009273391,-0.000918151209,-0.002848281182,-2.352909137513,-0.000001415497,-0.000000880493,0.000000001966,0.000023968336,0.000000074105,-0.000012783715,0.092901989818,0.260724931955,8.906603813171,0.001509637921,-2.801415745412,2.785688638687,-1.555157486592,1.571220278740,-0.785190407430,-0.000012783174,0.000000000000,-0.000000000000,0.000000000000,-0.000023968450,0.000000000000
1.415485000000,0.019910000000,11823.367999999999,-0.085868978752,-0.111210705924,0.320024959911,-0.000926691957,-0.002828452679,-2.352933424430,-0.000001415510,-0.000000880419,0.000000001943,0.000023968336,0.000000074106,-0.000012784007,0.308674335480,0.308674335480,8.867644309998,0.001509637921,-2.801368061696,2.785652637482,-1.555181328450,1.571208357811,-0.785214726125,-0.000012783174,0.000000000000,-0.000000000000,0.000000000000,-0.000023968450,0.000000000000
1.423484000000,0.021140000000,11823.376000000000,-0.085860561902,-0.111210728696,0.320017445339,-0.000960265694,-0.002830917686,-2.352897158665,-0.000001415486,-0.000000880526,0.000000001966,0.000023968335,0.000000074391,-0.000012784572,0.302680671215,0.365614265203,8.780735969543,0.001521622064,-2.801403824483,2.785676717758,-1.555193249379,1.571220278740,-0.785190407430,-0.000012783174,0.000000000000,-0.000000000000,0.000000000000,-0.000023968450,0.000000000000
1.431559000000,0.022430000000,11823.384000000000,-0.085870593798,-0.111212743307,0.320021567113,-0.000878698946,-0.002831656061,-2.352921427452,-0.000001415512,-0.000000880398,0.000000001919,0.000023968335,0.000000074395,-0.000012783149,0.233753383160,0.296687006950,8.783733367920,0.001521622064,-2.801368061696,2.785652637482,-1.555145565663,1.571196317673,-0.785214726125,-0.000012783174,0.000000000000,-0.000000000000,0.000000000000,-0.000023968450,0.000000000000
1.439522000000,0.023730000000,11823.392000000000,-0.085866166391,-0.111209760779,0.320017813742,-0.000910199681,-0.002868235572,-2.352933325110,-0.000001415474,-0.000000880455,0.000000001990,0.000023968335,0.000000074394,-0.000012783435,0.227759718895,0.314668029547,8.903606414795,0.001521622064,-2.801391903554,2.785664558411,-1.555145565663,1.571232318878,-0.785226647054,-0.000012783174,0.000000000000,-0.000000000000,0.000000000000,-0.000023968450,0.000000000000
1.447509000000,0.025070000000,11823.400000000000,-0.085865960921,-0.111210744980,0.320020180748,-0.000932439424,-0.002842479348,-2.352933368019,-0.000001415487,-0.000000880457,0.000000001966,0.000023968335,0.000000074393,-0.000012784007,0.314668029547,0.431544721127,8.795720100403,0.001521622064,-2.801379982625,2.785664558411,-1.555181328450,1.571220278740,-0.785226647054,-0.000012783174,0.000000000000,-0.000000000000,0.000000000000,-0.000023968450,0.000000000000
1.455484000000,0.026460000000,11823.407999999999,-0.085875763077,-0.111212750127,0.320001770380,-0.000808233101,-0.002860702584,-2.352897155899,-0.000001415512,-0.000000880332,0.000000001919,0.000023968335,0.000000074395,-0.000012781715,0.323658525944,0.500472009182,8.876635551453,0.001521622064,-2.801368061696,2.785688638687,-1.555121723806,1.571196317673,-0.785190407430,-0.000012783174,0.000000000000,-0.000000000000,0.000000000000,-0.000023968450,0.000000000000
1.463477000000,0.027880000000,11823.415999999999,-0.085863760769,-0.111214745753,0.320023623579,-0.000900997696,-0.002805943522,-2.352873217293,0.000001427841,-0.000003075708,0.000000001895,0.000023968334,0.000000074682,0.000012782626,0.323658525944,0.287696480751,8.828685760498,0.001533606322,-2.801391903554,2.785652637482,-1.555145565663,1.571184396744,-0.785178486501,0.000012783174,0.000000000000,-0.000000000000,0.000000000000,-0.000023968450,0.000000000000
1.471486000000,0.029340000000,11823.423999999999,-0.085867107313,-0.111215860424,0.320016994915,-0.000884476358,-0.002845841249,-2.352873517085,0.000001427926,-0.000003075751,0.000000001943,0.000023968331,0.000000075543,0.000012783198,0.230756551027,0.098895661533,8.804711341858,0.001569558983,-2.801356140767,2.785664558411,-1.555169407521,1.571208357811,-0.785214726125,0.000012783174,0.000000000000,-0.000000000000,0.000000000000,-0.000023968450,0.000000000000
1.479482000000,0.030840000000,11823.431999999999,-0.085859226052,-0.111212741488,0.320017446312,-0.000954410175,-0.002816913112,-2.352921429022,0.000001427815,-0.000003075650,0.000000001943,0.000023968334,0.000000074679,0.000012781775,0.410566866398,0.407570004463,8.801713943481,0.001533606322,-2.801403824483,2.785676717758,-1.555193249379,1.571208357811,-0.785226647054,0.000012783174,0.000000000000,-0.000000000000,0.000000000000,-0.000023968450,0.000000000000
1.487478000000,0.032390000000,11823.439999999999,-0.085860817370,-0.111213903442,0.319997866562,-0.000901603628,-0.002888107585,-2.352837266768,0.000218942916,-0.000171004449,0.000000002014,0.000023968331,0.000000075828,0.001968608733,0.428547888994,0.647317051888,8.837676048279,0.001581543242,-2.801391903554,2.785712480545,-1.555181328450,1.571244239807,-0.785190407430,0.001968608703,0.000000000000,-0.000000000000,0.000000000000,-0.000023968450,0.000000000000
1.495478000000,0.033990000000,11823.448000000000,-0.085852133146,-0.111224095651,0.320015553161,-0.000870272513,-0.002851549865,-2.352765206878,0.000568725167,-0.000440963164,0.000000001943,0.000023968324,0.000000077842,0.005113269512,0.371607959270,0.641323387623,8.870641708374,0.001665432821,-2.801391903554,2.785664558411,-1.555121723806,1.571208357811,-0.785202328359,0.005113269202,0.000000000000,-0.000000000000,0.000000000000,-0.000023968450,0.000000000000
1.503477000000,0.035610000000,11823.456000000000,-0.085862035837,-0.111224053679,0.319993655770,-0.000822078301,-0.002854869063,-2.352753490976,0.000278678485,-0.000217105595,0.000000001919,0.000023968325,0.000000077553,0.002505503138,0.233753383160,0.335645884275,8.837676048279,0.001653448562,-2.801356140767,2.785712480545,-1.555169407521,1.571196317673,-0.785178486501,0.002505501965,0.000000000000,-0.000000000000,0.000000000000,-0.000023968450,0.000000000000
1.511476000000,0.037270000000,11823.464000000000,-0.085848481191,-0.111216947156,0.320020937915,-0.000952797476,-0.002850480946,-2.352789351717,0.000181984615,-0.000142447349,0.000000001990,0.000023968329,0.000000076404,0.001636245089,0.179810300469,-0.000000000000,8.870641708374,0.001605511643,-2.801428143178,2.785664558411,-1.555145565663,1.571232318878,-0.785166565572,0.001636246219,0.000000000000,-0.000000000000,0.000000000000,-0.000023968450,0.000000000000
1.519482000000,0.038980000000,11823.472000000000,-0.085865618266,-0.111219035373,0.319997196211,-0.000825524404,-0.002903123217,-2.352813614626,0.000135070910,-0.000106253427,0.000000001990,0.000023968327,0.000000076979,0.001214402906,0.392585813999,0.311671197414,8.756761550903,0.001629480161,-2.801356140767,2.785700559616,-1.555145565663,1.571232318878,-0.785214726125,0.001214401447,0.000000000000,-0.000000000000,0.000000000000,-0.000023968450,0.000000000000
1.527508000000,0.040730000000,11823.480000000000,-0.085854062404,-0.111223036000,0.320039101090,-0.000920935541,-0.002814145477,-2.352789120518,0.000106640132,-0.000084289651,0.000000001919,0.000023968326,0.000000077268,0.000958737195,0.554415106773,0.716244339943,8.732787132263,0.001641464303,-2.801368061696,2.785616636276,-1.555145565663,1.571196317673,-0.785202328359,0.000958738034,0.000000000000,-0.000000000000,0.000000000000,-0.000023968450,0.000000000000
1.535480000000,0.042510000000,11823.487999999999,-0.085859456163,-0.111221994152,0.320018127153,-0.000892615349,-0.002825814242,-2.352777380430,0.000088156093,-0.000070026586,0.000000001919,0.000023968327,0.000000076979,0.000792556472,0.344636410475,0.611355006695,8.840673446655,0.001629480161,-2.801356140767,2.785664558411,-1.555181328450,1.571196317673,-0.785178486501,0.000792556733,0.000000000000,-0.000000000000,0.000000000000,-0.000023968450,0.000000000000
1.543474000000,0.044330000000,11823.495999999999,-0.085859051358,-0.111226043170,0.320008709617,-0.000824465652,-0.002820866829,-2.352765346015,0.000075362955,-0.000060148306,0.000000001872,0.000023968325,0.000000077555,0.000677509073,0.077917799354,0.146845072508,8.888622283936,0.001653448562,-2.801368061696,2.785676717758,-1.555133644735,1.571172356606,-0.785190407430,0.000677508186,0.000000000000,-0.000000000000,0.000000000000,-0.000023968450,0.000000000000
1.551470000000,0.046170000000,11823.503999999999,-0.085858585915,-0.111224090654,0.320005266823,-0.000855967236,-0.002857500537,-2.352765290203,0.000065409076,-0.000052465173,0.000000001943,0.000023968324,0.000000077840,0.000588026557,0.161829262972,0.257728099823,8.888622283936,0.001665432821,-2.801356140767,2.785688638687,-1.555169407521,1.571208357811,-0.785202328359,0.000588025956,0.000000000000,-0.000000000000,0.000000000000,-0.000023968450,0.000000000000
1.559475000000,0.048050000000,11823.511999999999,-0.085858350393,-0.111217992175,0.320011995169,-0.000895740459,-0.002874128310,-2.352825563008,0.000058296803,-0.000046977325,0.000000001990,0.000023968328,0.000000076692,0.000524110132,0.305677503347,0.338642746210,8.855657577515,0.001617495902,-2.801379982625,2.785676717758,-1.555157486592,1.571232318878,-0.785214726125,0.000524110103,0.000000000000,-0.000000000000,0.000000000000,-0.000023968450,0.000000000000
1.567472000000,0.049960000000,11823.519999999999,-0.085860917796,-0.111219986858,0.320020434864,-0.000870368802,-0.002851604447,-2.352813131870,0.000052610871,-0.000042588371,0.000000001943,0.000023968328,0.000000076693,0.000472977718,0.251734405756,0.194794490933,8.858654022217,0.001617495902,-2.801368061696,2.785652637482,-1.555133644735,1.571208357811,-0.785202328359,0.000472977408,0.000000000000,-0.000000000000,0.000000000000,-0.000023968450,0.000000000000
1.575474000000,0.051900000000,11823.528000000000,-0.085849255480,-0.111222059243,0.320027117899,-0.000960340382,-0.002830851310,-2.352777209395,0.000046924838,-0.000038193151,0.000000001966,0.000023968325,0.000000077552,0.000421843309,0.158832430840,0.104889340699,8.849663734436,0.001653448562,-2.801379982625,2.785652637482,-1.555193249379,1.571220278740,-0.785202328359,0.000421844714,0.000000000000,-0.000000000000,0.000000000000,-0.000023968450,0.000000000000
1.583485000000,0.053880000000,11823.536000000000,-0.085861325275,-0.111219000785,0.320033500134,-0.000918556891,-0.002848225356,-2.352837419737,0.000044080013,-0.000036003082,0.000000001967,0.000023968328,0.000000076693,0.000396277814,0.344636410475,0.407570004463,8.702818870544,0.001617495902,-2.801344219838,2.785628557205,-1.555169407521,1.571220278740,-0.785226647054,0.000396278367,0.000000000000,-0.000000000000,0.000000000000,-0.000023968450,0.000000000000
1.591476000000,0.055910000000,11823.544000000000,-0.085861383832,-0.111220070574,0.320007573471,-0.000839529768,-0.002897335644,-2.352813488166,0.000031284777,-0.000026124877,0.000000001990,0.000023968326,0.000000077268,0.000281230992,0.326655387878,0.545424580574,8.789727210999,0.001641464303,-2.801368061696,2.785676717758,-1.555121723806,1.571232318878,-0.785226647054,0.000281229819,0.000000000000,-0.000000000000,0.000000000000,-0.000023968450,0.000000000000
1.599475000000,0.057970000000,11823.552000000000,-0.085852309842,-0.111217903669,0.320031586518,-0.000954633537,-0.002816787462,-2.352837094383,0.000031284073,-0.000026122326,0.000000001943,0.000023968330,0.000000076117,0.000281228414,0.395582646132,0.494478315115,8.918590545654,0.001593527501,-2.801403824483,2.785640716553,-1.555157486592,1.571208357811,-0.785202328359,0.000281229819,0.000000000000,-0.000000000000,0.000000000000,-0.000023968450,0.000000000000
1.607477000000,0.060090000000,11823.559999999999,-0.085866157405,-0.111218956535,0.320008810222,-0.000842010848,-0.002863328580,-2.352837568158,0.000031284393,-0.000026126220,0.000000001943,0.000023968329,0.000000076405,0.000281230706,0.344636410475,0.269715458155,8.843669891357,0.001605511643,-2.801356140767,2.785676717758,-1.555145565663,1.571208357811,-0.785214726125,0.000281229819,0.000000000000,-0.000000000000,0.000000000000,-0.000023968450,0.000000000000
1.615474000000,0.062240000000,11823.567999999999,-0.085863111616,-0.111222010498,0.320020642756,-0.000864500152,-0.002837469946,-2.352813579615,0.000031285299,-0.000026125363,0.000000001919,0.000023968327,0.000000076980,0.000281230129,0.377601623535,0.374604791403,8.816698074341,0.001629480161,-2.801344219838,2.785652637482,-1.555157486592,1.571196317673,-0.785214726125,0.000281229819,0.000000000000,-0.000000000000,0.000000000000,-0.000023968450,0.000000000000
1.623467000000,0.064440000000,11823.575999999999,-0.085854630819,-0.111215960223,0.320022486460,-0.000972632664,-0.002858829884,-2.352813226785,0.000031283550,-0.000026122978,0.000000002014,0.000023968329,0.000000076402,0.000281228403,0.395582646132,0.398579508066,8.774743080139,0.001605511643,-2.801379982625,2.785664558411,-1.555205647145,1.571244239807,-0.785190407430,0.000281229819,0.000000000000,-0.000000000000,0.000000000000,-0.000023968450,0.000000000000
1.631500000000,0.066680000000,11823.583999999999,-0.085871908875,-0.111216955386,0.320012675634,-0.000834065760,-0.002883111453,-2.352861436975,0.000031283806,-0.000026127838,0.000000001967,0.000023968330,0.000000076119,0.000281230986,0.401576340199,0.392585813999,8.864647865295,0.001593527501,-2.801332298909,2.785664558411,-1.555145565663,1.571220278740,-0.785226647054,0.000281229819,0.000000000000,-0.000000000000,0.000000000000,-0.000023968450,0.000000000000
1.639469000000,0.068960000000,11823.591999999999,-0.085857694457,-0.111220999986,0.320018022712,-0.000898428085,-0.002840003589,-2.352801197675,0.000031285015,-0.000026123840,0.000000001943,0.000023968327,0.000000076979,0.000281229557,0.413563698530,0.335645884275,8.804711341858,0.001629480161,-2.801368061696,2.785664558411,-1.555169407521,1.571208357811,-0.785202328359,0.000281229819,0.000000000000,-0.000000000000,0.000000000000,-0.000023968450,0.000000000000
1.647465000000,0.071260000000,11823.600000000000,-0.085859052359,-0.111217949672,0.320001411973,-0.000875854760,-0.002865707620,-2.352837606004,0.000031284109,-0.000026124222,0.000000001966,0.000023968329,0.000000076404,0.000281230134,0.386592149734,0.302680671215,8.828685760498,0.001605511643,-2.801391903554,2.785700559616,-1.555157486592,1.571220278740,-0.785214726125,0.000281229819,0.000000000000,-0.000000000000,0.000000000000,-0.000023968450,0.000000000000
1.655473000000,0.073610000000,11823.608000000000,-0.085851857630,-0.111217884733,0.320011536840,-0.000940261108,-0.002822673487,-2.352861520578,0.000031284067,-0.000026122199,0.000000001943,0.000023968330,0.000000076115,0.000281228706,0.215772360563,0.284699648619,8.855657577515,0.001593527501,-2.801415745412,2.785688638687,-1.555181328450,1.571208357811,-0.785226647054,0.000281229819,0.000000000000,-0.000000000000,0.000000000000,-0.000023968450,0.000000000000
1.663466000000,0.075970000000,11823.616000000000,-0.085866157405,-0.111218956535,0.320008810222,-0.000842041222,-0.002863303237,-2.352813249483,0.000031284393,-0.000026126220,0.000000001943,0.000023968329,0.000000076405,0.000281230706,0.074920959771,0.269715458155,8.774743080139,0.001605511643,-2.801356140767,2.785676717758,-1.555145565663,1.571208357811,-0.785190407430,0.000281229819,0.000000000000,-0.000000000000,0.000000000000,-0.000023968450,0.000000000000
1.671469000000,0.078360000000,11823.624000000000,-0.085851844937,-0.111223016518,0.320018947933,-0.000906555204,-0.002820011874,-2.352813536714,0.000031285606,-0.000026122195,0.000000001919,0.000023968326,0.000000077266,0.000281229272,-0.032965220511,0.092901989818,8.855657577515,0.001641464303,-2.801391903554,2.785664558411,-1.555157486592,1.571196317673,-0.785226647054,0.000281229819,0.000000000000,-0.000000000000,0.000000000000,-0.000023968450,0.000000000000
1.679468000000,0.080770000000,11823.632000000000,-0.085853885444,-0.111220995353,0.320024856418,-0.000926505656,-0.002828402521,-2.352801174744,0.000031285013,-0.000026122769,0.000000001943,0.000023968327,0.000000076979,0.000281228986,0.089905150235,0.173816621304,8.918590545654,0.001629480161,-2.801379982625,2.785652637482,-1.555169407521,1.571208357811,-0.785202328359,0.000281229819,0.000000000000,-0.000000000000,0.000000000000,-0.000023968450,0.000000000000
1.687474000000,0.083250000000,11823.639999999999,-0.085855227815,-0.111217005139,0.320024853456,-0.000943958203,-0.002870672144,-2.352813114027,0.000031277538,-0.000024145050,0.000000000000,0.000000000000,0.000000000000,0.000281229819,0.389588981867,0.488484650850,8.780735969543,0.001617495902,-2.801379982625,2.785652637482,-1.555169407521,1.571244239807,-0.785202328359,0.000281229819,0.000000000000,-0.000000000000,0.000000000000,0.000000000000,0.000000000000
