Fabs3007/Masterarbeit_Abgabe/Messungen/Roboter/Bergfahrt mit schnellerer Schiene (0.5 statt 0.3)/richard_capture_2023-08-28_16-09-47_ground_truth.csv
Rail.Time,Rail.Position,Bot.Time,Bot.TCP_pose_0,Bot.TCP_pose_1,Bot.TCP_pose_2,Bot.TCP_pose_3,Bot.TCP_pose_4,Bot.TCP_pose_5,Bot.TCP_speed_0,Bot.TCP_speed_1,Bot.TCP_speed_2,Bot.TCP_speed_3,Bot.TCP_speed_4,Bot.TCP_speed_5,Bot.actual_tool_accelerometer_0,Bot.actual_tool_accelerometer_1,Bot.actual_tool_accelerometer_2,Bot.actual_tool_accelerometer_3,Bot.actual_tool_accelerometer_4,Bot.actual_tool_accelerometer_5,Bot.actual_q_0,Bot.actual_q_1,Bot.actual_q_2,Bot.actual_q_3,Bot.actual_q_4,Bot.actual_q_5,Bot.actual_dq_0,Bot.actual_dq_1,Bot.actual_dq_2,Bot.actual_dq_3,Bot.actual_dq_4,Bot.actual_dq_5
0.004144000000,0.000010000000,11227.751999999999,-0.085848635027,-0.111123519707,0.318469875219,-0.001885310470,-0.006955008409,-2.352856106061,-0.000002841022,0.000002194836,0.000000000000,0.000000000000,0.000000000000,-0.000025566347,-0.086908310652,-0.002996838419,8.837676048279,0.003666423960,-2.800325218831,2.789511442184,-1.559555355703,1.574491262436,-0.787289444600,-0.000025566347,0.000000000000,-0.000000000000,0.000000000000,0.000000000000,0.000000000000
0.006377000000,0.000010000000,11227.760000000000,-0.085845667837,-0.111125676072,0.318485226313,-0.001910711835,-0.006977586088,-2.352831867241,-0.000002841078,0.000002194760,0.000000000000,0.000000000000,0.000000000000,-0.000025566347,-0.071924120188,-0.047949414700,8.858654022217,0.003714360762,-2.800301376973,2.789475679398,-1.559555355703,1.574515223503,-0.787313286458,-0.000025566347,0.000000000000,-0.000000000000,0.000000000000,0.000000000000,0.000000000000
0.014385000000,0.000010000000,11227.768000000000,-0.085845285539,-0.111128592260,0.318480466798,-0.001887509977,-0.006921124354,-2.352867837977,-0.000002841152,0.000002194750,0.000000000000,0.000000000000,0.000000000000,-0.000025566347,-0.086908310652,-0.029968382791,8.831682205200,0.003702376503,-2.800313297902,2.789487600327,-1.559555355703,1.574467301369,-0.787337128316,-0.000025566347,0.000000000000,-0.000000000000,0.000000000000,0.000000000000,0.000000000000
0.022442000000,0.000010000000,11227.776000000000,-0.085848085197,-0.111125636327,0.318474748783,-0.001890842052,-0.006969176138,-2.352855873777,-0.000002841077,0.000002194822,0.000000000000,0.000000000000,0.000000000000,-0.000025566347,-0.119873531163,-0.038958899677,8.906603813171,0.003702376503,-2.800301376973,2.789499521255,-1.559567276631,1.574503183365,-0.787325207387,-0.000025566347,0.000000000000,-0.000000000000,0.000000000000,0.000000000000,0.000000000000
0.030369000000,0.000010000000,11227.784000000000,-0.085839432786,-0.111127634100,0.318486062351,-0.001913159739,-0.006943514351,-2.352831892135,-0.000002841128,0.000002194601,0.000000000000,0.000000000000,0.000000000000,-0.000025566347,-0.101892501116,-0.014984191395,8.819695472717,0.003714360762,-2.800337139760,2.789475679398,-1.559531513845,1.574491262436,-0.787313286458,-0.000025566347,0.000000000000,-0.000000000000,0.000000000000,0.000000000000,0.000000000000
0.038365000000,0.000010000000,11227.791999999999,-0.085840944470,-0.111127678601,0.318475677786,-0.001904823175,-0.006963330137,-2.352819957455,-0.000002841129,0.000002194639,0.000000000000,0.000000000000,0.000000000000,-0.000025566347,-0.074920959771,-0.032965220511,8.849663734436,0.003726345021,-2.800325218831,2.789499521255,-1.559555355703,1.574503183365,-0.787313286458,-0.000025566347,0.000000000000,-0.000000000000,0.000000000000,0.000000000000,0.000000000000
0.046440000000,0.000010000000,11227.799999999999,-0.085852350435,-0.111127589773,0.318471366067,-0.001831383967,-0.006944176321,-2.352867971432,-0.000002841127,0.000002194931,0.000000000000,0.000000000000,0.000000000000,-0.000025566347,-0.080914631486,-0.023974707350,8.834679603577,0.003690392245,-2.800301376973,2.789499521255,-1.559531513845,1.574467301369,-0.787325207387,-0.000025566347,0.000000000000,-0.000000000000,0.000000000000,0.000000000000,0.000000000000
0.054367000000,0.000010000000,11227.807999999999,-0.085846077991,-0.111127702659,0.318485331912,-0.001904779759,-0.006963461592,-2.352843765564,-0.000002841129,0.000002194771,0.000000000000,0.000000000000,0.000000000000,-0.000025566347,-0.101892501116,-0.029968382791,8.852660179138,0.003726345021,-2.800289456044,2.789475679398,-1.559567276631,1.574503183365,-0.787337128316,-0.000025566347,0.000000000000,-0.000000000000,0.000000000000,0.000000000000,0.000000000000
0.062363000000,0.000010000000,11227.815999999999,-0.085856051768,-0.111122578010,0.318470176385,-0.001834243759,-0.006992463070,-2.352879935083,-0.000012784493,0.000009877615,0.000000000000,0.000000000000,0.000000000000,-0.000115048562,-0.077917799354,-0.020977867767,8.807707786560,0.003666423960,-2.800301376973,2.789499521255,-1.559519116079,1.574503183365,-0.787313286458,-0.000115048562,0.000000000000,-0.000000000000,0.000000000000,0.000000000000,0.000000000000
0.070438000000,0.000010000000,11227.823999999999,-0.085837825723,-0.111124606862,0.318489449046,-0.001966984726,-0.006954443056,-2.352831870150,-0.000012784726,0.000009875518,0.000000000000,0.000000000000,0.000000000000,-0.000115048562,-0.101892501116,0.011987353675,8.831682205200,0.003702376503,-2.800337139760,2.789475679398,-1.559567276631,1.574515223503,-0.787301365529,-0.000115048562,0.000000000000,-0.000000000000,0.000000000000,0.000000000000,0.000000000000
0.078371000000,0.000010000000,11227.832000000000,-0.085843318472,-0.111125657436,0.318469866763,-0.001896559800,-0.006983348280,-2.352855791430,-0.000012784847,0.000009876150,0.000000000000,0.000000000000,0.000000000000,-0.000115048562,-0.068927280605,-0.038958899677,8.900609970093,0.003714360762,-2.800325218831,2.789511442184,-1.559555355703,1.574515223503,-0.787337128316,-0.000115048562,0.000000000000,-0.000000000000,0.000000000000,0.000000000000,0.000000000000
0.086367000000,0.000010000000,11227.840000000000,-0.085846900670,-0.111125590129,0.318473418472,-0.001871057640,-0.006960856914,-2.352867876478,-0.000012784839,0.000009876562,0.000000000000,0.000000000000,0.000000000000,-0.000115048562,-0.089905150235,-0.035962060094,8.864647865295,0.003690392245,-2.800325218831,2.789499521255,-1.559531513845,1.574491262436,-0.787325207387,-0.000115048562,0.000000000000,-0.000000000000,0.000000000000,0.000000000000,0.000000000000
0.094360000000,0.000010000000,11227.848000000000,-0.085845523895,-0.111123516169,0.318487295487,-0.001927297853,-0.006937881349,-2.352915593456,-0.000134948559,0.000104250928,0.000000000000,0.000000000000,0.000000000000,-0.001214401447,-0.071924120188,-0.077917799354,8.825689315796,0.003666423960,-2.800325218831,2.789475679398,-1.559555355703,1.574491262436,-0.787349049245,-0.001214401447,0.000000000000,-0.000000000000,0.000000000000,0.000000000000,0.000000000000
0.102356000000,0.000010000000,11227.856000000000,-0.085852610021,-0.111114190660,0.318478818335,-0.001936636767,-0.006917591240,-2.352999728988,-0.001195970024,0.000924068721,0.000000000000,0.000000000000,0.000000000000,-0.010763431899,-0.071924120188,-0.236750230193,8.822691917419,0.003546581604,-2.800361458455,2.789499521255,-1.559555355703,1.574479222298,-0.787313286458,-0.010763431899,0.000000000000,-0.000000000000,0.000000000000,0.000000000000,0.000000000000
0.110358000000,0.000020000000,11227.864000000000,-0.085866892117,-0.111110115734,0.318486269376,-0.001908119124,-0.006929533587,-2.353071499275,-0.000534047814,0.000412716932,0.000000000000,0.000000000000,0.000000000000,-0.004806473386,-0.056939929724,0.011987353675,8.801713943481,0.003498644801,-2.800313297902,2.789475679398,-1.559555355703,1.574479222298,-0.787337128316,-0.004806473386,0.000000000000,-0.000000000000,0.000000000000,0.000000000000,0.000000000000
0.118437000000,0.000020000000,11227.871999999999,-0.085871804643,-0.111098887049,0.318495473294,-0.001982536056,-0.006948713826,-2.353119522931,-0.001326463350,0.001025265011,0.000000000000,0.000000000000,0.000000000000,-0.011939483695,-0.068927280605,0.191797658801,8.831682205200,0.003402770963,-2.800325218831,2.789463520050,-1.559579197560,1.574515223503,-0.787289444600,-0.011939483695,0.000000000000,-0.000000000000,0.000000000000,0.000000000000,0.000000000000
0.126372000000,0.000010000000,11227.879999999999,-0.085875633723,-0.111102994731,0.318474647419,-0.001891897922,-0.006969277472,-2.353107594653,-0.000867772060,0.000670733275,0.000000000000,0.000000000000,0.000000000000,-0.007810519077,-0.200788170099,-0.032965220511,8.921587944031,0.003438723739,-2.800313297902,2.789499521255,-1.559555355703,1.574503183365,-0.787313286458,-0.007810519077,0.000000000000,-0.000000000000,0.000000000000,0.000000000000,0.000000000000
0.134372000000,0.000020000000,11227.887999999999,-0.085880910577,-0.111097890152,0.318479318180,-0.001897873901,-0.006983537601,-2.353167389923,-0.000347944971,0.000268968483,0.000000000000,0.000000000000,0.000000000000,-0.003131877398,-0.197791323066,0.020977867767,8.906603813171,0.003390786704,-2.800313297902,2.789487600327,-1.559543434774,1.574515223503,-0.787325207387,-0.003131877398,0.000000000000,-0.000000000000,0.000000000000,0.000000000000,0.000000000000
0.142386000000,0.000010000000,11227.895999999999,-0.085876610287,-0.111102854102,0.318482730266,-0.001916921217,-0.006909637504,-2.353119743729,0.000000000000,0.000000000000,0.000000000000,0.000000000000,0.000000000000,0.000000000000,-0.077917799354,0.032965220511,8.768749237061,0.003402770963,-2.800313297902,2.789487600327,-1.559579197560,1.574467301369,-0.787289444600,0.000000000000,0.000000000000,-0.000000000000,0.000000000000,0.000000000000,0.000000000000
0.150459000000,0.000010000000,11227.903999999999,-0.085872496013,-0.111098843106,0.318484778287,-0.001962338876,-0.006940432728,-2.353155442086,0.000000000000,0.000000000000,0.000000000000,0.000000000000,0.000000000000,0.000000000000,0.005993676838,-0.026971545070,8.816698074341,0.003390786704,-2.800337139760,2.789487600327,-1.559579197560,1.574503183365,-0.787313286458,0.000000000000,0.000000000000,-0.000000000000,0.000000000000,0.000000000000,0.000000000000
0.158388000000,0.000010000000,11227.912000000000,-0.085889770971,-0.111097876822,0.318465647982,-0.001835893405,-0.006992444109,-2.353179516982,0.000000000000,0.000000000000,0.000000000000,0.000000000000,0.000000000000,0.000000000000,-0.053943090141,-0.077917799354,8.861651420593,0.003378802445,-2.800289456044,2.789511442184,-1.559543434774,1.574503183365,-0.787325207387,0.000000000000,0.000000000000,-0.000000000000,0.000000000000,0.000000000000,0.000000000000
0.166445000000,0.000010000000,11227.920000000000,-0.085878495890,-0.111098724498,0.318477852460,-0.001917015588,-0.006909676318,-2.353191533992,0.000000000000,0.000000000000,0.000000000000,0.000000000000,0.000000000000,0.000000000000,-0.101892501116,-0.062933601439,8.867644309998,0.003354834160,-2.800337139760,2.789499521255,-1.559567276631,1.574467301369,-0.787313286458,0.000000000000,0.000000000000,-0.000000000000,0.000000000000,0.000000000000,0.000000000000
0.174441000000,0.000010000000,11227.928000000000,-0.085885662809,-0.111100828746,0.318484212771,-0.001874764052,-0.006927089897,-2.353179485022,0.000000000000,0.000000000000,0.000000000000,0.000000000000,0.000000000000,0.000000000000,-0.104889340699,-0.002996838419,8.837676048279,0.003378802445,-2.800289456044,2.789475679398,-1.559555355703,1.574467301369,-0.787325207387,0.000000000000,0.000000000000,-0.000000000000,0.000000000000,0.000000000000,0.000000000000
0.182380000000,0.000010000000,11227.936000000000,-0.085876562590,-0.111096830578,0.318483743732,-0.001954162735,-0.006960421612,-2.353167412606,0.000000000000,0.000000000000,0.000000000000,0.000000000000,0.000000000000,0.000000000000,-0.080914631486,0.104889340699,8.873638153076,0.003378802445,-2.800325218831,2.789487600327,-1.559579197560,1.574515223503,-0.787313286458,0.000000000000,0.000000000000,-0.000000000000,0.000000000000,0.000000000000,0.000000000000
0.190355000000,0.000010000000,11227.944000000000,-0.085870971929,-0.111097843704,0.318472998917,-0.001940667757,-0.006965820418,-2.353131627424,0.000000000000,0.000000000000,0.000000000000,0.000000000000,0.000000000000,0.000000000000,-0.092901989818,0.017981030047,8.858654022217,0.003390786704,-2.800361458455,2.789511442184,-1.559555355703,1.574515223503,-0.787289444600,0.000000000000,0.000000000000,-0.000000000000,0.000000000000,0.000000000000,0.000000000000
0.198381000000,0.000010000000,11227.951999999999,-0.085874606493,-0.111102815071,0.318475532984,-0.001883537707,-0.006906719556,-2.353143695954,0.000000000000,0.000000000000,0.000000000000,0.000000000000,0.000000000000,0.000000000000,-0.095898829401,-0.104889340699,8.930578231812,0.003390786704,-2.800349537526,2.789499521255,-1.559531513845,1.574455261230,-0.787301365529,0.000000000000,0.000000000000,-0.000000000000,0.000000000000,0.000000000000,0.000000000000
0.206390000000,0.000010000000,11227.959999999999,-0.085873903192,-0.111102940766,0.318487396873,-0.001928309980,-0.006937970881,-2.353131444794,0.000000000000,0.000000000000,0.000000000000,0.000000000000,0.000000000000,0.000000000000,-0.077917799354,-0.092901989818,8.864647865295,0.003426739480,-2.800313297902,2.789475679398,-1.559567276631,1.574491262436,-0.787325207387,0.000000000000,0.000000000000,-0.000000000000,0.000000000000,0.000000000000,0.000000000000
0.214383000000,0.000010000000,11227.967999999999,-0.085869063115,-0.111101876199,0.318474240537,-0.001943047492,-0.006931807935,-2.353107723071,0.000000000000,0.000000000000,0.000000000000,0.000000000000,0.000000000000,0.000000000000,-0.035962060094,-0.005993676838,8.783733367920,0.003414755221,-2.800349537526,2.789511442184,-1.559579197560,1.574491262436,-0.787289444600,0.000000000000,0.000000000000,-0.000000000000,0.000000000000,0.000000000000,0.000000000000
0.222480000000,0.000010000000,11227.975999999999,-0.085880791845,-0.111104932337,0.318463031682,-0.001846133106,-0.006938691216,-2.353143600336,0.000000000000,0.000000000000,0.000000000000,0.000000000000,0.000000000000,0.000000000000,-0.092901989818,0.011987353675,8.834679603577,0.003426739480,-2.800301376973,2.789523601532,-1.559567276631,1.574467301369,-0.787337128316,0.000000000000,0.000000000000,-0.000000000000,0.000000000000,0.000000000000,0.000000000000
0.230455000000,0.000010000000,11227.984000000000,-0.085875136215,-0.111102854558,0.318475588991,-0.001888687162,-0.006921216528,-2.353155533167,0.000000000000,0.000000000000,0.000000000000,0.000000000000,0.000000000000,0.000000000000,-0.167822942138,-0.011987353675,8.921587944031,0.003402770963,-2.800337139760,2.789499521255,-1.559543434774,1.574467301369,-0.787325207387,0.000000000000,0.000000000000,-0.000000000000,0.000000000000,0.000000000000,0.000000000000
0.238396000000,0.000010000000,11227.992000000000,-0.085866988759,-0.111101874361,0.318485853964,-0.001971051942,-0.006920376571,-2.353143407226,0.000000000000,0.000000000000,0.000000000000,0.000000000000,0.000000000000,0.000000000000,-0.134857729077,-0.023974707350,8.897612571716,0.003414755221,-2.800349537526,2.789487600327,-1.559579197560,1.574491262436,-0.787325207387,0.000000000000,0.000000000000,-0.000000000000,0.000000000000,0.000000000000,0.000000000000
0.246451000000,0.000010000000,11228.000000000000,-0.085877241509,-0.111099844798,0.318476813728,-0.001914527786,-0.006943605964,-2.353119774659,0.000000000000,0.000000000000,0.000000000000,0.000000000000,0.000000000000,0.000000000000,-0.056939929724,-0.029968382791,8.792723655701,0.003390786704,-2.800325218831,2.789499521255,-1.559567276631,1.574491262436,-0.787277523671,0.000000000000,0.000000000000,-0.000000000000,0.000000000000,0.000000000000,0.000000000000
0.254377000000,0.000010000000,11228.008000000000,-0.085876911279,-0.111101971384,0.318479322435,-0.001891947942,-0.006969292627,-2.353119547414,0.000000000000,0.000000000000,0.000000000000,0.000000000000,0.000000000000,0.000000000000,-0.011987353675,-0.020977867767,8.813701629639,0.003426739480,-2.800313297902,2.789487600327,-1.559543434774,1.574503183365,-0.787313286458,0.000000000000,0.000000000000,-0.000000000000,0.000000000000,0.000000000000,0.000000000000
0.262379000000,0.000010000000,11228.016000000000,-0.085870767411,-0.111101851158,0.318496662931,-0.001979740929,-0.006900269698,-2.353119608472,0.000000000000,0.000000000000,0.000000000000,0.000000000000,0.000000000000,0.000000000000,-0.116876691580,-0.023974707350,8.879631996155,0.003402770963,-2.800325218831,2.789463520050,-1.559591595327,1.574479222298,-0.787289444600,0.000000000000,0.000000000000,-0.000000000000,0.000000000000,0.000000000000,0.000000000000
0.270445000000,0.000010000000,11228.023999999999,-0.085875279586,-0.111099881676,0.318466110214,-0.001905861172,-0.006963531731,-2.353119742128,0.000000000000,0.000000000000,0.000000000000,0.000000000000,0.000000000000,0.000000000000,-0.158832430840,-0.038958899677,8.891619682312,0.003402770963,-2.800337139760,2.789523601532,-1.559567276631,1.574503183365,-0.787289444600,0.000000000000,0.000000000000,-0.000000000000,0.000000000000,0.000000000000,0.000000000000
0.278378000000,0.000010000000,11228.031999999999,-0.085889105774,-0.111103800722,0.318454973812,-0.001786818111,-0.006913513703,-2.353167838498,0.000000000000,0.000000000000,0.000000000000,0.000000000000,0.000000000000,0.000000000000,-0.134857729077,0.011987353675,8.924584388733,0.003378802445,-2.800301376973,2.789535522461,-1.559543434774,1.574431300163,-0.787313286458,0.000000000000,0.000000000000,-0.000000000000,0.000000000000,0.000000000000,0.000000000000
0.286374000000,0.000010000000,11228.039999999999,-0.085889501886,-0.111097913403,0.318459720761,-0.001827331494,-0.007012507594,-2.353167541594,0.000000000000,0.000000000000,0.000000000000,0.000000000000,0.000000000000,0.000000000000,-0.068927280605,0.020977867767,8.849663734436,0.003390786704,-2.800289456044,2.789523601532,-1.559543434774,1.574515223503,-0.787325207387,0.000000000000,0.000000000000,-0.000000000000,0.000000000000,0.000000000000,0.000000000000
0.294373000000,0.000010000000,11228.047999999999,-0.085880323554,-0.111102871137,0.318480568162,-0.001888786316,-0.006921222572,-2.353131689228,0.000000000000,0.000000000000,0.000000000000,0.000000000000,0.000000000000,0.000000000000,-0.065930441022,-0.023974707350,8.801713943481,0.003402770963,-2.800301376973,2.789487600327,-1.559567276631,1.574467301369,-0.787301365529,0.000000000000,0.000000000000,-0.000000000000,0.000000000000,0.000000000000,0.000000000000
0.302379000000,0.000010000000,11228.055999999999,-0.085875525457,-0.111099794712,0.318484933393,-0.001951367574,-0.006911976981,-2.353167497860,0.000000000000,0.000000000000,0.000000000000,0.000000000000,0.000000000000,0.000000000000,-0.089905150235,-0.041955735534,8.831682205200,0.003378802445,-2.800325218831,2.789487600327,-1.559591595327,1.574479222298,-0.787313286458,0.000000000000,0.000000000000,-0.000000000000,0.000000000000,0.000000000000,0.000000000000
0.310372000000,0.000010000000,11228.064000000000,-0.085874480905,-0.111098903177,0.318499118002,-0.001968457616,-0.006954539204,-2.353131430077,0.000000000000,0.000000000000,0.000000000000,0.000000000000,0.000000000000,0.000000000000,-0.080914631486,-0.053943090141,8.891619682312,0.003402770963,-2.800313297902,2.789451599121,-1.559567276631,1.574515223503,-0.787301365529,0.000000000000,0.000000000000,-0.000000000000,0.000000000000,0.000000000000,0.000000000000
0.318444000000,0.000010000000,11228.072000000000,-0.085881374161,-0.111100944976,0.318461785922,-0.001849543712,-0.006986694656,-2.353131648950,0.000000000000,0.000000000000,0.000000000000,0.000000000000,0.000000000000,0.000000000000,-0.077917799354,0.005993676838,8.876635551453,0.003414755221,-2.800313297902,2.789523601532,-1.559543434774,1.574503183365,-0.787313286458,0.000000000000,0.000000000000,-0.000000000000,0.000000000000,0.000000000000,0.000000000000
0.326441000000,0.000010000000,11228.080000000000,-0.085887805033,-0.111093851893,0.318451291327,-0.001853118459,-0.007034890996,-2.353167643099,0.000000000000,0.000000000000,0.000000000000,0.000000000000,0.000000000000,0.000000000000,-0.059936765581,-0.000000000000,8.846666336060,0.003366818186,-2.800313297902,2.789547443390,-1.559555355703,1.574539184570,-0.787301365529,0.000000000000,0.000000000000,-0.000000000000,0.000000000000,0.000000000000,0.000000000000
0.334382000000,0.000010000000,11228.088000000000,-0.085869992167,-0.111101888752,0.318477783836,-0.001928888636,-0.006937673153,-2.353143461935,0.000000000000,0.000000000000,0.000000000000,0.000000000000,0.000000000000,0.000000000000,-0.086908310652,-0.000000000000,8.903606414795,0.003414755221,-2.800349537526,2.789499521255,-1.559555355703,1.574491262436,-0.787325207387,0.000000000000,0.000000000000,-0.000000000000,0.000000000000,0.000000000000,0.000000000000
0.342378000000,0.000010000000,11228.096000000000,-0.085875901886,-0.111097862141,0.318489697107,-0.001968706004,-0.006954472652,-2.353167319372,0.000000000000,0.000000000000,0.000000000000,0.000000000000,0.000000000000,0.000000000000,-0.095898829401,-0.032965220511,8.846666336060,0.003390786704,-2.800313297902,2.789475679398,-1.559591595327,1.574515223503,-0.787325207387,0.000000000000,0.000000000000,-0.000000000000,0.000000000000,0.000000000000,0.000000000000
0.350448000000,0.000010000000,11228.103999999999,-0.085875856072,-0.111100879784,0.318481488743,-0.001914265924,-0.006943783971,-2.353179284248,0.000000000000,0.000000000000,0.000000000000,0.000000000000,0.000000000000,0.000000000000,-0.080914631486,-0.041955735534,8.864647865295,0.003402770963,-2.800325218831,2.789487600327,-1.559555355703,1.574491262436,-0.787349049245,0.000000000000,0.000000000000,-0.000000000000,0.000000000000,0.000000000000,0.000000000000
0.358374000000,0.000010000000,11228.111999999999,-0.085878997569,-0.111098905063,0.318463943846,-0.001883548525,-0.006989312047,-2.353131656884,0.000000000000,0.000000000000,0.000000000000,0.000000000000,0.000000000000,0.000000000000,-0.080914631486,-0.000000000000,8.855657577515,0.003402770963,-2.800325218831,2.789523601532,-1.559555355703,1.574515223503,-0.787301365529,0.000000000000,0.000000000000,-0.000000000000,0.000000000000,0.000000000000,0.000000000000
0.366367000000,0.000010000000,11228.119999999999,-0.085875968871,-0.111099884338,0.318472134510,-0.001920023920,-0.006957822138,-2.353179316395,0.000000000000,0.000000000000,0.000000000000,0.000000000000,0.000000000000,0.000000000000,-0.095898829401,-0.011987353675,8.873638153076,0.003402770963,-2.800325218831,2.789511442184,-1.559579197560,1.574503183365,-0.787349049245,0.000000000000,0.000000000000,-0.000000000000,0.000000000000,0.000000000000,0.000000000000
0.374440000000,0.000010000000,11228.127999999999,-0.085873809628,-0.111102899892,0.318475584813,-0.001894478369,-0.006935206158,-2.353119676697,0.000004260743,-0.000003293219,0.000000000000,0.000000000000,0.000000000000,0.000038349521,-0.107886180282,-0.026971545070,8.864647865295,0.003414755221,-2.800337139760,2.789499521255,-1.559543434774,1.574479222298,-0.787301365529,0.000038349521,0.000000000000,-0.000000000000,0.000000000000,0.000000000000,0.000000000000
0.382378000000,0.000010000000,11228.135999999999,-0.085878410331,-0.111103886033,0.318465193859,-0.001874315021,-0.006927113948,-2.353143639453,0.000004260781,-0.000003293396,0.000000000000,0.000000000000,0.000000000000,0.000038349521,-0.110883019865,-0.000000000000,8.807707786560,0.003414755221,-2.800313297902,2.789523601532,-1.559579197560,1.574467301369,-0.787325207387,0.000038349521,0.000000000000,-0.000000000000,0.000000000000,0.000000000000,0.000000000000
0.390368000000,0.000010000000,11228.144000000000,-0.085880323554,-0.111102871137,0.318480568162,-0.001888749947,-0.006921251731,-2.353143610101,0.000004260742,-0.000003293469,0.000000000000,0.000000000000,0.000000000000,0.000038349521,-0.089905150235,-0.000000000000,8.894616127014,0.003402770963,-2.800301376973,2.789487600327,-1.559567276631,1.574467301369,-0.787313286458,0.000038349521,0.000000000000,-0.000000000000,0.000000000000,0.000000000000,0.000000000000
0.398371000000,0.000010000000,11228.152000000000,-0.085875511731,-0.111104933465,0.318496972813,-0.001917127286,-0.006909553122,-2.353095689975,0.000004260821,-0.000003293285,0.000000000000,0.000000000000,0.000000000000,0.000038349521,-0.089905150235,-0.023974707350,8.858654022217,0.003426739480,-2.800301376973,2.789451599121,-1.559555355703,1.574467301369,-0.787289444600,0.000038349521,0.000000000000,-0.000000000000,0.000000000000,0.000000000000,0.000000000000
0.406364000000,0.000010000000,11228.160000000000,-0.085878314938,-0.111102017309,0.318478287781,-0.001883641151,-0.006989297238,-2.353119470421,0.000004260709,-0.000003293392,0.000000000000,0.000000000000,0.000000000000,0.000038349521,-0.089905150235,-0.050946250558,8.849663734436,0.003438723739,-2.800301376973,2.789487600327,-1.559543434774,1.574515223503,-0.787325207387,0.000038349521,0.000000000000,-0.000000000000,0.000000000000,0.000000000000,0.000000000000
0.414372000000,0.000010000000,11228.168000000000,-0.085866003855,-0.111102970118,0.318500051155,-0.001976532736,-0.006934519588,-2.353095481408,0.000004260746,-0.000003292920,0.000000000000,0.000000000000,0.000000000000,0.000038349521,-0.074920959771,-0.008990515023,8.822691917419,0.003438723739,-2.800337139760,2.789451599121,-1.559555355703,1.574503183365,-0.787301365529,0.000038349521,0.000000000000,-0.000000000000,0.000000000000,0.000000000000,0.000000000000
0.422420000000,0.000010000000,11228.175999999999,-0.085873570131,-0.111102936428,0.318494598078,-0.001957198477,-0.006926174715,-2.353155248313,0.000004260744,-0.000003293210,0.000000000000,0.000000000000,0.000000000000,0.000038349521,-0.104889340699,0.050946250558,8.807707786560,0.003426739480,-2.800301376973,2.789463520050,-1.559591595327,1.574491262436,-0.787349049245,0.000038349521,0.000000000000,-0.000000000000,0.000000000000,0.000000000000,0.000000000000
0.430371000000,0.000010000000,11228.183999999999,-0.085870530153,-0.111104996270,0.318481488743,-0.001914188896,-0.006943669528,-2.353095585059,0.000004260823,-0.000003293094,0.000000000000,0.000000000000,0.000000000000,0.000038349521,-0.080914631486,-0.000000000000,8.864647865295,0.003450707765,-2.800325218831,2.789487600327,-1.559555355703,1.574491262436,-0.787313286458,0.000038349521,0.000000000000,-0.000000000000,0.000000000000,0.000000000000,0.000000000000
0.438364000000,0.000010000000,11228.191999999999,-0.085874709520,-0.111101988508,0.318471099899,-0.001911806707,-0.006977666709,-2.353095666634,0.000004260708,-0.000003293254,0.000000000000,0.000000000000,0.000000000000,0.000038349521,-0.113879859447,-0.029968382791,8.906603813171,0.003438723739,-2.800313297902,2.789511442184,-1.559579197560,1.574515223503,-0.787301365529,0.000038349521,0.000000000000,-0.000000000000,0.000000000000,0.000000000000,0.000000000000
0.446436000000,0.000010000000,11228.199999999999,-0.085874266238,-0.111101898801,0.318483898843,-0.001943004974,-0.006931940434,-2.353131531570,0.000004260705,-0.000003293237,0.000000000000,0.000000000000,0.000000000000,0.000038349521,-0.098895661533,-0.017981030047,8.903606414795,0.003414755221,-2.800313297902,2.789487600327,-1.559591595327,1.574491262436,-0.787313286458,0.000038349521,0.000000000000,-0.000000000000,0.000000000000,0.000000000000,0.000000000000
0.454372000000,0.000010000000,11228.207999999999,-0.085877277976,-0.111102016366,0.318484094561,-0.001897697810,-0.006983537490,-2.353119431427,0.000004260709,-0.000003293352,0.000000000000,0.000000000000,0.000000000000,0.000038349521,-0.080914631486,-0.002996838419,8.780735969543,0.003438723739,-2.800301376973,2.789475679398,-1.559543434774,1.574515223503,-0.787325207387,0.000038349521,0.000000000000,-0.000000000000,0.000000000000,0.000000000000,0.000000000000
0.462368000000,0.000010000000,11228.216000000000,-0.085872433980,-0.111101957379,0.318480251396,-0.001906022384,-0.006963457642,-2.353107599496,0.000004260707,-0.000003293167,0.000000000000,0.000000000000,0.000000000000,0.000038349521,-0.086908310652,0.008990515023,8.795720100403,0.003426739480,-2.800337139760,2.789487600327,-1.559531513845,1.574503183365,-0.787301365529,0.000038349521,0.000000000000,-0.000000000000,0.000000000000,0.000000000000,0.000000000000
0.470437000000,0.000010000000,11228.224000000000,-0.085871119205,-0.111101902111,0.318506064847,-0.001984897091,-0.006914784297,-2.353131381867,0.000004260705,-0.000003293116,0.000000000000,0.000000000000,0.000000000000,0.000038349521,-0.119873531163,-0.026971545070,8.855657577515,0.003414755221,-2.800313297902,2.789439678192,-1.559579197560,1.574491262436,-0.787313286458,0.000038349521,0.000000000000,-0.000000000000,0.000000000000,0.000000000000,0.000000000000
0.478376000000,0.000010000000,11228.232000000000,-0.085880557240,-0.111099919734,0.318478190671,-0.001877988049,-0.006975074680,-2.353143523298,0.000004260629,-0.000003293478,0.000000000000,0.000000000000,0.000000000000,0.000038349521,-0.086908310652,-0.035962060094,8.921587944031,0.003402770963,-2.800313297902,2.789487600327,-1.559531513845,1.574503183365,-0.787313286458,0.000038349521,0.000000000000,-0.000000000000,0.000000000000,0.000000000000,0.000000000000
0.486363000000,0.000010000000,11228.240000000000,-0.085876978493,-0.111104040116,0.318478292036,-0.001877772311,-0.006975095043,-2.353107517346,0.000004260787,-0.000003293341,0.000000000000,0.000000000000,0.000000000000,0.000038349521,-0.041955735534,-0.017981030047,8.855657577515,0.003450707765,-2.800301376973,2.789487600327,-1.559543434774,1.574503183365,-0.787325207387,0.000038349521,0.000000000000,-0.000000000000,0.000000000000,0.000000000000,0.000000000000
0.494365000000,0.000010000000,11228.248000000000,-0.085873201371,-0.111106006174,0.318485137635,-0.001894324550,-0.006935269414,-2.353095601813,0.000004260862,-0.000003293196,0.000000000000,0.000000000000,0.000000000000,0.000038349521,-0.071924120188,0.005993676838,8.810704231262,0.003450707765,-2.800313297902,2.789475679398,-1.559543434774,1.574479222298,-0.787313286458,0.000038349521,0.000000000000,-0.000000000000,0.000000000000,0.000000000000,0.000000000000
0.502361000000,0.000010000000,11228.255999999999,-0.085880727232,-0.111102960681,0.318467814427,-0.001858004326,-0.006966834614,-2.353143507129,0.000004260745,-0.000003293485,0.000000000000,0.000000000000,0.000000000000,0.000038349521,-0.125867202878,-0.000000000000,8.843669891357,0.003426739480,-2.800301376973,2.789511442184,-1.559555355703,1.574491262436,-0.787337128316,0.000038349521,0.000000000000,-0.000000000000,0.000000000000,0.000000000000,0.000000000000
0.510361000000,0.000010000000,11228.263999999999,-0.085890824449,-0.111099993137,0.318450518381,-0.001771021318,-0.007035557922,-2.353143633058,0.000004260631,-0.000003293872,0.000000000000,0.000000000000,0.000000000000,0.000038349521,-0.128864049911,-0.008990515023,8.852660179138,0.003414755221,-2.800289456044,2.789535522461,-1.559507671987,1.574515223503,-0.787325207387,0.000038349521,0.000000000000,-0.000000000000,0.000000000000,0.000000000000,0.000000000000
0.518421000000,0.000010000000,11228.271999999999,-0.085865713268,-0.111104028471,0.318471968636,-0.001926195346,-0.006971686356,-2.353107423446,0.000004260786,-0.000003292909,0.000000000000,0.000000000000,0.000000000000,0.000038349521,-0.068927280605,-0.029968382791,8.855657577515,0.003462692024,-2.800349537526,2.789511442184,-1.559555355703,1.574515223503,-0.787337128316,0.000038349521,0.000000000000,-0.000000000000,0.000000000000,0.000000000000,0.000000000000
0.526417000000,0.000010000000,11228.279999999999,-0.085875759672,-0.111104064003,0.318468937746,-0.001883504126,-0.006989296026,-2.353107486003,0.000004260788,-0.000003293294,0.000000000000,0.000000000000,0.000000000000,0.000038349521,-0.068927280605,-0.020977867767,8.912597656250,0.003462692024,-2.800301376973,2.789511442184,-1.559567276631,1.574515223503,-0.787337128316,0.000038349521,0.000000000000,-0.000000000000,0.000000000000,0.000000000000,0.000000000000
0.534371000000,0.000010000000,11228.287999999999,-0.085875797094,-0.111101879248,0.318486167990,-0.001908519675,-0.006929538286,-2.353155442035,0.000004260704,-0.000003293296,0.000000000000,0.000000000000,0.000000000000,0.000038349521,-0.083911471069,-0.017981030047,8.837676048279,0.003402770963,-2.800325218831,2.789475679398,-1.559543434774,1.574479222298,-0.787325207387,0.000038349521,0.000000000000,-0.000000000000,0.000000000000,0.000000000000,0.000000000000
0.542355000000,0.000010000000,11228.296000000000,-0.085875797094,-0.111101879248,0.318486167990,-0.001908592409,-0.006929479689,-2.353131600291,0.000004260704,-0.000003293296,0.000000000000,0.000000000000,0.000000000000,0.000038349521,-0.110883019865,-0.011987353675,8.834679603577,0.003402770963,-2.800325218831,2.789475679398,-1.559543434774,1.574479222298,-0.787301365529,0.000038349521,0.000000000000,-0.000000000000,0.000000000000,0.000000000000,0.000000000000
0.550443000000,0.000010000000,11228.304000000000,-0.085875065229,-0.111105054944,0.318462917709,-0.001863373472,-0.006980927493,-2.353095625907,0.000004260826,-0.000003293268,0.000000000000,0.000000000000,0.000000000000,0.000038349521,-0.098895661533,-0.038958899677,8.858654022217,0.003462692024,-2.800313297902,2.789523601532,-1.559555355703,1.574503183365,-0.787325207387,0.000038349521,0.000000000000,-0.000000000000,0.000000000000,0.000000000000,0.000000000000
0.558357000000,0.000010000000,11228.312000000000,-0.085864224079,-0.111106990902,0.318491826516,-0.001978589837,-0.006900636133,-2.353083561979,0.000004260900,-0.000003292852,0.000000000000,0.000000000000,0.000000000000,0.000038349521,-0.065930441022,-0.023974707350,8.855657577515,0.003462692024,-2.800325218831,2.789475679398,-1.559603039418,1.574479222298,-0.787313286458,0.000038349521,0.000000000000,-0.000000000000,0.000000000000,0.000000000000,0.000000000000
0.566368000000,0.000010000000,11228.320000000000,-0.085875597706,-0.111100869653,0.318483898843,-0.001943051563,-0.006931946815,-2.353143515772,0.000004260665,-0.000003293288,0.000000000000,0.000000000000,0.000000000000,0.000038349521,-0.056939929724,-0.035962060094,8.861651420593,0.003402770963,-2.800313297902,2.789487600327,-1.559591595327,1.574491262436,-0.787313286458,0.000038349521,0.000000000000,-0.000000000000,0.000000000000,0.000000000000,0.000000000000
0.574428000000,0.000010000000,11228.328000000000,-0.085879641442,-0.111101981760,0.318478292036,-0.001877865666,-0.006975108811,-2.353131485516,0.000004260708,-0.000003293443,0.000000000000,0.000000000000,0.000000000000,0.000038349521,-0.071924120188,-0.026971545070,8.786729812622,0.003426739480,-2.800301376973,2.789487600327,-1.559543434774,1.574503183365,-0.787325207387,0.000038349521,0.000000000000,-0.000000000000,0.000000000000,0.000000000000,0.000000000000
0.582363000000,0.000010000000,11228.335999999999,-0.085869279719,-0.111102955270,0.318468418952,-0.001934280165,-0.006951832815,-2.353119536527,0.000004260745,-0.000003293046,0.000000000000,0.000000000000,0.000000000000,0.000038349521,-0.119873531163,-0.020977867767,8.810704231262,0.003438723739,-2.800337139760,2.789523601532,-1.559591595327,1.574503183365,-0.787325207387,0.000038349521,0.000000000000,-0.000000000000,0.000000000000,0.000000000000,0.000000000000
0.590360000000,0.000010000000,11228.343999999999,-0.085865478828,-0.111101937026,0.318499990936,-0.001977097336,-0.006934305348,-2.353119376025,0.000004260706,-0.000003292900,0.000000000000,0.000000000000,0.000000000000,0.000038349521,-0.104889340699,-0.008990515023,8.861651420593,0.003426739480,-2.800349537526,2.789451599121,-1.559543434774,1.574503183365,-0.787313286458,0.000038349521,0.000000000000,-0.000000000000,0.000000000000,0.000000000000,0.000000000000
0.598362000000,0.000010000000,11228.351999999999,-0.085871160451,-0.111105998427,0.318492192254,-0.001922679219,-0.006923655781,-2.353107475445,0.000004260862,-0.000003293118,0.000000000000,0.000000000000,0.000000000000,0.000038349521,-0.152838751674,-0.011987353675,8.888622283936,0.003450707765,-2.800313297902,2.789463520050,-1.559555355703,1.574479222298,-0.787325207387,0.000038349521,0.000000000000,-0.000000000000,0.000000000000,0.000000000000,0.000000000000
0.606362000000,0.000010000000,11228.359999999999,-0.085874717821,-0.111105056682,0.318474748783,-0.001891738959,-0.006969341168,-2.353107477975,0.000004260826,-0.000003293254,0.000000000000,0.000000000000,0.000000000000,0.000038349521,-0.074920959771,-0.005993676838,8.879631996155,0.003462692024,-2.800301376973,2.789499521255,-1.559567276631,1.574503183365,-0.787337128316,0.000038349521,0.000000000000,-0.000000000000,0.000000000000,0.000000000000,0.000000000000
0.614355000000,0.000010000000,11228.368000000000,-0.085866640397,-0.111102910153,0.318484722271,-0.001957024472,-0.006926079450,-2.353107589105,0.000004260743,-0.000003292945,0.000000000000,0.000000000000,0.000000000000,0.000038349521,-0.068927280605,-0.005993676838,8.825689315796,0.003426739480,-2.800349537526,2.789487600327,-1.559567276631,1.574491262436,-0.787301365529,0.000038349521,0.000000000000,-0.000000000000,0.000000000000,0.000000000000,0.000000000000
0.622424000000,0.000010000000,11228.376000000000,-0.085865655506,-0.111104005902,0.318498919462,-0.001962360286,-0.006940340852,-2.353107347077,0.000015622880,-0.000012073991,0.000000000000,0.000000000000,0.000000000000,0.000140614909,-0.089905150235,-0.011987353675,8.825689315796,0.003450707765,-2.800337139760,2.789451599121,-1.559543434774,1.574503183365,-0.787325207387,0.000140614909,0.000000000000,-0.000000000000,0.000000000000,0.000000000000,0.000000000000
0.630356000000,0.000010000000,11228.384000000000,-0.085869285491,-0.111102982693,0.318480145911,-0.001905931127,-0.006963460917,-2.353107526029,0.000015622736,-0.000012074502,0.000000000000,0.000000000000,0.000000000000,0.000140614909,-0.110883019865,-0.044952575117,8.834679603577,0.003438723739,-2.800349537526,2.789487600327,-1.559519116079,1.574503183365,-0.787313286458,0.000140614909,0.000000000000,-0.000000000000,0.000000000000,0.000000000000,0.000000000000
0.638352000000,0.000010000000,11228.392000000000,-0.085869610986,-0.111103006228,0.318477937000,-0.001939715906,-0.006966231731,-2.353131309514,0.000015622739,-0.000012074548,0.000000000000,0.000000000000,0.000000000000,0.000140614909,-0.095898829401,-0.026971545070,8.864647865295,0.003450707765,-2.800325218831,2.789499521255,-1.559579197560,1.574515223503,-0.787349049245,0.000140614909,0.000000000000,-0.000000000000,0.000000000000,0.000000000000,0.000000000000
0.646428000000,0.000010000000,11228.400000000000,-0.085865565587,-0.111110151131,0.318486265144,-0.001914039882,-0.006943604908,-2.353011800616,0.000139193351,-0.000107568172,0.000000000000,0.000000000000,0.000000000000,0.001252750983,-0.083911471069,0.017981030047,8.810704231262,0.003510629060,-2.800313297902,2.789475679398,-1.559555355703,1.574491262436,-0.787289444600,0.001252750983,0.000000000000,-0.000000000000,0.000000000000,0.000000000000,0.000000000000
0.654354000000,0.000010000000,11228.407999999999,-0.085865240113,-0.111108072337,0.318489705563,-0.001956782023,-0.006926142726,-2.353059587397,0.002173079970,-0.001679374230,0.000000000000,0.000000000000,0.000000000000,0.019558254629,-0.089905150235,0.119873531163,8.813701629639,0.003486660542,-2.800313297902,2.789475679398,-1.559591595327,1.574491262436,-0.787313286458,0.019558254629,0.000000000000,-0.000000000000,0.000000000000,0.000000000000,0.000000000000
0.662353000000,0.000010000000,11228.415999999999,-0.085860699782,-0.111118402907,0.318472489445,-0.001857382474,-0.006966680074,-2.352939871390,0.000697438893,-0.000538907956,0.000000000000,0.000000000000,0.000000000000,0.006276538130,-0.131860882044,0.119873531163,8.894616127014,0.003606502898,-2.800301376973,2.789499521255,-1.559543434774,1.574491262436,-0.787313286458,0.006276538130,0.000000000000,-0.000000000000,0.000000000000,0.000000000000,0.000000000000
0.670426000000,0.000010000000,11228.423999999999,-0.085837820484,-0.111125600507,0.318489453301,-0.001961128334,-0.006940277570,-2.352843822340,0.000443207819,-0.000342351295,0.000000000000,0.000000000000,0.000000000000,0.003988350276,-0.155835598707,-0.374604791403,8.897612571716,0.003702376503,-2.800337139760,2.789475679398,-1.559567276631,1.574503183365,-0.787313286458,0.003988350276,0.000000000000,-0.000000000000,0.000000000000,0.000000000000,0.000000000000
0.678379000000,0.000010000000,11228.431999999999,-0.085831187045,-0.111127594369,0.318484519353,-0.001955818535,-0.006925950456,-2.352843791444,0.000443215772,-0.000342324839,0.000000000000,0.000000000000,0.000000000000,0.003988350276,-0.032965220511,-0.209778681397,8.780735969543,0.003714360762,-2.800373379384,2.789487600327,-1.559543434774,1.574491262436,-0.787325207387,0.003988350276,0.000000000000,-0.000000000000,0.000000000000,0.000000000000,0.000000000000
0.686354000000,0.000010000000,11228.439999999999,-0.085842570967,-0.111125619872,0.318481484542,-0.001919009580,-0.006957556449,-2.352831965926,0.000380704214,-0.000294087255,0.000000000000,0.000000000000,0.000000000000,0.003425890580,0.095898829401,0.245740741491,8.771745681763,0.003702376503,-2.800325218831,2.789487600327,-1.559555355703,1.574503183365,-0.787301365529,0.003425890580,0.000000000000,-0.000000000000,0.000000000000,0.000000000000,0.000000000000
0.694351000000,0.000010000000,11228.448000000000,-0.085846699561,-0.111126670946,0.318479423800,-0.001890798716,-0.006969177722,-2.352843858135,0.000220185475,-0.000170095947,0.000000000000,0.000000000000,0.000000000000,0.001981391804,-0.020977867767,0.137854561210,8.876635551453,0.003714360762,-2.800301376973,2.789487600327,-1.559555355703,1.574503183365,-0.787325207387,0.001981391804,0.000000000000,-0.000000000000,0.000000000000,0.000000000000,0.000000000000
0.702380000000,0.000010000000,11228.456000000000,-0.085846527790,-0.111128673217,0.318464155049,-0.001870682134,-0.006960942838,-2.352820086154,0.000177572138,-0.000137173882,0.000000000000,0.000000000000,0.000000000000,0.001597896684,-0.302680671215,-0.212775528431,8.936572074890,0.003726345021,-2.800301376973,2.789523601532,-1.559579197560,1.574491262436,-0.787313286458,0.001597896684,0.000000000000,-0.000000000000,0.000000000000,0.000000000000,0.000000000000
0.710352000000,0.000010000000,11228.464000000000,-0.085830503137,-0.111134736592,0.318495490160,-0.001957814515,-0.006892111341,-2.352783901001,0.000558317274,-0.000431194189,0.000000000000,0.000000000000,0.000000000000,0.005023787264,-0.275709122419,-0.098895661533,8.831682205200,0.003774281824,-2.800325218831,2.789463520050,-1.559579197560,1.574467301369,-0.787325207387,0.005023787264,0.000000000000,-0.000000000000,0.000000000000,0.000000000000,0.000000000000
0.718434000000,0.000010000000,11228.472000000000,-0.085830911677,-0.111134876400,0.318469769613,-0.001890468878,-0.006968992103,-2.352724176650,0.000333854247,-0.000257839980,0.000000000000,0.000000000000,0.000000000000,0.003004045691,-0.000000000000,0.164826110005,8.846666336060,0.003810234601,-2.800337139760,2.789511442184,-1.559543434774,1.574503183365,-0.787301365529,0.003004045691,0.000000000000,-0.000000000000,0.000000000000,0.000000000000,0.000000000000
0.726409000000,0.000010000000,11228.480000000000,-0.085843397604,-0.111129800766,0.318472480988,-0.001868432186,-0.006994780661,-2.352760174237,0.000203144585,-0.000156921197,0.000000000000,0.000000000000,0.000000000000,0.001827993779,0.086908310652,0.059936765581,8.849663734436,0.003762297798,-2.800301376973,2.789499521255,-1.559543434774,1.574515223503,-0.787289444600,0.001827993779,0.000000000000,-0.000000000000,0.000000000000,0.000000000000,0.000000000000
0.734359000000,0.000010000000,11228.487999999999,-0.085832935863,-0.111132760097,0.318472037307,-0.001912880385,-0.006943485657,-2.352783986552,0.000196046849,-0.000151415987,0.000000000000,0.000000000000,0.000000000000,0.001764077926,-0.095898829401,-0.188800811768,8.786729812622,0.003774281824,-2.800337139760,2.789511442184,-1.559567276631,1.574491262436,-0.787325207387,0.001764077926,0.000000000000,-0.000000000000,0.000000000000,0.000000000000,0.000000000000
0.742347000000,0.000010000000,11228.495999999999,-0.085841361835,-0.111132763507,0.318479432232,-0.001879030717,-0.006940900603,-2.352795982734,0.000196046855,-0.000151430852,0.000000000000,0.000000000000,0.000000000000,0.001764077926,-0.185803979635,-0.191797658801,8.819695472717,0.003762297798,-2.800301376973,2.789487600327,-1.559555355703,1.574479222298,-0.787325207387,0.001764077926,0.000000000000,-0.000000000000,0.000000000000,0.000000000000,0.000000000000
0.750419000000,0.000010000000,11228.503999999999,-0.085834938673,-0.111133911685,0.318490017464,-0.001910475493,-0.006977543518,-2.352783645129,0.000181842443,-0.000140447094,0.000000000000,0.000000000000,0.000000000000,0.001636246219,-0.143848240376,0.086908310652,8.897612571716,0.003810234601,-2.800301376973,2.789463520050,-1.559543434774,1.574515223503,-0.787360970174,0.001636246219,0.000000000000,-0.000000000000,0.000000000000,0.000000000000,0.000000000000
0.758348000000,0.000010000000,11228.511999999999,-0.085836009387,-0.111132729325,0.318472142943,-0.001907187933,-0.006929257080,-2.352772169488,0.000134959747,-0.000104239374,0.000000000000,0.000000000000,0.000000000000,0.001214401447,-0.032965220511,0.209778681397,8.858654022217,0.003762297798,-2.800325218831,2.789511442184,-1.559579197560,1.574479222298,-0.787301365529,0.001214401447,0.000000000000,-0.000000000000,0.000000000000,0.000000000000,0.000000000000
0.766348000000,0.000010000000,11228.519999999999,-0.085833514794,-0.111132677716,0.318483659192,-0.001929541418,-0.006903705175,-2.352796017505,0.000106547125,-0.000082291855,0.000000000000,0.000000000000,0.000000000000,0.000958738034,-0.116876691580,-0.011987353675,8.876635551453,0.003750313539,-2.800337139760,2.789487600327,-1.559567276631,1.574467301369,-0.787313286458,0.000958738034,0.000000000000,-0.000000000000,0.000000000000,0.000000000000,0.000000000000
0.774417000000,0.000010000000,11228.528000000000,-0.085818501273,-0.111137791820,0.318491466148,-0.001972047099,-0.006886069376,-2.352724091427,0.000088083005,-0.000068016031,0.000000000000,0.000000000000,0.000000000000,0.000792556733,-0.158832430840,-0.224762871861,8.906603813171,0.003810234601,-2.800373379384,2.789475679398,-1.559555355703,1.574467301369,-0.787301365529,0.000792556733,0.000000000000,-0.000000000000,0.000000000000,0.000000000000,0.000000000000
0.782352000000,0.000010000000,11228.536000000000,-0.085834349999,-0.111130828995,0.318470994248,-0.001916298544,-0.006991619679,-2.352736164249,0.000075292046,-0.000058153475,0.000000000000,0.000000000000,0.000000000000,0.000677508186,-0.026971545070,-0.107886180282,8.792723655701,0.003786266083,-2.800325218831,2.789511442184,-1.559567276631,1.574527263641,-0.787289444600,0.000677508186,0.000000000000,-0.000000000000,0.000000000000,0.000000000000,0.000000000000
0.790348000000,0.000010000000,11228.544000000000,-0.085839325157,-0.111132795634,0.318473519856,-0.001870702658,-0.006960856530,-2.352795917920,0.000065348968,-0.000050475751,0.000000000000,0.000000000000,0.000000000000,0.000588025956,0.020977867767,0.062933601439,8.765751838684,0.003774281824,-2.800313297902,2.789499521255,-1.559543434774,1.574491262436,-0.787337128316,0.000588025956,0.000000000000,-0.000000000000,0.000000000000,0.000000000000,0.000000000000
0.798342000000,0.000010000000,11228.552000000000,-0.085829283742,-0.111135803885,0.318473173267,-0.001921130227,-0.006923424026,-2.352724278949,0.000058247398,-0.000044983995,0.000000000000,0.000000000000,0.000000000000,0.000524110103,-0.068927280605,0.056939929724,8.879631996155,0.003798250342,-2.800337139760,2.789511442184,-1.559579197560,1.574479222298,-0.787289444600,0.000524110103,0.000000000000,-0.000000000000,0.000000000000,0.000000000000,0.000000000000
0.806341000000,0.000010000000,11228.559999999999,-0.085825323835,-0.111139894793,0.318480158521,-0.001887121938,-0.006920877517,-2.352688298863,0.000052566659,-0.000040593439,0.000000000000,0.000000000000,0.000000000000,0.000472977408,-0.212775528431,-0.065930441022,8.984520912170,0.003834203118,-2.800349537526,2.789487600327,-1.559519116079,1.574467301369,-0.787289444600,0.000472977408,0.000000000000,-0.000000000000,0.000000000000,0.000000000000,0.000000000000
0.814337000000,0.000010000000,11228.567999999999,-0.085827213629,-0.111137772624,0.318480165357,-0.001938148634,-0.006883480262,-2.352748135493,0.000046882882,-0.000036205756,0.000000000000,0.000000000000,0.000000000000,0.000421844714,-0.173816621304,-0.077917799354,8.819695472717,0.003798250342,-2.800337139760,2.789499521255,-1.559591595327,1.574455261230,-0.787313286458,0.000421844714,0.000000000000,-0.000000000000,0.000000000000,0.000000000000,0.000000000000
0.822416000000,0.000010000000,11228.575999999999,-0.085831663730,-0.111137885170,0.318458048337,-0.001850410936,-0.006952393217,-2.352724252987,0.000042620846,-0.000032916032,0.000000000000,0.000000000000,0.000000000000,0.000383495208,-0.008990515023,0.032965220511,8.747771263123,0.003822218860,-2.800337139760,2.789535522461,-1.559543434774,1.574479222298,-0.787313286458,0.000383495208,0.000000000000,-0.000000000000,0.000000000000,0.000000000000,0.000000000000
0.830336000000,0.000010000000,11228.583999999999,-0.085836345249,-0.111132877238,0.318485226313,-0.001910457694,-0.006977480391,-2.352724136324,0.000039777664,-0.000030723305,0.000000000000,0.000000000000,0.000000000000,0.000357928860,0.002996838419,0.014984191395,8.858654022217,0.003798250342,-2.800301376973,2.789475679398,-1.559555355703,1.574515223503,-0.787289444600,0.000357928860,0.000000000000,-0.000000000000,0.000000000000,0.000000000000,0.000000000000
0.838335000000,0.000010000000,11228.591999999999,-0.085828913230,-0.111133833876,0.318489554708,-0.001960689951,-0.006940305165,-2.352771800454,0.000036936720,-0.000028526313,0.000000000000,0.000000000000,0.000000000000,0.000332362513,-0.158832430840,-0.047949414700,8.891619682312,0.003798250342,-2.800325218831,2.789475679398,-1.559579197560,1.574503183365,-0.787337128316,0.000332362513,0.000000000000,-0.000000000000,0.000000000000,0.000000000000,0.000000000000
0.846423000000,0.000010000000,11228.600000000000,-0.085826801357,-0.111137826548,0.318488334206,-0.001929312840,-0.006903681617,-2.352736065287,0.000034096659,-0.000026331334,0.000000000000,0.000000000000,0.000000000000,0.000306796166,-0.215772360563,-0.050946250558,8.852660179138,0.003810234601,-2.800337139760,2.789475679398,-1.559555355703,1.574467301369,-0.787313286458,0.000306796166,0.000000000000,-0.000000000000,0.000000000000,0.000000000000,0.000000000000
0.854398000000,0.000010000000,11228.608000000000,-0.085837886520,-0.111132801768,0.318495832675,-0.001913201275,-0.006943468365,-2.352783857817,0.000032674486,-0.000025237453,0.000000000000,0.000000000000,0.000000000000,0.000294012978,-0.083911471069,0.044952575117,8.840673446655,0.003774281824,-2.800301376973,2.789451599121,-1.559543434774,1.574491262436,-0.787325207387,0.000294012978,0.000000000000,-0.000000000000,0.000000000000,0.000000000000,0.000000000000
0.862336000000,0.000010000000,11228.616000000000,-0.085826965285,-0.111137830246,0.318481335531,-0.001901720963,-0.006914982673,-2.352748022181,0.000029834576,-0.000023039960,0.000000000000,0.000000000000,0.000000000000,0.000268446631,-0.014984191395,0.080914631486,8.819695472717,0.003810234601,-2.800349537526,2.789487600327,-1.559531513845,1.574467301369,-0.787325207387,0.000268446631,0.000000000000,-0.000000000000,0.000000000000,0.000000000000,0.000000000000
0.870415000000,0.000010000000,11228.624000000000,-0.085831665002,-0.111136851025,0.318471011203,-0.001892839580,-0.006935083566,-2.352760003007,0.000028413633,-0.000021944021,0.000000000000,0.000000000000,0.000000000000,0.000255663472,-0.077917799354,-0.059936765581,8.807707786560,0.003810234601,-2.800325218831,2.789511442184,-1.559567276631,1.574479222298,-0.787337128316,0.000255663472,0.000000000000,-0.000000000000,0.000000000000,0.000000000000,0.000000000000
0.878356000000,0.000010000000,11228.632000000000,-0.085836755858,-0.111129770224,0.318450935391,-0.001840480970,-0.007006127107,-2.352784107862,0.000026991232,-0.000020848057,0.000000000000,0.000000000000,0.000000000000,0.000242880298,-0.128864049911,-0.113879859447,8.873638153076,0.003762297798,-2.800361458455,2.789547443390,-1.559507671987,1.574515223503,-0.787313286458,0.000242880298,0.000000000000,-0.000000000000,0.000000000000,0.000000000000,0.000000000000
0.886346000000,0.000010000000,11228.639999999999,-0.085836825090,-0.111131926967,0.318480644136,-0.001921885818,-0.007005822228,-2.352747893964,0.000025571137,-0.000019750807,0.000000000000,0.000000000000,0.000000000000,0.000230097125,-0.089905150235,-0.038958899677,8.912597656250,0.003810234601,-2.800289456044,2.789487600327,-1.559579197560,1.574539184570,-0.787325207387,0.000230097125,0.000000000000,-0.000000000000,0.000000000000,0.000000000000,0.000000000000
0.894345000000,0.000010000000,11228.647999999999,-0.085835369496,-0.111129795898,0.318478079386,-0.001944988096,-0.006979921329,-2.352760031720,0.000024150055,-0.000018653223,0.000000000000,0.000000000000,0.000000000000,0.000217313951,-0.038958899677,0.062933601439,8.810704231262,0.003774281824,-2.800313297902,2.789499521255,-1.559591595327,1.574527263641,-0.787301365529,0.000217313951,0.000000000000,-0.000000000000,0.000000000000,0.000000000000,0.000000000000
0.902336000000,0.000010000000,11228.655999999999,-0.085831875734,-0.111132718127,0.318490740101,-0.001963864315,-0.006906077952,-2.352807806881,0.000022730061,-0.000017555260,0.000000000000,0.000000000000,0.000000000000,0.000204530777,-0.098895661533,0.047949414700,8.843669891357,0.003762297798,-2.800325218831,2.789475679398,-1.559591595327,1.574479222298,-0.787337128316,0.000204530777,0.000000000000,-0.000000000000,0.000000000000,0.000000000000,0.000000000000
0.910335000000,0.000010000000,11228.663999999999,-0.085835261280,-0.111129761091,0.318470897110,-0.001910528293,-0.006977448790,-2.352772074641,0.000022729456,-0.000017555953,0.000000000000,0.000000000000,0.000000000000,0.000204530777,-0.161829262972,-0.077917799354,8.840673446655,0.003762297798,-2.800337139760,2.789511442184,-1.559555355703,1.574515223503,-0.787301365529,0.000204530777,0.000000000000,-0.000000000000,0.000000000000,0.000000000000,0.000000000000
0.918407000000,0.000010000000,11228.671999999999,-0.085836249293,-0.111136837911,0.318490034329,-0.001887470820,-0.006920962010,-2.352759989814,0.000021310222,-0.000016458895,0.000000000000,0.000000000000,0.000000000000,0.000191747604,-0.113879859447,-0.092901989818,8.879631996155,0.003798250342,-2.800301376973,2.789463520050,-1.559543434774,1.574467301369,-0.787325207387,0.000191747604,0.000000000000,-0.000000000000,0.000000000000,0.000000000000,0.000000000000
0.926373000000,0.000010000000,11228.680000000000,-0.085838285048,-0.111129776549,0.318462710666,-0.001868047592,-0.006994881521,-2.352784050394,0.000019888277,-0.000015362000,0.000000000000,0.000000000000,0.000000000000,0.000178964430,-0.038958899677,0.023974707350,8.789727210999,0.003762297798,-2.800337139760,2.789523601532,-1.559531513845,1.574515223503,-0.787313286458,0.000178964430,0.000000000000,-0.000000000000,0.000000000000,0.000000000000,0.000000000000
0.934324000000,0.000010000000,11228.688000000000,-0.085835628455,-0.111132736781,0.318488532821,-0.001935348115,-0.006917740278,-2.352760148886,0.000019888807,-0.000015361524,0.000000000000,0.000000000000,0.000000000000,0.000178964430,-0.059936765581,0.035962060094,8.822691917419,0.003762297798,-2.800313297902,2.789475679398,-1.559579197560,1.574479222298,-0.787289444600,0.000178964430,0.000000000000,-0.000000000000,0.000000000000,0.000000000000,0.000000000000
0.942308000000,0.000010000000,11228.696000000000,-0.085826381370,-0.111136753282,0.318501199654,-0.001966105413,-0.006872045902,-2.352736136426,0.000018468845,-0.000014262736,0.000000000000,0.000000000000,0.000000000000,0.000166181257,-0.116876691580,-0.041955735534,8.864647865295,0.003786266083,-2.800337139760,2.789451599121,-1.559567276631,1.574455261230,-0.787289444600,0.000166181257,0.000000000000,-0.000000000000,0.000000000000,0.000000000000,0.000000000000
0.950405000000,0.000010000000,11228.704000000000,-0.085827513695,-0.111135749091,0.318485967858,-0.001958106791,-0.006891895291,-2.352748128659,0.000018468678,-0.000014262924,0.000000000000,0.000000000000,0.000000000000,0.000166181257,-0.116876691580,-0.086908310652,8.849663734436,0.003786266083,-2.800337139760,2.789487600327,-1.559591595327,1.574467301369,-0.787301365529,0.000166181257,0.000000000000,-0.000000000000,0.000000000000,0.000000000000,0.000000000000
0.958337000000,0.000010000000,11228.712000000000,-0.085836332656,-0.111130802713,0.318481581672,-0.001924520114,-0.006971760188,-2.352771960469,0.000017047252,-0.000013167129,0.000000000000,0.000000000000,0.000000000000,0.000153398083,-0.065930441022,0.017981030047,8.852660179138,0.003774281824,-2.800313297902,2.789487600327,-1.559567276631,1.574515223503,-0.787313286458,0.000153398083,0.000000000000,-0.000000000000,0.000000000000,0.000000000000,0.000000000000
0.966336000000,0.000010000000,11228.719999999999,-0.085844762181,-0.111132721092,0.318467822836,-0.001845311791,-0.006938280190,-2.352772312114,0.000017047546,-0.000013168422,0.000000000000,0.000000000000,0.000000000000,0.000153398083,-0.056939929724,0.038958899677,8.870641708374,0.003750313539,-2.800301376973,2.789511442184,-1.559555355703,1.574467301369,-0.787289444600,0.000153398083,0.000000000000,-0.000000000000,0.000000000000,0.000000000000,0.000000000000
0.974409000000,0.000010000000,11228.727999999999,-0.085836530504,-0.111134767559,0.318479233660,-0.001873243570,-0.006926772707,-2.352772088842,0.000015627205,-0.000012069896,0.000000000000,0.000000000000,0.000000000000,0.000140614909,-0.113879859447,-0.008990515023,8.864647865295,0.003774281824,-2.800325218831,2.789487600327,-1.559531513845,1.574467301369,-0.787313286458,0.000140614909,0.000000000000,-0.000000000000,0.000000000000,0.000000000000,0.000000000000
0.982335000000,0.000010000000,11228.735999999999,-0.085826744493,-0.111133768517,0.318480047257,-0.001955551062,-0.006925941693,-2.352771937404,0.000015627065,-0.000012068520,0.000000000000,0.000000000000,0.000000000000,0.000140614909,-0.140851408243,-0.092901989818,8.840673446655,0.003786266083,-2.800349537526,2.789499521255,-1.559579197560,1.574491262436,-0.787325207387,0.000140614909,0.000000000000,-0.000000000000,0.000000000000,0.000000000000,0.000000000000
0.990334000000,0.000010000000,11228.743999999999,-0.085833194344,-0.111132826575,0.318486159557,-0.001918649660,-0.006957548123,-2.352759966181,0.000015626932,-0.000012069427,0.000000000000,0.000000000000,0.000000000000,0.000140614909,-0.101892501116,-0.026971545070,8.804711341858,0.003786266083,-2.800325218831,2.789475679398,-1.559543434774,1.574503183365,-0.787313286458,0.000140614909,0.000000000000,-0.000000000000,0.000000000000,0.000000000000,0.000000000000
0.998330000000,0.000010000000,11228.751999999999,-0.085825619470,-0.111132732759,0.318474037622,-0.001941561966,-0.006931638127,-2.352772020435,0.000014206290,-0.000010971238,0.000000000000,0.000000000000,0.000000000000,0.000127831736,-0.059936765581,0.032965220511,8.888622283936,0.003774281824,-2.800373379384,2.789511442184,-1.559555355703,1.574491262436,-0.787313286458,0.000127831736,0.000000000000,-0.000000000000,0.000000000000,0.000000000000,0.000000000000
1.006421000000,0.000010000000,11228.760000000000,-0.085842711610,-0.111132815703,0.318483072598,-0.001870798016,-0.006960852298,-2.352772032793,-0.000002841260,0.000002194685,0.000000000000,0.000000000000,0.000000000000,-0.000025566347,-0.059936765581,-0.008990515023,8.867644309998,0.003774281824,-2.800289456044,2.789475679398,-1.559543434774,1.574491262436,-0.787313286458,-0.000025566347,0.000000000000,-0.000000000000,0.000000000000,0.000000000000,0.000000000000
1.014424000000,0.000010000000,11228.768000000000,-0.085833284600,-0.111131724388,0.318473169035,-0.001926980228,-0.006937726805,-2.352795962904,-0.000002841232,0.000002194444,0.000000000000,0.000000000000,0.000000000000,-0.000025566347,-0.101892501116,-0.059936765581,8.810704231262,0.003762297798,-2.800337139760,2.789511442184,-1.559579197560,1.574491262436,-0.787325207387,-0.000025566347,0.000000000000,-0.000000000000,0.000000000000,0.000000000000,0.000000000000
1.022429000000,0.000010000000,11228.776000000000,-0.085835673076,-0.111135839576,0.318474655852,-0.001878843753,-0.006940882361,-2.352771972925,-0.000002841337,0.000002194505,0.000000000000,0.000000000000,0.000000000000,-0.000025566347,-0.113879859447,-0.047949414700,8.852660179138,0.003798250342,-2.800313297902,2.789499521255,-1.559555355703,1.574479222298,-0.787337128316,-0.000025566347,0.000000000000,-0.000000000000,0.000000000000,0.000000000000,0.000000000000
1.030428000000,0.000010000000,11228.784000000000,-0.085837289270,-0.111135758351,0.318480471005,-0.001881448720,-0.006906859853,-2.352784042878,-0.000002841335,0.000002194546,0.000000000000,0.000000000000,0.000000000000,-0.000025566347,-0.086908310652,0.026971545070,8.849663734436,0.003774281824,-2.800313297902,2.789487600327,-1.559555355703,1.574455261230,-0.787325207387,-0.000025566347,0.000000000000,-0.000000000000,0.000000000000,0.000000000000,0.000000000000
1.038431000000,0.000010000000,11228.791999999999,-0.085839673935,-0.111131759848,0.318474651620,-0.001884839148,-0.006955068825,-2.352795973606,-0.000002841233,0.000002194607,0.000000000000,0.000000000000,0.000000000000,-0.000025566347,-0.071924120188,0.005993676838,8.846666336060,0.003762297798,-2.800313297902,2.789499521255,-1.559555355703,1.574491262436,-0.787325207387,-0.000025566347,0.000000000000,-0.000000000000,0.000000000000,0.000000000000,0.000000000000
1.046418000000,0.000010000000,11228.799999999999,-0.085837552859,-0.111134774932,0.318478056626,-0.001858591733,-0.006932797738,-2.352784017272,-0.000002841310,0.000002194553,0.000000000000,0.000000000000,0.000000000000,-0.000025566347,-0.101892501116,-0.041955735534,8.879631996155,0.003774281824,-2.800325218831,2.789487600327,-1.559519116079,1.574467301369,-0.787325207387,-0.000025566347,0.000000000000,-0.000000000000,0.000000000000,0.000000000000,0.000000000000
1.054377000000,0.000010000000,11228.807999999999,-0.085835480957,-0.111132691848,0.318481395746,-0.001901398725,-0.006915265607,-2.352807953394,-0.000002841257,0.000002194500,0.000000000000,0.000000000000,0.000000000000,-0.000025566347,-0.137854561210,-0.035962060094,8.861651420593,0.003750313539,-2.800337139760,2.789487600327,-1.559543434774,1.574467301369,-0.787325207387,-0.000025566347,0.000000000000,-0.000000000000,0.000000000000,0.000000000000,0.000000000000
1.062383000000,0.000010000000,11228.815999999999,-0.085835563282,-0.111131799211,0.318480352802,-0.001904639807,-0.006963311752,-2.352771989442,-0.000002841234,0.000002194502,0.000000000000,0.000000000000,0.000000000000,-0.000025566347,-0.086908310652,0.014984191395,8.831682205200,0.003774281824,-2.800325218831,2.789487600327,-1.559543434774,1.574503183365,-0.787313286458,-0.000025566347,0.000000000000,-0.000000000000,0.000000000000,0.000000000000,0.000000000000
1.070425000000,0.000010000000,11228.823999999999,-0.085838570414,-0.111129689886,0.318481488743,-0.001913070928,-0.006943511469,-2.352807964920,-0.000002841180,0.000002194579,0.000000000000,0.000000000000,0.000000000000,-0.000025566347,-0.077917799354,-0.005993676838,8.840673446655,0.003738329280,-2.800325218831,2.789487600327,-1.559555355703,1.574491262436,-0.787313286458,-0.000025566347,0.000000000000,-0.000000000000,0.000000000000,0.000000000000,0.000000000000
1.078430000000,0.000010000000,11228.832000000000,-0.085840993921,-0.111133742744,0.318461697149,-0.001830839211,-0.006944166046,-2.352784189503,-0.000002841284,0.000002194641,0.000000000000,0.000000000000,0.000000000000,-0.000025566347,-0.113879859447,-0.008990515023,8.897612571716,0.003762297798,-2.800325218831,2.789523601532,-1.559531513845,1.574467301369,-0.787313286458,-0.000025566347,0.000000000000,-0.000000000000,0.000000000000,0.000000000000,0.000000000000
1.086399000000,0.000010000000,11228.840000000000,-0.085839281798,-0.111130823981,0.318478186416,-0.001882397328,-0.006989027126,-2.352760062466,-0.000002841209,0.000002194597,0.000000000000,0.000000000000,0.000000000000,-0.000025566347,-0.125867202878,-0.050946250558,8.879631996155,0.003774281824,-2.800313297902,2.789487600327,-1.559531513845,1.574515223503,-0.787301365529,-0.000025566347,0.000000000000,-0.000000000000,0.000000000000,0.000000000000,0.000000000000
1.094426000000,0.000010000000,11228.848000000000,-0.085829620142,-0.111128663231,0.318474033420,-0.001947391092,-0.006945771063,-2.352831783680,-0.000002841154,0.000002194350,0.000000000000,0.000000000000,0.000000000000,-0.000025566347,-0.086908310652,-0.041955735534,8.876635551453,0.003738329280,-2.800373379384,2.789511442184,-1.559555355703,1.574503183365,-0.787337128316,-0.000025566347,0.000000000000,-0.000000000000,0.000000000000,0.000000000000,0.000000000000
1.102404000000,0.000010000000,11228.856000000000,-0.085843983623,-0.111132730046,0.318471219431,-0.001830582294,-0.006944352881,-2.352808040958,-0.000002841258,0.000002194717,0.000000000000,0.000000000000,0.000000000000,-0.000025566347,-0.062933601439,-0.008990515023,8.840673446655,0.003750313539,-2.800313297902,2.789499521255,-1.559519116079,1.574467301369,-0.787325207387,-0.000025566347,0.000000000000,-0.000000000000,0.000000000000,0.000000000000,0.000000000000
1.110333000000,0.000010000000,11228.864000000000,-0.085831666420,-0.111127677919,0.318466974572,-0.001924856107,-0.006971574807,-2.352819879377,-0.000002841129,0.000002194402,0.000000000000,0.000000000000,0.000000000000,-0.000025566347,-0.107886180282,0.008990515023,8.888622283936,0.003738329280,-2.800373379384,2.789523601532,-1.559543434774,1.574515223503,-0.787325207387,-0.000025566347,0.000000000000,-0.000000000000,0.000000000000,0.000000000000,0.000000000000
1.118329000000,0.000010000000,11228.871999999999,-0.085830457500,-0.111128713187,0.318496503568,-0.001995079633,-0.006942869289,-2.352819647731,-0.000002841155,0.000002194371,0.000000000000,0.000000000000,0.000000000000,-0.000025566347,-0.116876691580,-0.041955735534,8.882628440857,0.003750313539,-2.800337139760,2.789463520050,-1.559579197560,1.574515223503,-0.787337128316,-0.000025566347,0.000000000000,-0.000000000000,0.000000000000,0.000000000000,0.000000000000
1.126322000000,0.000010000000,11228.879999999999,-0.085835855989,-0.111126707562,0.318482506342,-0.001944517999,-0.006980172116,-2.352807854339,-0.000002841104,0.000002194509,0.000000000000,0.000000000000,0.000000000000,-0.000025566347,-0.104889340699,-0.008990515023,8.888622283936,0.003738329280,-2.800337139760,2.789487600327,-1.559555355703,1.574527263641,-0.787313286458,-0.000025566347,0.000000000000,-0.000000000000,0.000000000000,0.000000000000,0.000000000000
1.134331000000,0.000010000000,11228.887999999999,-0.085839143364,-0.111127680249,0.318480251396,-0.001904818825,-0.006963319844,-2.352819916267,-0.000002841129,0.000002194593,0.000000000000,0.000000000000,0.000000000000,-0.000025566347,-0.077917799354,0.017981030047,8.843669891357,0.003726345021,-2.800337139760,2.789487600327,-1.559531513845,1.574503183365,-0.787313286458,-0.000025566347,0.000000000000,-0.000000000000,0.000000000000,0.000000000000,0.000000000000
1.142324000000,0.000010000000,11228.895999999999,-0.085833586578,-0.111133762485,0.318482624703,-0.001921128656,-0.006923560468,-2.352783956838,-0.000002841284,0.000002194451,0.000000000000,0.000000000000,0.000000000000,-0.000025566347,-0.083911471069,0.002996838419,8.834679603577,0.003774281824,-2.800325218831,2.789487600327,-1.559567276631,1.574479222298,-0.787325207387,-0.000025566347,0.000000000000,-0.000000000000,0.000000000000,0.000000000000,0.000000000000
1.150397000000,0.000020000000,11228.903999999999,-0.085830491245,-0.111129729136,0.318469486199,-0.001953373720,-0.006959896734,-2.352819756306,-0.000002841181,0.000002194372,0.000000000000,0.000000000000,0.000000000000,-0.000025566347,-0.107886180282,-0.035962060094,8.807707786560,0.003762297798,-2.800349537526,2.789523601532,-1.559591595327,1.574515223503,-0.787349049245,-0.000025566347,0.000000000000,-0.000000000000,0.000000000000,0.000000000000,0.000000000000
1.158329000000,0.000040000000,11228.912000000000,-0.085840252248,-0.111128756535,0.318473410015,-0.001882369475,-0.006989101750,-2.352819814941,-0.000002841156,0.000002194622,0.000000000000,0.000000000000,0.000000000000,-0.000025566347,-0.041955735534,0.029968382791,8.819695472717,0.003750313539,-2.800325218831,2.789499521255,-1.559531513845,1.574515223503,-0.787337128316,-0.000025566347,0.000000000000,-0.000000000000,0.000000000000,0.000000000000,0.000000000000
1.166319000000,0.000130000000,11228.920000000000,-0.085834759851,-0.111132855570,0.318471099899,-0.001910366692,-0.006977495472,-2.352748062638,-0.000002841261,0.000002194481,0.000000000000,0.000000000000,0.000000000000,-0.000025566347,0.428547888994,0.551418244839,8.993512153625,0.003798250342,-2.800313297902,2.789511442184,-1.559579197560,1.574515223503,-0.787313286458,-0.000025566347,0.000000000000,-0.000000000000,0.000000000000,0.000000000000,0.000000000000
1.174318000000,0.000270000000,11228.928000000000,-0.085830890088,-0.111131860812,0.318487282763,-0.001944258044,-0.006980196316,-2.352759832746,-0.000002841236,0.000002194382,0.000000000000,0.000000000000,0.000000000000,-0.000025566347,0.926023066044,0.994950354099,8.861651420593,0.003798250342,-2.800325218831,2.789475679398,-1.559555355703,1.574527263641,-0.787325207387,-0.000025566347,0.000000000000,-0.000000000000,0.000000000000,0.000000000000,0.000000000000
1.182321000000,0.000470000000,11228.936000000000,-0.085839281798,-0.111130823981,0.318478186416,-0.001882286956,-0.006989115004,-2.352795825080,-0.000002841209,0.000002194597,0.000000000000,0.000000000000,0.000000000000,-0.000025566347,0.839114725590,0.958988249302,8.783733367920,0.003774281824,-2.800313297902,2.789487600327,-1.559531513845,1.574515223503,-0.787337128316,-0.000025566347,0.000000000000,-0.000000000000,0.000000000000,0.000000000000,0.000000000000
1.190311000000,0.000700000000,11228.944000000000,-0.085841736953,-0.111126779140,0.318480542793,-0.001922223372,-0.007005748323,-2.352772042373,-0.000002841106,0.000002194660,0.000000000000,0.000000000000,0.000000000000,-0.000025566347,0.113879859447,0.152838751674,8.810704231262,0.003750313539,-2.800301376973,2.789487600327,-1.559567276631,1.574539184570,-0.787289444600,-0.000025566347,0.000000000000,-0.000000000000,0.000000000000,0.000000000000,0.000000000000
1.198350000000,0.000960000000,11228.951999999999,-0.085834941524,-0.111132830832,0.318486260943,-0.001918620839,-0.006957596215,-2.352771896801,-0.000002841261,0.000002194486,0.000000000000,0.000000000000,0.000000000000,-0.000025566347,-0.116876691580,-0.047949414700,8.882628440857,0.003786266083,-2.800313297902,2.789475679398,-1.559555355703,1.574503183365,-0.787325207387,-0.000025566347,0.000000000000,-0.000000000000,0.000000000000,0.000000000000,0.000000000000
1.206410000000,0.001230000000,11228.959999999999,-0.085825837566,-0.111134886549,0.318467177486,-0.001924470881,-0.006971624997,-2.352759851440,-0.000002841313,0.000002194253,0.000000000000,0.000000000000,0.000000000000,-0.000025566347,0.068927280605,0.134857729077,8.891619682312,0.003822218860,-2.800349537526,2.789523601532,-1.559567276631,1.574515223503,-0.787349049245,-0.000025566347,0.000000000000,-0.000000000000,0.000000000000,0.000000000000,0.000000000000
1.214361000000,0.001540000000,11228.967999999999,-0.085840515005,-0.111131848308,0.318474845871,-0.001896378992,-0.006983313173,-2.352760042519,-0.000002841235,0.000002194628,0.000000000000,0.000000000000,0.000000000000,-0.000025566347,0.317664861679,0.413563698530,8.879631996155,0.003786266083,-2.800289456044,2.789499521255,-1.559579197560,1.574515223503,-0.787313286458,-0.000025566347,0.000000000000,-0.000000000000,0.000000000000,0.000000000000,0.000000000000
1.222409000000,0.001900000000,11228.975999999999,-0.085836528578,-0.111130715662,0.318475580582,-0.001898960125,-0.006949243456,-2.352796009959,-0.000002841206,0.000002194526,0.000000000000,0.000000000000,0.000000000000,-0.000025566347,0.617348670959,0.683279156685,8.876635551453,0.003750313539,-2.800337139760,2.789499521255,-1.559543434774,1.574491262436,-0.787313286458,-0.000025566347,0.000000000000,-0.000000000000,0.000000000000,0.000000000000,0.000000000000
1.230381000000,0.002300000000,11228.984000000000,-0.085835929907,-0.111131844288,0.318485124948,-0.001910238769,-0.006977675605,-2.352820033711,-0.000002841235,0.000002194511,0.000000000000,0.000000000000,0.000000000000,-0.000025566347,0.539430916309,0.659304440022,8.795720100403,0.003786266083,-2.800313297902,2.789475679398,-1.559543434774,1.574515223503,-0.787373367940,-0.000025566347,0.000000000000,-0.000000000000,0.000000000000,0.000000000000,0.000000000000
1.238316000000,0.002730000000,11228.992000000000,-0.085839517908,-0.111130800812,0.318459370212,-0.001882066051,-0.006989138073,-2.352772109877,-0.000002841209,0.000002194603,0.000000000000,0.000000000000,0.000000000000,-0.000025566347,0.200788170099,0.278705954552,8.909600257874,0.003774281824,-2.800313297902,2.789535522461,-1.559579197560,1.574515223503,-0.787313286458,-0.000025566347,0.000000000000,-0.000000000000,0.000000000000,0.000000000000,0.000000000000
1.246394000000,0.003210000000,11229.000000000000,-0.085835730879,-0.111130834617,0.318482855767,-0.001944842518,-0.006980030800,-2.352783788441,-0.000002841209,0.000002194506,0.000000000000,0.000000000000,0.000000000000,-0.000025566347,0.131860882044,0.155835598707,8.921587944031,0.003786266083,-2.800301376973,2.789487600327,-1.559591595327,1.574527263641,-0.787337128316,-0.000025566347,0.000000000000,-0.000000000000,0.000000000000,0.000000000000,0.000000000000
1.254372000000,0.003720000000,11229.008000000000,-0.085844095141,-0.111127729087,0.318474744528,-0.001896521684,-0.006983351034,-2.352819890213,-0.000002841130,0.000002194720,0.000000000000,0.000000000000,0.000000000000,-0.000025566347,0.350630074739,0.341639578342,8.873638153076,0.003738329280,-2.800301376973,2.789499521255,-1.559567276631,1.574515223503,-0.787325207387,-0.000025566347,0.000000000000,-0.000000000000,0.000000000000,0.000000000000,0.000000000000
1.262326000000,0.004260000000,11229.016000000000,-0.085832613580,-0.111128847287,0.318470884315,-0.001927872170,-0.007019850546,-2.352736092402,-0.000002841159,0.000002194426,0.000000000000,0.000000000000,0.000000000000,-0.000025566347,0.383595317602,0.365614265203,8.882628440857,0.003786266083,-2.800337139760,2.789511442184,-1.559555355703,1.574551224709,-0.787289444600,-0.000025566347,0.000000000000,-0.000000000000,0.000000000000,0.000000000000,0.000000000000
1.270319000000,0.004850000000,11229.023999999999,-0.085827132701,-0.111131801606,0.318502456926,-0.002009746506,-0.006936732679,-2.352724060881,-0.000002841234,0.000002194286,0.000000000000,0.000000000000,0.000000000000,-0.000025566347,0.254731267691,0.179810300469,8.930578231812,0.003786266083,-2.800325218831,2.789451599121,-1.559591595327,1.574515223503,-0.787277523671,-0.000025566347,0.000000000000,-0.000000000000,0.000000000000,0.000000000000,0.000000000000
1.278316000000,0.005470000000,11229.031999999999,-0.085831502079,-0.111131782423,0.318494345856,-0.001961104087,-0.006940181349,-2.352783815759,-0.000014206169,0.000010971990,0.000000000000,0.000000000000,0.000000000000,-0.000127831736,0.395582646132,0.290693312883,8.879631996155,0.003774281824,-2.800325218831,2.789463520050,-1.559567276631,1.574503183365,-0.787325207387,-0.000127831736,0.000000000000,-0.000000000000,0.000000000000,0.000000000000,0.000000000000
1.286312000000,0.006130000000,11229.039999999999,-0.085823073545,-0.111130704281,0.318512692956,-0.002074209452,-0.006893771193,-2.352771819942,-0.000014206031,0.000010970912,0.000000000000,0.000000000000,0.000000000000,-0.000127831736,0.509462535381,0.581386625767,8.879631996155,0.003762297798,-2.800337139760,2.789439678192,-1.559627358113,1.574503183365,-0.787301365529,-0.000127831736,0.000000000000,-0.000000000000,0.000000000000,0.000000000000,0.000000000000
1.294317000000,0.006830000000,11229.047999999999,-0.085846674770,-0.111126510228,0.318488557354,-0.001867667743,-0.006912665085,-2.352844141146,-0.002023580714,0.001811062781,0.001793311807,-0.000020543362,0.003681495517,-0.021089314722,0.308674335480,0.299683839083,9.065436363220,0.003666423960,-2.800337139760,2.789463520050,-1.559495274221,1.574455261230,-0.787277523671,-0.021092236042,0.000000000000,-0.003681553993,0.000000000000,0.000000000000,0.000000000000
1.302310000000,0.007580000000,11229.055999999999,-0.085842513304,-0.111123418223,0.318528128680,-0.001953093930,-0.006877687280,-2.352843101545,-0.000708991793,0.000479945532,0.002437188669,0.000002843155,-0.001364596078,-0.005617615259,0.152838751674,0.113879859447,9.035467147827,0.003630471183,-2.800349537526,2.789379835129,-1.559471432363,1.574455261230,-0.787240807210,-0.005637379363,0.000000000000,-0.006544984877,0.007909588516,0.000000000000,0.000000000000
1.310313000000,0.008360000000,11229.064000000000,-0.085858002882,-0.111128185519,0.318540214715,-0.001804431145,-0.006757516668,-2.352951982755,-0.000296899375,-0.001089494142,0.002439147168,0.014388770068,-0.002377360371,-0.001159303931,0.407570004463,0.866086304188,8.531998634338,0.003558565862,-2.800337139760,2.789331912994,-1.559363667165,1.574323534966,-0.787277523671,-0.001188835129,0.000000000000,-0.006800648291,0.009251821786,-0.014381070621,0.000000000000
1.318315000000,0.009160000000,11229.072000000000,-0.085865347776,-0.111116166344,0.318567291352,-0.001831585505,-0.006861824405,-2.352867029859,-0.001816292147,0.000761769009,0.004302237908,0.002725476692,-0.007042382538,0.001492253064,0.557411909103,0.500472009182,9.143353462219,0.003498644801,-2.800337139760,2.789259910583,-1.559279743825,1.574407339096,-0.787133042012,-0.011594338343,0.000000000000,-0.012693691067,0.019821908325,-0.002708434826,0.013038837351
1.326317000000,0.010010000000,11229.080000000000,-0.085855259603,-0.111142702495,0.318632521868,-0.001708953801,-0.006401133128,-2.352951617235,0.001053884501,-0.000455022534,0.007992714090,0.016775404755,0.009993647785,-0.004194304551,-0.350630074739,0.014984191395,9.134363174438,0.003450707765,-2.800409142171,2.789103984833,-1.559099976216,1.574036240578,-0.787169281636,-0.010878480971,-0.009242234752,-0.018177673221,0.017544906586,-0.016825852916,0.006639260799
1.334329000000,0.010900000000,11229.088000000000,-0.085866654516,-0.111125545853,0.318697069812,-0.001792774953,-0.006482589715,-2.352962599753,-0.001560111286,-0.002615695546,0.006830274917,0.048245240894,-0.013273159471,0.009782203695,0.602364480495,0.704257011414,8.993512153625,0.003330865642,-2.800397221242,2.788948297501,-1.558992211019,1.574120163918,-0.787061039601,-0.016042882577,-0.008372978307,-0.020862139761,0.042879559100,-0.048200555146,0.025718146935
1.342319000000,0.011840000000,11229.096000000000,-0.085853800354,-0.111135097617,0.318789914647,-0.001796011189,-0.006167654622,-2.352950139564,-0.000636722879,0.000734036371,0.011534532743,0.008967451075,0.005827682670,-0.002869985373,0.170819789171,0.518453061581,9.212281227112,0.003223007545,-2.800504986440,2.788732528687,-1.558764282857,1.573892474174,-0.786940876638,-0.017321199179,-0.004601942375,-0.028122982010,0.027012443170,-0.009012137540,0.014381070621
1.350422000000,0.012820000000,11229.103999999999,-0.085844791587,-0.111131808850,0.318871125277,-0.001846744274,-0.006047645388,-2.352925947272,0.000489215399,-0.002670829965,0.013057908686,0.050831334169,0.001372778486,0.034871688888,0.797159016132,0.377601623535,8.954552650452,0.003115149448,-2.800600830709,2.788540840149,-1.558548752462,1.573820471764,-0.786809269582,-0.017922008410,-0.015122494660,-0.033376865089,0.047625310719,-0.050861053169,0.052682653069
1.358330000000,0.013820000000,11229.111999999999,-0.085851111149,-0.111141324450,0.318984596306,-0.001671620329,-0.005740196934,-2.353009521493,0.000588902253,-0.000114621764,0.017787300665,0.025853531571,0.010596457460,-0.013652084921,0.011987353675,-0.185803979635,9.374110221863,0.002959354548,-2.800684754048,2.788241147995,-1.558129135762,1.573544859886,-0.786737267171,-0.023712787777,-0.014496118762,-0.043130427599,0.047193881124,-0.025909895077,0.009946906939
1.366341000000,0.014860000000,11229.119999999999,-0.085845997442,-0.111146651145,0.319156091525,-0.001689494577,-0.005336780235,-2.353009140709,0.000336402795,-0.001663661754,0.021401921625,0.048440688467,0.010666000332,0.021216832714,0.350630074739,0.287696480751,9.314173698425,0.002743638586,-2.800792996083,2.787833690643,-1.557745758687,1.573257207870,-0.786521736776,-0.027458256111,-0.015250326134,-0.052398227155,0.057404439896,-0.048512145877,0.048536114395
1.374426000000,0.015960000000,11229.127999999999,-0.085839265342,-0.111152892659,0.319342463021,-0.001646405131,-0.004909444850,-2.353068390920,-0.000031835457,-0.002150578798,0.024668810678,0.059496203977,0.006252231432,-0.009935836517,0.740219056606,0.452522575855,9.284205436707,0.002503954107,-2.800948444997,2.787378311157,-1.557230297719,1.572934031487,-0.786341969167,-0.032469261438,-0.018471686170,-0.061844993383,0.074398070574,-0.059537630528,0.022362563759
1.382407000000,0.017070000000,11229.135999999999,-0.085840923768,-0.111171048517,0.319549240150,-0.001481076555,-0.004300614086,-2.353066983265,-0.000218703508,-0.001490190595,0.024407871812,0.050486934806,0.005612152133,-0.006921183916,0.347633242607,0.563405632973,9.158337593079,0.002240675502,-2.801080528890,2.786863088608,-1.556643788015,1.572442650795,-0.786077801381,-0.031510524452,-0.016733173281,-0.061295315623,0.072696313262,-0.050525493920,0.024423850700
1.390348000000,0.018220000000,11229.144000000000,-0.085825930774,-0.111177383011,0.319765954170,-0.001584373203,-0.003828289244,-2.353065921602,0.000382265582,-0.001014256004,0.021037234361,0.039452119923,0.011095311721,-0.002225749005,-0.080914631486,0.170819789171,8.280263900757,0.002012975281,-2.801212135945,2.786359786987,-1.556224171315,1.572130680084,-0.785849873220,-0.026384470984,-0.014163755812,-0.051311656833,0.054600130767,-0.039500005543,0.024040356278
1.398314000000,0.019420000000,11229.152000000000,-0.085817743671,-0.111191787540,0.319891602479,-0.001478772995,-0.003409938859,-2.353053526003,-0.000299149948,-0.000822475748,0.016271406246,0.030952306757,0.001807219501,-0.006957844007,0.422554194927,0.161829262972,7.881684780121,0.001857180381,-2.801344219838,2.786048173904,-1.555828396474,1.571795582771,-0.785682026540,-0.020414728671,-0.010584468022,-0.041315216571,0.050237871706,-0.030967239290,0.013350427151
1.406310000000,0.020630000000,11229.160000000000,-0.085824137764,-0.111196319758,0.319996718616,-0.001340612652,-0.003153185353,-2.353125014415,-0.000295490416,-0.000835100895,0.011209222430,0.026148955626,-0.001167292592,0.002881477854,0.065930441022,0.308674335480,8.172378540039,0.001689401222,-2.801428143178,2.785772562027,-1.555445019399,1.571567893028,-0.785586182271,-0.015582688153,-0.009127185680,-0.029094502330,0.039523974061,-0.026149580255,0.018383800983
1.414313000000,0.021880000000,11229.168000000000,-0.085836157334,-0.111207078866,0.320054492785,-0.001143096076,-0.002953925687,-2.353100871458,0.000207691636,-0.001016775606,0.005397072879,0.018261236236,0.000250401286,0.007189653375,0.011987353675,0.299683839083,8.540988922119,0.001617495902,-2.801440064107,2.785604715347,-1.555181328450,1.571364164352,-0.785490338002,-0.005790777504,-0.005023787264,-0.013831393793,0.018695391715,-0.018263960257,0.012942963280
1.422312000000,0.023170000000,11229.175999999999,-0.085849574742,-0.111214062044,0.320047984104,-0.000960787630,-0.002913514707,-2.353112811127,-0.000611084896,-0.000544698328,0.001593353511,0.011784126918,-0.005213363701,-0.006484459075,0.116876691580,0.443532079458,8.235311508179,0.001617495902,-2.801415745412,2.785592794418,-1.555073563253,1.571280241013,-0.785502258931,-0.005023787264,-0.002313754521,-0.005381715950,0.012942963280,-0.011768509634,-0.001486043911
1.430378000000,0.024510000000,11229.183999999999,-0.085842405671,-0.111206192860,0.320032534643,-0.001061838781,-0.003036917959,-2.353124589087,0.000802000979,0.000819337607,-0.006037417184,-0.021096934000,0.003124026283,0.009303739359,0.035962060094,0.755203247070,8.403134346008,0.001641464303,-2.801428143178,2.785640716553,-1.555145565663,1.571400046349,-0.785538021718,0.010840130970,0.003758253064,0.016247414052,-0.023201460019,0.021092236042,-0.001486043911
1.438381000000,0.025880000000,11229.191999999999,-0.085885581979,-0.111197678496,0.319965465667,-0.000654639044,-0.003452719894,-2.352944668107,-0.002380023089,0.002154044157,0.009542784798,-0.031257368697,-0.024057144288,0.004810351486,1.090849161148,-0.125867202878,8.777739524841,0.001713369740,-2.801319901143,2.785712480545,-1.554905716573,1.571579813957,-0.785430256520,0.004704207648,0.007503722794,-0.029976541176,0.046426888555,0.031302798539,0.000000000000
1.446337000000,0.027280000000,11229.199999999999,-0.085883634350,-0.111160164050,0.320018143505,-0.000828227827,-0.003992068486,-2.353159716715,-0.000386762573,0.003602546185,0.008441787790,-0.047195730134,-0.005223534153,0.003295474460,-0.407570004463,0.221766039729,11.459909439087,0.001701385481,-2.801356140767,2.785568714142,-1.554690663015,1.572022914886,-0.785634342824,0.003246926004,0.003131877398,-0.022702915594,0.024639567360,0.047193881124,0.000000000000
1.454340000000,0.028730000000,11229.207999999999,-0.085870658971,-0.111125504615,0.320191477409,-0.001234807434,-0.004336729083,-2.353121707387,0.001465452472,0.004187040185,0.020570047319,-0.051014270925,0.017259097519,-0.002456875474,-0.194794490933,0.170819789171,10.000449180603,0.001653448562,-2.801356140767,2.785172939301,-1.554486576711,1.572394371033,-0.785549942647,0.000000000000,0.001879126532,-0.048218131065,0.028905952349,0.050932958722,-0.002540655667
1.462312000000,0.030220000000,11229.216000000000,-0.085855760579,-0.111090011887,0.320376693135,-0.001643013120,-0.004763850108,-2.353072117811,-0.000752061727,0.005846485384,0.022263234361,-0.071226104088,-0.000878154668,-0.002397159432,0.476497292519,0.485487818718,9.320167541504,0.001653448562,-2.801344219838,2.784741401672,-1.554235283528,1.572826147079,-0.785502258931,0.000000000000,0.007184143644,-0.056808423251,0.050261840224,0.071186296642,-0.002540655667
1.470305000000,0.031740000000,11229.224000000000,-0.085859197973,-0.111044013627,0.320578154460,-0.001931208643,-0.005504041674,-2.353009572727,-0.000376202302,0.006952945214,0.028037269848,-0.085289748298,0.002281302973,-0.001818201591,0.590377151966,-0.032965220511,8.831682205200,0.001713369740,-2.801260296498,2.784226179123,-1.553791824971,1.573449015617,-0.785502258931,0.000549676479,0.007529288996,-0.070767648518,0.060664147139,0.085231810808,-0.002540655667
1.478405000000,0.033330000000,11229.232000000000,-0.085843661317,-0.110982032608,0.320813563956,-0.002374131386,-0.006378456437,-2.352982147333,0.001141010822,0.007870944080,0.031707183399,-0.100022421204,0.007740572943,0.001640666133,0.563405632973,-0.560408771038,8.990514755249,0.001725353883,-2.801296059285,2.783638954163,-1.553228680287,1.574215650558,-0.785490338002,0.003988350276,0.003425890580,-0.078910529613,0.067399285734,0.099948436022,-0.002540655667
1.486410000000,0.034950000000,11229.240000000000,-0.085841185852,-0.110908178989,0.321089556204,-0.002852936621,-0.007420571751,-2.352989606293,0.000452974150,0.010070535017,0.035774541021,-0.126525753978,0.002590422651,0.002076980653,0.338642746210,-0.305677503347,9.305183410645,0.001725353883,-2.801260296498,2.782943725586,-1.552604977285,1.575114488602,-0.785502258931,0.003758253064,0.005726861767,-0.090504869819,0.081756383181,0.126457542181,-0.001917476067
1.494391000000,0.036590000000,11229.248000000000,-0.085869489015,-0.110817661301,0.321361032154,-0.003190977856,-0.008801108186,-2.352984315117,-0.001576264507,0.010787584617,0.038801905807,-0.133577139167,-0.008565288331,0.000782087706,0.443532079458,-0.095898829401,9.835623741150,0.001725353883,-2.801128212606,2.782212495804,-1.551838223134,1.576216578484,-0.785502258931,0.002083657309,0.012565859593,-0.100808106363,0.096353173256,0.133528232574,-0.001557949348
1.502311000000,0.038260000000,11229.255999999999,-0.085859794185,-0.110717295611,0.321744782222,-0.003895787837,-0.010229132298,-2.352952809219,0.001036368084,0.013017865561,0.046355568181,-0.159977915237,0.010721051996,0.000425766276,0.431544721127,0.005993676838,9.535939216614,0.001749322400,-2.801080528890,2.781253576279,-1.551011387502,1.577462911606,-0.785502258931,0.001444498659,0.006276538130,-0.115598239005,0.098054930568,0.159869566560,-0.001294296351
1.510304000000,0.040000000000,11229.263999999999,-0.085854408388,-0.110607922574,0.322111684089,-0.004606479298,-0.011753455392,-2.352931889881,-0.000175191510,0.014607086019,0.049621054903,-0.178969666203,0.002074497062,0.002312081754,0.212775528431,0.104889340699,9.185309410095,0.001737338142,-2.801044289266,2.780330896378,-1.550184551870,1.578780889511,-0.785477940236,0.001099352958,0.010162622668,-0.126003742218,0.113179028034,0.178876549006,0.000886832655
1.518304000000,0.041760000000,11229.271999999999,-0.085857015967,-0.110482927594,0.322522380640,-0.005378977702,-0.013549101493,-2.352921460294,-0.000708047057,0.015657828430,0.053551481524,-0.191555796931,-0.000250691369,0.002129511413,0.386592149734,-0.047949414700,9.185309410095,0.001749322400,-2.800948444997,2.779288291931,-1.549261395131,1.580314040184,-0.785490338002,0.000882038963,0.013166668825,-0.136600986123,0.123054027557,0.191459983587,0.000886832655
1.526394000000,0.043580000000,11229.279999999999,-0.085862560283,-0.110340013397,0.322970498622,-0.006184033136,-0.015580661039,-2.353003685808,0.000589738715,0.017682596922,0.058618879254,-0.216154286773,0.002415021309,0.002159065352,0.614351868629,-0.344636410475,9.476002693176,0.001725353883,-2.800876442586,2.778137445450,-1.548159424459,1.582027792931,-0.785561863576,0.000882038963,0.007133010775,-0.149128496647,0.138873204589,0.216051608324,0.000886832655
1.534387000000,0.045420000000,11229.287999999999,-0.085860423326,-0.110197420909,0.323475800552,-0.007031419194,-0.017676266993,-2.353000379718,-0.000720845136,0.018519770131,0.063566064045,-0.226403875046,0.001204025657,-0.001769193260,0.347633242607,-0.089905150235,9.476002693176,0.001761306659,-2.800792996083,2.776843070984,-1.546937290822,1.583800792694,-0.785610024129,0.000882038963,0.016413595527,-0.161924451590,0.143499121070,0.226286143064,-0.003067961661
1.542311000000,0.047260000000,11229.296000000000,-0.085863720528,-0.110040835991,0.324012393744,-0.007984698263,-0.019910707902,-2.352958058240,0.002217842556,0.020510468442,0.070118481036,-0.250529794870,0.028555078550,-0.005593889404,0.410566866398,-0.305677503347,9.398084640503,0.001761306659,-2.800672833120,2.775476932526,-1.545714680349,1.585706233978,-0.785586182271,0.000882038963,0.013115536422,-0.172227695584,0.129597410560,0.250326514244,-0.006878945511
1.550350000000,0.049160000000,11229.304000000000,-0.085877890006,-0.109871529336,0.324544445520,-0.008845032976,-0.022397426643,-2.352949275705,0.000136036374,0.021538304369,0.071791563238,-0.263113555052,0.003363521052,-0.003298347679,0.413563698530,-0.224762871861,9.275214195251,0.001761306659,-2.800553146993,2.774086475372,-1.544324700032,1.587766766548,-0.785598103200,0.000882038963,0.014368287288,-0.182722687721,0.164016112685,0.262981832027,-0.004625910893
1.558315000000,0.051090000000,11229.312000000000,-0.085864895959,-0.109692381063,0.325182956229,-0.010056095850,-0.024938510959,-2.352946862554,-0.000678086697,0.022880042191,0.076254957514,-0.279739510808,-0.003306569195,0.001646296990,0.209778681397,-0.122870370746,9.419062614441,0.001785275061,-2.800445381795,2.772480487823,-1.542946163808,1.589971542358,-0.785646263753,0.001124919276,0.017819743603,-0.195850998163,0.180386558175,0.279615938663,0.000000000000
1.566315000000,0.053050000000,11229.320000000000,-0.085868978717,-0.109501486742,0.325818329309,-0.011182102536,-0.027712624046,-2.352989127032,0.000211944297,0.024301669665,0.082595663636,-0.297050896244,0.004286850927,-0.006766882336,0.542427718639,-0.000000000000,9.595876693726,0.001809243462,-2.800289456044,2.770850181580,-1.541460816060,1.592319607735,-0.785742108022,0.001124919276,0.017985925078,-0.210347115993,0.186858043075,0.296897202730,-0.008436894976
1.574305000000,0.055060000000,11229.328000000000,-0.085864418731,-0.109299548220,0.326510949352,-0.012434542339,-0.030550490834,-2.352954791745,0.001053005960,0.025831338382,0.086330627523,-0.316312355147,0.008096619900,-0.003525948339,0.422554194927,0.296687006950,9.473006248474,0.001785275061,-2.800169769918,2.769088506699,-1.539878670369,1.594752073288,-0.785718266164,0.001764077926,0.016515860334,-0.219244211912,0.193401426077,0.316143870354,-0.005872270558
1.582392000000,0.057120000000,11229.335999999999,-0.085847775228,-0.109087918478,0.327263632132,-0.013880400697,-0.033539357515,-2.352853284517,0.001136036467,0.026446928929,0.092052606444,-0.326715090479,0.011187086481,0.005146504504,0.536434054375,0.272712290287,9.224267959595,0.001809243462,-2.800025765096,2.767194986343,-1.538284603749,1.597352266312,-0.785682026540,0.004486893769,0.021526863798,-0.233254566789,0.199417516589,0.326522201300,0.000000000000
1.590306000000,0.059190000000,11229.343999999999,-0.085855665151,-0.108871680192,0.327980633602,-0.015114518691,-0.036780621381,-2.352797869436,0.000678279341,0.028327094014,0.095615675559,-0.349284827159,0.006050528064,-0.008176955024,0.662301301956,-0.158832430840,9.047454833984,0.001893133041,-2.799798313771,2.765337228775,-1.536583248769,1.600071907043,-0.785754028951,0.004180097952,0.023521039635,-0.243762329221,0.212552219629,0.349100500345,-0.013038837351
1.598306000000,0.061330000000,11229.351999999999,-0.085849729103,-0.108635445761,0.328752012407,-0.016543584082,-0.040173076570,-2.352770617259,0.000076164011,0.029917725302,0.098463089033,-0.367578501347,-0.001287664059,-0.001843573396,0.506465673447,0.053943090141,9.508968353271,0.001905117300,-2.799641911183,2.763359308243,-1.534785572683,1.602959394455,-0.785790268575,0.003131877398,0.024518126622,-0.253170758486,0.228443309665,0.367412388325,-0.005704491399
1.606302000000,0.063510000000,11229.359999999999,-0.085846693242,-0.108392334583,0.329557762637,-0.017985876206,-0.043676320850,-2.352737425879,0.000032785473,0.031062836410,0.103762880376,-0.382438347722,0.001953639801,-0.011620304660,0.623342394829,0.305677503347,9.464015007019,0.001917101559,-2.799462143575,2.761286020279,-1.532892529164,1.605931162834,-0.785826031362,0.003962783609,0.029580263421,-0.266043394804,0.232541903853,0.382248848677,-0.016346482560
1.614298000000,0.065730000000,11229.368000000000,-0.085842959283,-0.108133696888,0.330431631756,-0.019585110476,-0.047443961176,-2.352622488817,-0.000695007438,0.032267585760,0.109161961877,-0.396602158966,-0.002393359006,0.007029378672,0.593374013901,0.227759718895,9.359126091003,0.001977022737,-2.799210373555,2.759045124054,-1.530939404164,1.609142184258,-0.785837952291,0.003387541045,0.033824276179,-0.281332075596,0.248576804996,0.396414220333,0.002828277182
1.622307000000,0.068010000000,11229.376000000000,-0.085857806625,-0.107866156124,0.331324077158,-0.021106119266,-0.051344153452,-2.352598705107,0.000151977010,0.033723064696,0.115067435291,-0.417280536220,0.000680163664,-0.047515888843,0.878073632717,0.044952575117,9.464015007019,0.002000991022,-2.798898998891,2.756731987000,-1.528878037130,1.612425088882,-0.785909954702,0.006187056191,0.035959068686,-0.295470267534,0.254928439856,0.417075008154,-0.054576162249
1.630321000000,0.070310000000,11229.384000000000,-0.085848016243,-0.107587869292,0.332266013726,-0.022879861282,-0.055368924844,-2.352382784923,0.000190981825,0.034926263833,0.119346154309,-0.433944029121,0.005953130673,0.038349032735,0.497475177050,0.203785002232,9.128369331360,0.002060912317,-2.798623387014,2.754322528839,-1.526828591024,1.615875840187,-0.785837952291,0.008040616289,0.040254212916,-0.306399881840,0.259961813688,0.433709114790,0.029457226396
1.638305000000,0.072630000000,11229.392000000000,-0.085861018235,-0.107298697349,0.333236710816,-0.024595608657,-0.059554941837,-2.352484097846,-0.000563642278,0.036520518533,0.123285948096,-0.449724805711,-0.001309841220,-0.020464468870,0.908042013645,-0.050946250558,9.113385200500,0.002084880602,-2.798251930867,2.751817703247,-1.524695698415,1.619422793388,-0.786053959523,0.004486893769,0.042887546122,-0.318007022142,0.273432075977,0.449504315853,-0.025909895077
1.646301000000,0.074990000000,11229.400000000000,-0.085858447043,-0.106996908705,0.334234311567,-0.026425049398,-0.063951369891,-2.352166043515,0.000215343594,0.037475573388,0.126621582808,-0.467761338718,0.001061490026,0.024092302838,0.479494124651,-0.140851408243,9.452028274536,0.002144801896,-2.797928158437,2.749240875244,-1.522454563771,1.623161077499,-0.785898033773,0.010546118021,0.044792238623,-0.326955229044,0.279999434948,0.467528611422,0.012607404962
1.654374000000,0.077380000000,11229.407999999999,-0.085867126458,-0.106690308457,0.335275744186,-0.028246201555,-0.068439697879,-2.352199271246,-0.000108168485,0.039109188525,0.132180097972,-0.484853999922,-0.000916441015,0.014582698619,0.248737588525,0.098895661533,9.520955085754,0.002204722958,-2.797520939504,2.746544361115,-1.520153824483,1.626959323883,-0.786101643239,0.007746603340,0.047476705164,-0.342077732086,0.293973058462,0.484618097544,0.005848302040
1.662297000000,0.079760000000,11229.415999999999,-0.085858920986,-0.106370922994,0.336388599897,-0.030241053377,-0.073051166199,-2.352026797205,-0.000197515987,0.040817319370,0.137026816347,-0.502591705408,0.001756303214,-0.033507783823,0.827127397060,0.011987353675,9.637831687927,0.002252659760,-2.797149006520,2.743679761887,-1.517733399068,1.630901336670,-0.786101643239,0.004716990981,0.051976382732,-0.353684842587,0.295531004667,0.502330780029,-0.039356194437
1.670302000000,0.082220000000,11229.423999999999,-0.085858857846,-0.106033935895,0.337531186209,-0.032337656623,-0.077950636694,-2.351791251689,0.000433153048,0.041220452763,0.141047252446,-0.517014355214,0.000502789582,0.043340785973,0.263721764088,0.680282294750,9.514961242676,0.002324565081,-2.796693627034,2.740731239319,-1.515300575887,1.635083556175,-0.786077801381,0.013652428985,0.054456319660,-0.365918338299,0.310774922371,0.516759812832,0.028618330136
1.678305000000,0.084720000000,11229.431999999999,-0.085843577173,-0.105698328941,0.338698414042,-0.034430117823,-0.082920524765,-2.351749226799,0.000209597748,0.042739254169,0.145199139802,-0.529395005730,-0.000323800324,-0.012700111184,1.282646775246,0.812143206596,9.005498886108,0.002456391696,-2.796274010335,2.737711191177,-1.512748066579,1.639312863350,-0.786317650472,0.007657120936,0.056565541774,-0.376515597105,0.316551327705,0.529127538204,-0.021595574915
1.686292000000,0.087270000000,11229.439999999999,-0.085853870461,-0.105343834743,0.339837083210,-0.036465897173,-0.088138440758,-2.351361818440,0.001574175101,0.044030071654,0.150925196110,-0.550275549835,0.006710545045,0.025027272250,0.970975637436,0.985959827900,8.924584388733,0.002527922625,-2.795794788991,2.734726905823,-1.510160271321,1.643710613251,-0.786161724721,0.012425244786,0.057562630624,-0.390832751989,0.325084090233,0.549980044365,0.011456919834
1.694291000000,0.089880000000,11229.448000000000,-0.085845484530,-0.104986420258,0.341073074754,-0.038672207464,-0.093294073850,-2.351342374115,0.001713226040,0.045989696360,0.155241005091,-0.570384830607,0.005462930051,0.014309491949,0.692269682884,0.785171627998,9.538936614990,0.002563875169,-2.795327011739,2.731526613235,-1.507499519979,1.648108124733,-0.786353890096,0.008654208854,0.057856641710,-0.402912855148,0.337499767542,0.570089578629,0.004410195164
