Fabs3007/Masterarbeit_Abgabe/Messungen/Roboter/Bergfahrt 20° noch etwas schnellere schiene/richard_capture_2023-08-28_16-13-32_ground_truth.csv
Rail.Time,Rail.Position,Bot.Time,Bot.TCP_pose_0,Bot.TCP_pose_1,Bot.TCP_pose_2,Bot.TCP_pose_3,Bot.TCP_pose_4,Bot.TCP_pose_5,Bot.TCP_speed_0,Bot.TCP_speed_1,Bot.TCP_speed_2,Bot.TCP_speed_3,Bot.TCP_speed_4,Bot.TCP_speed_5,Bot.actual_tool_accelerometer_0,Bot.actual_tool_accelerometer_1,Bot.actual_tool_accelerometer_2,Bot.actual_tool_accelerometer_3,Bot.actual_tool_accelerometer_4,Bot.actual_tool_accelerometer_5,Bot.actual_q_0,Bot.actual_q_1,Bot.actual_q_2,Bot.actual_q_3,Bot.actual_q_4,Bot.actual_q_5,Bot.actual_dq_0,Bot.actual_dq_1,Bot.actual_dq_2,Bot.actual_dq_3,Bot.actual_dq_4,Bot.actual_dq_5
0.007387000000,0.000020000000,11453.199999999999,-0.085849440540,-0.111116350305,0.318471911216,-0.001981431990,-0.006948805859,-2.353011794242,-0.000004240779,-0.000000663840,0.000000016965,0.000047936254,0.000000248238,-0.000038329334,-0.065930441022,-0.011987353675,8.837676048279,0.003606502898,-2.800325218831,2.789523601532,-1.559639279042,1.574515223503,-0.787385288869,-0.000038349521,0.000000000000,-0.000000000000,0.000000000000,-0.000047936901,0.000000000000
0.013833000000,0.000020000000,11453.207999999999,-0.085851752691,-0.111116409093,0.318474536086,-0.001959426893,-0.006974410037,-2.352987851465,-0.000004240734,-0.000000663751,0.000000017013,0.000047936250,0.000000248816,-0.000038328203,-0.032965220511,-0.050946250558,8.807707786560,0.003618486924,-2.800313297902,2.789511442184,-1.559615437184,1.574527263641,-0.787373367940,-0.000038349521,0.000000000000,-0.000000000000,0.000000000000,-0.000047936901,0.000000000000
0.021815000000,0.000020000000,11453.216000000000,-0.085853445591,-0.111111286254,0.318471902712,-0.001993266902,-0.006976984212,-2.353011444708,-0.000002820372,-0.000001761166,0.000000017060,0.000047936263,0.000000246515,-0.000025546161,-0.086908310652,-0.047949414700,8.855657577515,0.003570550121,-2.800325218831,2.789523601532,-1.559639279042,1.574539184570,-0.787349049245,-0.000025566347,0.000000000000,-0.000000000000,0.000000000000,-0.000047936901,0.000000000000
0.029796000000,0.000020000000,11453.224000000000,-0.085850750577,-0.111116355520,0.318459064662,-0.001939331154,-0.006966009271,-2.352987552489,-0.000002820360,-0.000001761235,0.000000016965,0.000047936253,0.000000248239,-0.000025544446,-0.134857729077,0.002996838419,8.843669891357,0.003606502898,-2.800337139760,2.789547443390,-1.559615437184,1.574515223503,-0.787360970174,-0.000025566347,0.000000000000,-0.000000000000,0.000000000000,-0.000047936901,0.000000000000
0.037813000000,0.000020000000,11453.232000000000,-0.085856747158,-0.111113288873,0.318486255149,-0.001981952934,-0.006948710960,-2.353023352656,-0.000002820423,-0.000001761082,0.000000016966,0.000047936263,0.000000246518,-0.000025546172,-0.143848240376,0.011987353675,8.867644309998,0.003570550121,-2.800301376973,2.789487600327,-1.559627358113,1.574515223503,-0.787360970174,-0.000025566347,0.000000000000,-0.000000000000,0.000000000000,-0.000047936901,0.000000000000
0.045849000000,0.000020000000,11453.240000000000,-0.085856125668,-0.111114320603,0.318492163190,-0.001995970678,-0.006942965083,-2.353011338729,-0.000002820402,-0.000001761098,0.000000016966,0.000047936260,0.000000247093,-0.000025546744,-0.146845072508,-0.002996838419,8.810704231262,0.003582534380,-2.800289456044,2.789475679398,-1.559639279042,1.574515223503,-0.787360970174,-0.000025566347,0.000000000000,-0.000000000000,0.000000000000,-0.000047936901,0.000000000000
0.053791000000,0.000020000000,11453.248000000000,-0.085851867254,-0.111114315801,0.318490727414,-0.001982002977,-0.006948586463,-2.352975554903,-0.000002820402,-0.000001761207,0.000000016965,0.000047936260,0.000000247095,-0.000025546172,-0.068927280605,-0.050946250558,8.822691917419,0.003582534380,-2.800325218831,2.789475679398,-1.559591595327,1.574515223503,-0.787325207387,-0.000025566347,0.000000000000,-0.000000000000,0.000000000000,-0.000047936901,0.000000000000
0.061802000000,0.000020000000,11453.255999999999,-0.085853454388,-0.111113310347,0.318488514232,-0.002015870126,-0.006951336830,-2.352999399833,-0.000002820376,-0.000001761166,0.000000017013,0.000047936260,0.000000247091,-0.000025547315,-0.059936765581,-0.074920959771,8.891619682312,0.003582534380,-2.800301376973,2.789487600327,-1.559651199971,1.574527263641,-0.787349049245,-0.000025566347,0.000000000000,-0.000000000000,0.000000000000,-0.000047936901,0.000000000000
0.069786000000,0.000020000000,11453.263999999999,-0.085849625294,-0.111115378568,0.318503787070,-0.002030084773,-0.006945498266,-2.352987248944,-0.000002820334,-0.000001761264,0.000000017013,0.000047936255,0.000000248243,-0.000025547898,-0.095898829401,-0.029968382791,8.849663734436,0.003606502898,-2.800301376973,2.789451599121,-1.559627358113,1.574527263641,-0.787360970174,-0.000025566347,0.000000000000,-0.000000000000,0.000000000000,-0.000047936901,0.000000000000
0.077813000000,0.000020000000,11453.271999999999,-0.085839526726,-0.111114342501,0.318504461771,-0.002105943901,-0.006930779349,-2.353035337405,-0.000002820307,-0.000001761522,0.000000017060,0.000047936256,0.000000248238,-0.000025550755,-0.113879859447,0.017981030047,8.858654022217,0.003606502898,-2.800337139760,2.789463520050,-1.559663120900,1.574539184570,-0.787409130727,-0.000025566347,0.000000000000,-0.000000000000,0.000000000000,-0.000047936901,0.000000000000
0.085781000000,0.000020000000,11453.279999999999,-0.085840054989,-0.111114294351,0.318498483041,-0.002086696529,-0.006922138996,-2.352963460812,-0.000002820353,-0.000001761508,0.000000017013,0.000047936258,0.000000247663,-0.000025550195,-0.131860882044,0.008990515023,8.816698074341,0.003594518639,-2.800349537526,2.789475679398,-1.559651199971,1.574527263641,-0.787325207387,-0.000025566347,0.000000000000,-0.000000000000,0.000000000000,-0.000047936901,0.000000000000
0.093875000000,0.000020000000,11453.287999999999,-0.085854223427,-0.111112323539,0.318489742997,-0.002035511898,-0.006959795448,-2.353059451091,-0.000002820351,-0.000001761146,0.000000017060,0.000047936261,0.000000247089,-0.000025547887,-0.098895661533,-0.000000000000,8.906603813171,0.003582534380,-2.800289456044,2.789487600327,-1.559675041829,1.574539184570,-0.787409130727,-0.000025566347,0.000000000000,-0.000000000000,0.000000000000,-0.000047936901,0.000000000000
0.101811000000,0.000020000000,11453.296000000000,-0.085846603023,-0.111115317012,0.318495254068,-0.002038023878,-0.006925634390,-2.353011698468,-0.000002820380,-0.000001761341,0.000000016965,0.000047936258,0.000000247666,-0.000025548458,-0.041955735534,-0.071924120188,8.861651420593,0.003594518639,-2.800325218831,2.789475679398,-1.559639279042,1.574515223503,-0.787373367940,-0.000025566347,0.000000000000,-0.000000000000,0.000000000000,-0.000047936901,0.000000000000
0.109807000000,0.000020000000,11453.304000000000,-0.085839760724,-0.111115324191,0.318492676417,-0.002072375956,-0.006928074693,-2.353023518637,-0.000002820332,-0.000001761516,0.000000017013,0.000047936255,0.000000248237,-0.000025549624,-0.029968382791,-0.086908310652,8.783733367920,0.003606502898,-2.800349537526,2.789487600327,-1.559651199971,1.574527263641,-0.787397209798,-0.000025566347,0.000000000000,-0.000000000000,0.000000000000,-0.000047936901,0.000000000000
0.117788000000,0.000020000000,11453.312000000000,-0.085849002817,-0.111117397923,0.318480200422,-0.001967131416,-0.006954637580,-2.352975436312,-0.000002820339,-0.000001761279,0.000000016965,0.000047936251,0.000000248817,-0.000025545578,-0.092901989818,-0.023974707350,8.798717498779,0.003618486924,-2.800325218831,2.789499521255,-1.559603039418,1.574515223503,-0.787360970174,-0.000025566347,0.000000000000,-0.000000000000,0.000000000000,-0.000047936901,0.000000000000
0.125781000000,0.000020000000,11453.320000000000,-0.085853683725,-0.111111342795,0.318486140989,-0.001999265117,-0.006991163252,-2.353023662115,-0.000002820326,-0.000001761160,0.000000017108,0.000047936260,0.000000247093,-0.000025546172,-0.140851408243,0.020977867767,8.933574676514,0.003582534380,-2.800313297902,2.789487600327,-1.559615437184,1.574551224709,-0.787373367940,-0.000025566347,0.000000000000,-0.000000000000,0.000000000000,-0.000047936901,0.000000000000
0.133777000000,0.000020000000,11453.328000000000,-0.085862739264,-0.111113388440,0.318461974517,-0.001922933173,-0.007005871560,-2.352987586599,-0.000002820332,-0.000001760928,0.000000017060,0.000047936256,0.000000247666,-0.000025543303,-0.140851408243,0.035962060094,8.930578231812,0.003594518639,-2.800277535115,2.789535522461,-1.559639279042,1.574539184570,-0.787349049245,-0.000025566347,0.000000000000,-0.000000000000,0.000000000000,-0.000047936901,0.000000000000
0.141792000000,0.000020000000,11453.335999999999,-0.085852698345,-0.111116381397,0.318490930165,-0.001981741866,-0.006948761519,-2.353011687191,-0.000002820360,-0.000001761185,0.000000016966,0.000047936254,0.000000248243,-0.000025546172,-0.050946250558,-0.011987353675,8.861651420593,0.003606502898,-2.800301376973,2.789475679398,-1.559615437184,1.574515223503,-0.787385288869,-0.000025566347,0.000000000000,-0.000000000000,0.000000000000,-0.000047936901,0.000000000000
0.149782000000,0.000020000000,11453.343999999999,-0.085849258591,-0.111115333632,0.318499014956,-0.002024262468,-0.006931312816,-2.353011684225,-0.000002820380,-0.000001761273,0.000000016966,0.000047936258,0.000000247668,-0.000025547898,-0.038958899677,-0.065930441022,8.825689315796,0.003594518639,-2.800313297902,2.789463520050,-1.559627358113,1.574515223503,-0.787373367940,-0.000025566347,0.000000000000,-0.000000000000,0.000000000000,-0.000047936901,0.000000000000
0.157772000000,0.000020000000,11453.351999999999,-0.085853732531,-0.111112330632,0.318481470264,-0.001993515416,-0.006976898257,-2.352999406584,-0.000002820351,-0.000001761159,0.000000017060,0.000047936260,0.000000247092,-0.000025546172,-0.056939929724,-0.038958899677,8.795720100403,0.003582534380,-2.800313297902,2.789499521255,-1.559627358113,1.574539184570,-0.787349049245,-0.000025566347,0.000000000000,-0.000000000000,0.000000000000,-0.000047936901,0.000000000000
0.165787000000,0.000020000000,11453.359999999999,-0.085845970381,-0.111115405190,0.318488307246,-0.002021440668,-0.006965366457,-2.352975317471,-0.000002820287,-0.000001761357,0.000000017060,0.000047936251,0.000000248815,-0.000025547315,-0.101892501116,-0.026971545070,8.891619682312,0.003618486924,-2.800325218831,2.789487600327,-1.559627358113,1.574539184570,-0.787360970174,-0.000025566347,0.000000000000,-0.000000000000,0.000000000000,-0.000047936901,0.000000000000
0.173777000000,0.000020000000,11453.367999999999,-0.085845273691,-0.111111300488,0.318491596487,-0.002069517631,-0.006962292665,-2.353023600680,-0.000002820324,-0.000001761375,0.000000017108,0.000047936261,0.000000247089,-0.000025549029,-0.164826110005,0.020977867767,8.888622283936,0.003582534380,-2.800337139760,2.789487600327,-1.559651199971,1.574551224709,-0.787373367940,-0.000025566347,0.000000000000,-0.000000000000,0.000000000000,-0.000047936901,0.000000000000
0.181770000000,0.000020000000,11453.376000000000,-0.085846955861,-0.111110366750,0.318483517959,-0.002038927948,-0.007007797355,-2.352999212191,-0.000002820254,-0.000001761331,0.000000017203,0.000047936257,0.000000247665,-0.000025547315,-0.131860882044,0.032965220511,8.903606414795,0.003594518639,-2.800337139760,2.789499521255,-1.559627358113,1.574575185776,-0.787360970174,-0.000025566347,0.000000000000,-0.000000000000,0.000000000000,-0.000047936901,0.000000000000
0.189773000000,0.000020000000,11453.384000000000,-0.085849330471,-0.111111276103,0.318490570550,-0.002049661914,-0.006953918408,-2.353047555919,-0.000002820371,-0.000001761272,0.000000017060,0.000047936264,0.000000246515,-0.000025548458,-0.080914631486,-0.050946250558,8.831682205200,0.003570550121,-2.800325218831,2.789487600327,-1.559651199971,1.574539184570,-0.787385288869,-0.000025566347,0.000000000000,-0.000000000000,0.000000000000,-0.000047936901,0.000000000000
0.197839000000,0.000020000000,11453.392000000000,-0.085849079018,-0.111110247053,0.318483470607,-0.002022255033,-0.006965089248,-2.353023328593,-0.000002820393,-0.000001761278,0.000000017060,0.000047936266,0.000000245942,-0.000025547338,-0.074920959771,-0.083911471069,8.792723655701,0.003558565862,-2.800349537526,2.789499521255,-1.559615437184,1.574539184570,-0.787349049245,-0.000025566347,0.000000000000,-0.000000000000,0.000000000000,-0.000047936901,0.000000000000
0.205777000000,0.000020000000,11453.400000000000,-0.085852104527,-0.111113258517,0.318484873776,-0.002024210665,-0.006931293483,-2.352987587419,-0.000002820422,-0.000001761201,0.000000016965,0.000047936264,0.000000246514,-0.000025547887,-0.083911471069,-0.050946250558,8.813701629639,0.003570550121,-2.800313297902,2.789499521255,-1.559663120900,1.574515223503,-0.787325207387,-0.000025566347,0.000000000000,-0.000000000000,0.000000000000,-0.000047936901,0.000000000000
0.213783000000,0.000020000000,11453.407999999999,-0.085843112831,-0.111114303476,0.318485738147,-0.002044457829,-0.006939483009,-2.352987390795,-0.000002820354,-0.000001761430,0.000000017013,0.000047936258,0.000000247664,-0.000025548481,-0.116876691580,0.017981030047,8.906603813171,0.003594518639,-2.800349537526,2.789499521255,-1.559639279042,1.574527263641,-0.787349049245,-0.000025566347,0.000000000000,-0.000000000000,0.000000000000,-0.000047936901,0.000000000000
0.221773000000,0.000020000000,11453.415999999999,-0.085854421017,-0.111113367534,0.318474531849,-0.001965247043,-0.006988507630,-2.353023709423,-0.000002820331,-0.000001761141,0.000000017060,0.000047936256,0.000000247667,-0.000025545029,-0.137854561210,0.053943090141,8.900609970093,0.003594518639,-2.800313297902,2.789511442184,-1.559615437184,1.574539184570,-0.787385288869,-0.000025566347,0.000000000000,-0.000000000000,0.000000000000,-0.000047936901,0.000000000000
0.229772000000,0.000020000000,11453.423999999999,-0.085851955496,-0.111115303915,0.318486011386,-0.001975433973,-0.006934763219,-2.353035699250,-0.000002820427,-0.000001761205,0.000000016918,0.000047936260,0.000000247094,-0.000025546149,-0.116876691580,0.011987353675,8.867644309998,0.003582534380,-2.800325218831,2.789487600327,-1.559603039418,1.574503183365,-0.787385288869,-0.000025566347,0.000000000000,-0.000000000000,0.000000000000,-0.000047936901,0.000000000000
0.237793000000,0.000020000000,11453.431999999999,-0.085841481642,-0.111117355732,0.318479935753,-0.002024558900,-0.006930974143,-2.352939652322,-0.000002820337,-0.000001761472,0.000000016965,0.000047936252,0.000000248812,-0.000025547909,-0.065930441022,-0.044952575117,8.816698074341,0.003618486924,-2.800349537526,2.789511442184,-1.559639279042,1.574515223503,-0.787325207387,-0.000025566347,0.000000000000,-0.000000000000,0.000000000000,-0.000047936901,0.000000000000
0.245847000000,0.000020000000,11453.439999999999,-0.085844860976,-0.111114319445,0.318495148394,-0.002043800688,-0.006939841428,-2.353023577837,-0.000002820354,-0.000001761386,0.000000017013,0.000047936258,0.000000247666,-0.000025548458,-0.074920959771,-0.020977867767,8.804711341858,0.003594518639,-2.800337139760,2.789475679398,-1.559627358113,1.574527263641,-0.787385288869,-0.000025566347,0.000000000000,-0.000000000000,0.000000000000,-0.000047936901,0.000000000000
0.253773000000,0.000020000000,11453.448000000000,-0.085852798202,-0.111113301730,0.318477931165,-0.002001802323,-0.006957068212,-2.352999461140,-0.000002820376,-0.000001761183,0.000000017013,0.000047936260,0.000000247089,-0.000025546744,-0.089905150235,-0.008990515023,8.837676048279,0.003582534380,-2.800313297902,2.789511442184,-1.559651199971,1.574527263641,-0.787349049245,-0.000025566347,0.000000000000,-0.000000000000,0.000000000000,-0.000047936901,0.000000000000
0.261791000000,0.000020000000,11453.456000000000,-0.085850876210,-0.111111240958,0.318488210076,-0.002015904625,-0.006951322820,-2.353035259860,-0.000002820418,-0.000001761233,0.000000017013,0.000047936266,0.000000245943,-0.000025547315,-0.128864049911,0.041955735534,8.903606414795,0.003558565862,-2.800337139760,2.789487600327,-1.559615437184,1.574527263641,-0.787360970174,-0.000025566347,0.000000000000,-0.000000000000,0.000000000000,-0.000047936901,0.000000000000
0.269772000000,0.000020000000,11453.464000000000,-0.085840798018,-0.111115325309,0.318486869781,-0.002058464362,-0.006933710623,-2.352975398209,-0.000002820332,-0.000001761489,0.000000017013,0.000047936255,0.000000248237,-0.000025549052,-0.137854561210,0.017981030047,8.897612571716,0.003606502898,-2.800349537526,2.789499521255,-1.559651199971,1.574527263641,-0.787349049245,-0.000025566347,0.000000000000,-0.000000000000,0.000000000000,-0.000047936901,0.000000000000
0.277771000000,0.000020000000,11453.472000000000,-0.085848149900,-0.111110234366,0.318479927250,-0.002036195040,-0.006959405497,-2.353059591163,-0.000002820392,-0.000001761302,0.000000017060,0.000047936267,0.000000245940,-0.000025547909,-0.110883019865,0.011987353675,8.870641708374,0.003558565862,-2.800349537526,2.789511442184,-1.559639279042,1.574539184570,-0.787385288869,-0.000025566347,0.000000000000,-0.000000000000,0.000000000000,-0.000047936901,0.000000000000
0.285767000000,0.000020000000,11453.480000000000,-0.085851363870,-0.111113358412,0.318487276961,-0.002007561558,-0.006971103748,-2.352975461894,-0.000002820330,-0.000001761219,0.000000017060,0.000047936257,0.000000247667,-0.000025546744,-0.056939929724,-0.011987353675,8.801713943481,0.003594518639,-2.800313297902,2.789487600327,-1.559627358113,1.574539184570,-0.787337128316,-0.000025566347,0.000000000000,-0.000000000000,0.000000000000,-0.000047936901,0.000000000000
0.293852000000,0.000020000000,11453.487999999999,-0.085851422928,-0.111112358959,0.318482597654,-0.002013268265,-0.006985382130,-2.353011701104,-0.000002820305,-0.000001761217,0.000000017108,0.000047936257,0.000000247665,-0.000025546744,-0.071924120188,-0.059936765581,8.774743080139,0.003594518639,-2.800313297902,2.789499521255,-1.559639279042,1.574551224709,-0.787373367940,-0.000025566347,0.000000000000,-0.000000000000,0.000000000000,-0.000047936901,0.000000000000
0.301821000000,0.000020000000,11453.495999999999,-0.085843097485,-0.111117274575,0.318485750870,-0.002027017431,-0.006897067199,-2.352999406412,-0.000002820430,-0.000001761431,0.000000016870,0.000047936258,0.000000247664,-0.000025548481,-0.095898829401,-0.053943090141,8.870641708374,0.003594518639,-2.800349537526,2.789499521255,-1.559639279042,1.574491262436,-0.787360970174,-0.000025566347,0.000000000000,-0.000000000000,0.000000000000,-0.000047936901,0.000000000000
0.309787000000,0.000020000000,11453.503999999999,-0.085854831321,-0.111115384178,0.318474637449,-0.001959555934,-0.006974374470,-2.352975526604,-0.000002820335,-0.000001761130,0.000000017013,0.000047936253,0.000000248241,-0.000025545029,-0.104889340699,0.014984191395,8.900609970093,0.003606502898,-2.800301376973,2.789511442184,-1.559627358113,1.574527263641,-0.787349049245,-0.000025566347,0.000000000000,-0.000000000000,0.000000000000,-0.000047936901,0.000000000000
0.317774000000,0.000020000000,11453.511999999999,-0.085845309316,-0.111116380358,0.318477728376,-0.002001682559,-0.006956982684,-2.352951568402,-0.000002820313,-0.000001761374,0.000000017013,0.000047936251,0.000000248814,-0.000025546744,-0.116876691580,0.026971545070,8.894616127014,0.003618486924,-2.800337139760,2.789511442184,-1.559627358113,1.574527263641,-0.787337128316,-0.000025566347,0.000000000000,-0.000000000000,0.000000000000,-0.000047936901,0.000000000000
0.325779000000,0.000020000000,11453.519999999999,-0.085840097091,-0.111117368327,0.318506882078,-0.002066354856,-0.006913941610,-2.352975242477,-0.000002820337,-0.000001761507,0.000000016965,0.000047936252,0.000000248816,-0.000025549612,-0.116876691580,-0.002996838419,8.822691917419,0.003618486924,-2.800337139760,2.789451599121,-1.559627358113,1.574515223503,-0.787360970174,-0.000025566347,0.000000000000,-0.000000000000,0.000000000000,-0.000047936901,0.000000000000
0.333763000000,0.000020000000,11453.528000000000,-0.085851546220,-0.111113341010,0.318473135777,-0.002007087147,-0.006971344960,-2.353035638197,-0.000002830546,0.000000216848,0.000000008530,0.000023968129,0.000000123831,-0.000025556540,-0.062933601439,-0.038958899677,8.804711341858,0.003594518639,-2.800313297902,2.789523601532,-1.559663120900,1.574539184570,-0.787397209798,-0.000025566347,0.000000000000,-0.000000000000,0.000000000000,-0.000023968450,0.000000000000
0.341787000000,0.000020000000,11453.536000000000,-0.085846968941,-0.111112441029,0.318487162710,-0.002024827459,-0.007013548605,-2.352963309923,-0.000002830475,0.000000216732,0.000000008601,0.000023968126,0.000000124408,-0.000025556545,-0.068927280605,-0.065930441022,8.846666336060,0.003618486924,-2.800325218831,2.789487600327,-1.559615437184,1.574575185776,-0.787349049245,-0.000025566347,0.000000000000,-0.000000000000,0.000000000000,-0.000023968450,0.000000000000
0.349838000000,0.000020000000,11453.544000000000,-0.085843453100,-0.111116375959,0.318477668160,-0.002002126382,-0.006956823585,-2.352987797387,-0.000002830576,0.000000216641,0.000000008506,0.000023968126,0.000000124407,-0.000025556557,-0.092901989818,-0.023974707350,8.891619682312,0.003618486924,-2.800349537526,2.789511442184,-1.559615437184,1.574527263641,-0.787373367940,-0.000025566347,0.000000000000,-0.000000000000,0.000000000000,-0.000023968450,0.000000000000
0.357767000000,0.000020000000,11453.552000000000,-0.085846421643,-0.111115341671,0.318480093108,-0.002029733967,-0.006945565499,-2.352999785146,-0.000002830573,0.000000216717,0.000000008506,0.000023968127,0.000000124118,-0.000025557117,-0.119873531163,0.014984191395,8.840673446655,0.003606502898,-2.800325218831,2.789511442184,-1.559663120900,1.574527263641,-0.787373367940,-0.000025566347,0.000000000000,-0.000000000000,0.000000000000,-0.000023968450,0.000000000000
0.365816000000,0.000020000000,11453.559999999999,-0.085848337121,-0.111113246667,0.318491710688,-0.002052131778,-0.006919900983,-2.353047610872,-0.000002830591,0.000000216765,0.000000008483,0.000023968132,0.000000123257,-0.000025557688,-0.128864049911,0.011987353675,8.858654022217,0.003570550121,-2.800325218831,2.789487600327,-1.559663120900,1.574515223503,-0.787385288869,-0.000025566347,0.000000000000,-0.000000000000,0.000000000000,-0.000023968450,0.000000000000
0.373766000000,0.000020000000,11453.567999999999,-0.085860224672,-0.111113337134,0.318473607075,-0.001945567387,-0.006980202355,-2.353011433528,-0.000002830570,0.000000217070,0.000000008507,0.000023968130,0.000000123546,-0.000025555402,-0.128864049911,0.002996838419,8.873638153076,0.003582534380,-2.800289456044,2.789511442184,-1.559627358113,1.574527263641,-0.787360970174,-0.000025566347,0.000000000000,-0.000000000000,0.000000000000,-0.000023968450,0.000000000000
0.381762000000,0.000020000000,11453.575999999999,-0.085856945138,-0.111115442983,0.318479510895,-0.001965327231,-0.006988438865,-2.352951578742,-0.000002830553,0.000000216986,0.000000008530,0.000023968125,0.000000124408,-0.000025555688,-0.065930441022,-0.056939929724,8.888622283936,0.003618486924,-2.800277535115,2.789499521255,-1.559639279042,1.574539184570,-0.787337128316,-0.000025566347,0.000000000000,-0.000000000000,0.000000000000,-0.000023968450,0.000000000000
0.389762000000,0.000020000000,11453.583999999999,-0.085848759742,-0.111113260501,0.318482302175,-0.001995972035,-0.006942860364,-2.353023336676,-0.000002830591,0.000000216776,0.000000008483,0.000023968132,0.000000123259,-0.000025556545,-0.065930441022,-0.056939929724,8.888622283936,0.003570550121,-2.800349537526,2.789499521255,-1.559603039418,1.574515223503,-0.787360970174,-0.000025566347,0.000000000000,-0.000000000000,0.000000000000,-0.000023968450,0.000000000000
0.397840000000,0.000020000000,11453.591999999999,-0.085843358085,-0.111112295608,0.318496215572,-0.002064328027,-0.006947793632,-2.352999272150,-0.000002830543,0.000000216639,0.000000008530,0.000023968131,0.000000123546,-0.000025557700,-0.074920959771,-0.062933601439,8.801713943481,0.003582534380,-2.800349537526,2.789475679398,-1.559627358113,1.574539184570,-0.787349049245,-0.000025566347,0.000000000000,-0.000000000000,0.000000000000,-0.000023968450,0.000000000000
0.405763000000,0.000020000000,11453.600000000000,-0.085856591029,-0.111112329837,0.318470973765,-0.001979145354,-0.006982811989,-2.353011408984,-0.000002830544,0.000000216977,0.000000008530,0.000023968130,0.000000123545,-0.000025555968,-0.074920959771,-0.044952575117,8.822691917419,0.003582534380,-2.800301376973,2.789523601532,-1.559651199971,1.574539184570,-0.787360970174,-0.000025566347,0.000000000000,-0.000000000000,0.000000000000,-0.000023968450,0.000000000000
0.413784000000,0.000020000000,11453.608000000000,-0.085854411602,-0.111112379973,0.318479157307,-0.001970583500,-0.007002881399,-2.352999328267,-0.000002830522,0.000000216921,0.000000008554,0.000023968128,0.000000123834,-0.000025555677,-0.110883019865,0.008990515023,8.888622283936,0.003594518639,-2.800313297902,2.789499521255,-1.559603039418,1.574551224709,-0.787360970174,-0.000025566347,0.000000000000,-0.000000000000,0.000000000000,-0.000023968450,0.000000000000
0.421771000000,0.000020000000,11453.616000000000,-0.085845281619,-0.111114368359,0.318495245564,-0.002049560408,-0.006953879184,-2.352999651005,-0.000002830548,0.000000216688,0.000000008530,0.000023968127,0.000000124120,-0.000025557403,-0.140851408243,0.038958899677,8.897612571716,0.003606502898,-2.800325218831,2.789475679398,-1.559639279042,1.574539184570,-0.787373367940,-0.000025566347,0.000000000000,-0.000000000000,0.000000000000,-0.000023968450,0.000000000000
0.429764000000,0.000020000000,11453.624000000000,-0.085849049109,-0.111114380345,0.318488408631,-0.002021495350,-0.006965391117,-2.352987311188,-0.000002830549,0.000000216784,0.000000008530,0.000023968127,0.000000124120,-0.000025556831,-0.101892501116,-0.008990515023,8.909600257874,0.003606502898,-2.800313297902,2.789487600327,-1.559639279042,1.574539184570,-0.787360970174,-0.000025566347,0.000000000000,-0.000000000000,0.000000000000,-0.000023968450,0.000000000000
0.437758000000,0.000020000000,11453.632000000000,-0.085835734901,-0.111115255820,0.318485390949,-0.002094759246,-0.006902236997,-2.353011719409,-0.000002830594,0.000000216444,0.000000008483,0.000023968129,0.000000123829,-0.000025558557,-0.032965220511,-0.080914631486,8.825689315796,0.003594518639,-2.800373379384,2.789511442184,-1.559675041829,1.574515223503,-0.787373367940,-0.000025566347,0.000000000000,-0.000000000000,0.000000000000,-0.000023968450,0.000000000000
0.445772000000,0.000020000000,11453.639999999999,-0.085838418797,-0.111118340180,0.318492684939,-0.002060833191,-0.006899555966,-2.352963438076,-0.000002830626,0.000000216512,0.000000008459,0.000023968126,0.000000124406,-0.000025557985,-0.050946250558,-0.062933601439,8.816698074341,0.003618486924,-2.800349537526,2.789487600327,-1.559651199971,1.574503183365,-0.787349049245,-0.000025566347,0.000000000000,-0.000000000000,0.000000000000,-0.000023968450,0.000000000000
0.453759000000,0.000020000000,11453.647999999999,-0.085851056259,-0.111112314022,0.318477825544,-0.002007483649,-0.006971165617,-2.353023738674,-0.000002830543,0.000000216835,0.000000008530,0.000023968130,0.000000123545,-0.000025556545,-0.104889340699,-0.011987353675,8.828685760498,0.003582534380,-2.800325218831,2.789511442184,-1.559639279042,1.574539184570,-0.787373367940,-0.000025566347,0.000000000000,-0.000000000000,0.000000000000,-0.000023968450,0.000000000000
0.461762000000,0.000020000000,11453.655999999999,-0.085846251755,-0.111112301035,0.318490469143,-0.002049643374,-0.006953863744,-2.353023641098,-0.000002830543,0.000000216713,0.000000008530,0.000023968130,0.000000123545,-0.000025557403,-0.137854561210,0.023974707350,8.921587944031,0.003582534380,-2.800337139760,2.789487600327,-1.559639279042,1.574539184570,-0.787373367940,-0.000025566347,0.000000000000,-0.000000000000,0.000000000000,-0.000023968450,0.000000000000
0.469758000000,0.000020000000,11453.663999999999,-0.085852234607,-0.111114377910,0.318466197384,-0.001979076853,-0.006982742506,-2.352975541403,-0.000002830549,0.000000216866,0.000000008530,0.000023968127,0.000000124119,-0.000025555968,-0.131860882044,0.038958899677,8.906603813171,0.003606502898,-2.800313297902,2.789535522461,-1.559651199971,1.574539184570,-0.787349049245,-0.000025566347,0.000000000000,-0.000000000000,0.000000000000,-0.000023968450,0.000000000000
0.477754000000,0.000020000000,11453.671999999999,-0.085867354278,-0.111111350269,0.318464340751,-0.001894398388,-0.007017628336,-2.352999618460,-0.000002830543,0.000000217252,0.000000008530,0.000023968130,0.000000123260,-0.000025554242,-0.053943090141,-0.026971545070,8.858654022217,0.003570550121,-2.800277535115,2.789523601532,-1.559603039418,1.574539184570,-0.787337128316,-0.000025566347,0.000000000000,-0.000000000000,0.000000000000,-0.000023968450,0.000000000000
0.485757000000,0.000020000000,11453.680000000000,-0.085852872755,-0.111113295943,0.318473140014,-0.002001481556,-0.006957204929,-2.353011414243,-0.000002830569,0.000000216882,0.000000008507,0.000023968130,0.000000123544,-0.000025556540,-0.035962060094,-0.080914631486,8.831682205200,0.003582534380,-2.800313297902,2.789523601532,-1.559663120900,1.574527263641,-0.787360970174,-0.000025566347,0.000000000000,-0.000000000000,0.000000000000,-0.000023968450,0.000000000000
0.493808000000,0.000020000000,11453.688000000000,-0.085851021175,-0.111112366455,0.318499103527,-0.002041637976,-0.006973807849,-2.353023519900,-0.000002830521,0.000000216835,0.000000008554,0.000023968129,0.000000123834,-0.000025557123,-0.053943090141,-0.029968382791,8.810704231262,0.003594518639,-2.800301376973,2.789463520050,-1.559639279042,1.574551224709,-0.787385288869,-0.000025566347,0.000000000000,-0.000000000000,0.000000000000,-0.000023968450,0.000000000000
0.501777000000,0.000020000000,11453.696000000000,-0.085853003536,-0.111113381283,0.318467426148,-0.001998922094,-0.006991219992,-2.352987432309,-0.000002830524,0.000000216885,0.000000008554,0.000023968127,0.000000124118,-0.000025556254,-0.101892501116,0.014984191395,8.837676048279,0.003606502898,-2.800301376973,2.789535522461,-1.559675041829,1.574551224709,-0.787360970174,-0.000025566347,0.000000000000,-0.000000000000,0.000000000000,-0.000023968450,0.000000000000
0.509764000000,0.000020000000,11453.704000000000,-0.085844779571,-0.111116340846,0.318477672427,-0.001996316576,-0.006942663960,-2.353011733767,-0.000001410179,-0.000000880694,0.000000008483,0.000023968127,0.000000124120,-0.000012773383,-0.158832430840,0.041955735534,8.849663734436,0.003606502898,-2.800349537526,2.789511442184,-1.559615437184,1.574515223503,-0.787385288869,-0.000012783174,0.000000000000,-0.000000000000,0.000000000000,-0.000023968450,0.000000000000
0.517797000000,0.000020000000,11453.712000000000,-0.085852526862,-0.111114428668,0.318475760626,-0.001985145891,-0.006996851880,-2.352963471980,-0.000001410132,-0.000000880594,0.000000008554,0.000023968125,0.000000124407,-0.000012772800,-0.152838751674,0.014984191395,8.906603813171,0.003618486924,-2.800301376973,2.789511442184,-1.559639279042,1.574551224709,-0.787349049245,-0.000012783174,0.000000000000,-0.000000000000,0.000000000000,-0.000023968450,0.000000000000
0.525765000000,0.000020000000,11453.719999999999,-0.085852516602,-0.111116406120,0.318475769154,-0.001973635342,-0.006968542014,-2.352939692923,-0.000001410157,-0.000000880595,0.000000008507,0.000023968125,0.000000124407,-0.000012772800,-0.077917799354,-0.038958899677,8.846666336060,0.003618486924,-2.800301376973,2.789511442184,-1.559639279042,1.574527263641,-0.787325207387,-0.000012783174,0.000000000000,-0.000000000000,0.000000000000,-0.000023968450,0.000000000000
0.533756000000,0.000020000000,11453.727999999999,-0.085854096268,-0.111108323743,0.318482589079,-0.002024984407,-0.007013613509,-2.353023208549,-0.000001410148,-0.000000880575,0.000000008601,0.000023968132,0.000000123258,-0.000012773372,-0.035962060094,-0.065930441022,8.780735969543,0.003570550121,-2.800313297902,2.789499521255,-1.559639279042,1.574575185776,-0.787360970174,-0.000012783174,0.000000000000,-0.000000000000,0.000000000000,-0.000023968450,0.000000000000
0.541752000000,0.000020000000,11453.735999999999,-0.085840093326,-0.111114338677,0.318480957448,-0.002050053015,-0.006953596873,-2.353011636224,-0.000001410154,-0.000000880754,0.000000008530,0.000023968127,0.000000124119,-0.000012774240,-0.062933601439,-0.053943090141,8.807707786560,0.003606502898,-2.800361458455,2.789511442184,-1.559639279042,1.574539184570,-0.787385288869,-0.000012783174,0.000000000000,-0.000000000000,0.000000000000,-0.000023968450,0.000000000000
0.549763000000,0.000020000000,11453.743999999999,-0.085847355967,-0.111114370595,0.318483632230,-0.002021410291,-0.006965425408,-2.353011651456,-0.000001410154,-0.000000880661,0.000000008530,0.000023968127,0.000000124120,-0.000012773658,-0.128864049911,-0.029968382791,8.918590545654,0.003606502898,-2.800325218831,2.789499521255,-1.559639279042,1.574539184570,-0.787385288869,-0.000012783174,0.000000000000,-0.000000000000,0.000000000000,-0.000023968450,0.000000000000
0.557750000000,0.000020000000,11453.751999999999,-0.085845068896,-0.111116304593,0.318483483366,-0.002004745599,-0.006922595691,-2.352975549642,-0.000001410203,-0.000000880690,0.000000008459,0.000023968129,0.000000123833,-0.000012773669,-0.152838751674,0.041955735534,8.960546493530,0.003594518639,-2.800349537526,2.789499521255,-1.559615437184,1.574503183365,-0.787337128316,-0.000012783174,0.000000000000,-0.000000000000,0.000000000000,-0.000023968450,0.000000000000
0.565765000000,0.000020000000,11453.760000000000,-0.085841565518,-0.111115431080,0.318501164055,-0.002069698475,-0.006962128216,-2.352951291603,-0.000001410120,-0.000000880734,0.000000008554,0.000023968125,0.000000124695,-0.000012774520,-0.140851408243,0.020977867767,8.888622283936,0.003630471183,-2.800325218831,2.789463520050,-1.559639279042,1.574551224709,-0.787349049245,-0.000012783174,0.000000000000,-0.000000000000,0.000000000000,-0.000023968450,0.000000000000
0.573752000000,0.000020000000,11453.768000000000,-0.085852909568,-0.111107156837,0.318490469143,-0.002049952102,-0.006953831118,-2.353059243292,-0.000001410228,-0.000000880591,0.000000008530,0.000023968138,0.000000122109,-0.000012774229,-0.089905150235,-0.017981030047,8.813701629639,0.003522613319,-2.800337139760,2.789487600327,-1.559639279042,1.574539184570,-0.787349049245,-0.000012783174,0.000000000000,-0.000000000000,0.000000000000,-0.000023968450,0.000000000000
0.581752000000,0.000020000000,11453.776000000000,-0.085849799264,-0.111113337089,0.318473034394,-0.002007226357,-0.006971205126,-2.352987468129,-0.000001410165,-0.000000880630,0.000000008530,0.000023968129,0.000000123831,-0.000012773366,-0.065930441022,-0.056939929724,8.801713943481,0.003594518639,-2.800325218831,2.789523601532,-1.559651199971,1.574539184570,-0.787349049245,-0.000012783174,0.000000000000,-0.000000000000,0.000000000000,-0.000023968450,0.000000000000
0.589751000000,0.000020000000,11453.784000000000,-0.085848700649,-0.111115416090,0.318487276961,-0.002007320683,-0.006971212733,-2.352999654044,-0.000001410144,-0.000000880643,0.000000008530,0.000023968126,0.000000124408,-0.000012773372,-0.077917799354,-0.044952575117,8.837676048279,0.003618486924,-2.800313297902,2.789487600327,-1.559627358113,1.574539184570,-0.787385288869,-0.000012783174,0.000000000000,-0.000000000000,0.000000000000,-0.000023968450,0.000000000000
0.597808000000,0.000020000000,11453.791999999999,-0.085852455921,-0.111116274545,0.318489658614,-0.002012482789,-0.006903154150,-2.353011406985,-0.000001410226,-0.000000880596,0.000000008435,0.000023968130,0.000000123545,-0.000012773943,-0.122870370746,0.002996838419,8.957550048828,0.003582534380,-2.800301376973,2.789487600327,-1.559663120900,1.574491262436,-0.787360970174,-0.000012783174,0.000000000000,-0.000000000000,0.000000000000,-0.000023968450,0.000000000000
0.605749000000,0.000020000000,11453.799999999999,-0.085848955691,-0.111114329674,0.318476596695,-0.001987612441,-0.006962852390,-2.353011784128,-0.000001410178,-0.000000880640,0.000000008506,0.000023968128,0.000000123833,-0.000012773086,-0.140851408243,0.014984191395,8.930578231812,0.003594518639,-2.800337139760,2.789511442184,-1.559615437184,1.574527263641,-0.787373367940,-0.000012783174,0.000000000000,-0.000000000000,0.000000000000,-0.000023968450,0.000000000000
0.613749000000,0.000020000000,11453.807999999999,-0.085850037396,-0.111113393624,0.318487272670,-0.002013335257,-0.006985293006,-2.352963446016,-0.000001410142,-0.000000880626,0.000000008554,0.000023968127,0.000000124121,-0.000012773372,-0.098895661533,-0.000000000000,8.774743080139,0.003606502898,-2.800313297902,2.789487600327,-1.559627358113,1.574551224709,-0.787337128316,-0.000012783174,0.000000000000,-0.000000000000,0.000000000000,-0.000023968450,0.000000000000
0.621754000000,0.000020000000,11453.815999999999,-0.085839432828,-0.111112404920,0.318491527693,-0.002081551341,-0.006990244377,-2.352975176300,-0.000001410105,-0.000000880762,0.000000008601,0.000023968126,0.000000124406,-0.000012774526,-0.050946250558,-0.047949414700,8.807707786560,0.003618486924,-2.800349537526,2.789487600327,-1.559639279042,1.574575185776,-0.787360970174,-0.000012783174,0.000000000000,-0.000000000000,0.000000000000,-0.000023968450,0.000000000000
0.629750000000,0.000020000000,11453.823999999999,-0.085842192576,-0.111117370613,0.318495152661,-0.002037922594,-0.006925604137,-2.352987720549,-0.000001410169,-0.000000880727,0.000000008483,0.000023968126,0.000000124408,-0.000012774229,-0.074920959771,-0.050946250558,8.864647865295,0.003618486924,-2.800337139760,2.789475679398,-1.559627358113,1.574515223503,-0.787373367940,-0.000012783174,0.000000000000,-0.000000000000,0.000000000000,-0.000023968450,0.000000000000
0.637747000000,0.000020000000,11453.832000000000,-0.085859382824,-0.111115393201,0.318468917243,-0.001945196830,-0.006980314826,-2.352987507101,-0.000001410168,-0.000000880507,0.000000008507,0.000023968127,0.000000124120,-0.000012772223,-0.083911471069,-0.032965220511,8.870641708374,0.003606502898,-2.800277535115,2.789523601532,-1.559651199971,1.574527263641,-0.787360970174,-0.000012783174,0.000000000000,-0.000000000000,0.000000000000,-0.000023968450,0.000000000000
0.645755000000,0.000020000000,11453.840000000000,-0.085859187824,-0.111113336043,0.318479413810,-0.001959624233,-0.006974444005,-2.353011394186,-0.000001410189,-0.000000880510,0.000000008507,0.000023968130,0.000000123547,-0.000012772515,-0.113879859447,0.026971545070,8.831682205200,0.003582534380,-2.800289456044,2.789499521255,-1.559627358113,1.574527263641,-0.787360970174,-0.000012783174,0.000000000000,-0.000000000000,0.000000000000,-0.000023968450,0.000000000000
0.653745000000,0.000020000000,11453.848000000000,-0.085847291747,-0.111116353855,0.318488315749,-0.002009830440,-0.006937183050,-2.353011682993,-0.000001410179,-0.000000880662,0.000000008483,0.000023968127,0.000000124120,-0.000012773658,-0.149841919541,0.038958899677,8.861651420593,0.003606502898,-2.800325218831,2.789487600327,-1.559627358113,1.574515223503,-0.787385288869,-0.000012783174,0.000000000000,-0.000000000000,0.000000000000,-0.000023968450,0.000000000000
0.661745000000,0.000020000000,11453.856000000000,-0.085839776054,-0.111112362931,0.318492663630,-0.002089940013,-0.006970196609,-2.352951421094,-0.000001410128,-0.000000880757,0.000000008577,0.000023968128,0.000000124119,-0.000012774812,-0.125867202878,-0.005993676838,8.867644309998,0.003606502898,-2.800349537526,2.789487600327,-1.559651199971,1.574563145638,-0.787325207387,-0.000012783174,0.000000000000,-0.000000000000,0.000000000000,-0.000023968450,0.000000000000
0.669741000000,0.000020000000,11453.864000000000,-0.085846424253,-0.111114261085,0.318476336467,-0.002037913971,-0.006925581760,-2.352975639152,-0.000001410200,-0.000000880673,0.000000008483,0.000023968130,0.000000123543,-0.000012774223,-0.080914631486,-0.044952575117,8.819695472717,0.003582534380,-2.800337139760,2.789523601532,-1.559675041829,1.574515223503,-0.787325207387,-0.000012783174,0.000000000000,-0.000000000000,0.000000000000,-0.000023968450,0.000000000000
0.677740000000,0.000020000000,11453.871999999999,-0.085838865225,-0.111115252004,0.318497157034,-0.002060925458,-0.006899573905,-2.353011260382,-0.000001410212,-0.000000880770,0.000000008459,0.000023968131,0.000000123545,-0.000012774812,-0.038958899677,-0.065930441022,8.840673446655,0.003582534380,-2.800373379384,2.789475679398,-1.559615437184,1.574503183365,-0.787360970174,-0.000012783174,0.000000000000,-0.000000000000,0.000000000000,-0.000023968450,0.000000000000
0.685737000000,0.000020000000,11453.879999999999,-0.085846259697,-0.111115359091,0.318494118155,-0.002029707833,-0.006945620679,-2.353011611698,-0.000001410167,-0.000000880675,0.000000008507,0.000023968127,0.000000124121,-0.000012773943,-0.089905150235,-0.041955735534,8.834679603577,0.003606502898,-2.800325218831,2.789475679398,-1.559627358113,1.574527263641,-0.787385288869,-0.000012783174,0.000000000000,-0.000000000000,0.000000000000,-0.000023968450,0.000000000000
0.693745000000,0.000020000000,11453.887999999999,-0.085849903195,-0.111109256627,0.318489333206,-0.002041504666,-0.006973837768,-2.353047586062,-0.000001410184,-0.000000880628,0.000000008554,0.000023968133,0.000000122971,-0.000012773943,-0.137854561210,-0.002996838419,8.789727210999,0.003558565862,-2.800337139760,2.789487600327,-1.559627358113,1.574551224709,-0.787373367940,-0.000012783174,0.000000000000,-0.000000000000,0.000000000000,-0.000023968450,0.000000000000
0.701793000000,0.000020000000,11453.895999999999,-0.085849955481,-0.111113262142,0.318501278236,-0.002052427286,-0.006919821227,-2.353047556946,-0.000001410211,-0.000000880628,0.000000008483,0.000023968132,0.000000123258,-0.000012774520,-0.140851408243,0.035962060094,8.891619682312,0.003570550121,-2.800313297902,2.789463520050,-1.559651199971,1.574515223503,-0.787385288869,-0.000012783174,0.000000000000,-0.000000000000,0.000000000000,-0.000023968450,0.000000000000
0.709771000000,0.000020000000,11453.903999999999,-0.085842553819,-0.111114454221,0.318500028161,-0.002061297534,-0.006982041726,-2.352987507929,-0.000001410108,-0.000000880722,0.000000008578,0.000023968124,0.000000124695,-0.000012774235,-0.113879859447,0.014984191395,8.921587944031,0.003630471183,-2.800325218831,2.789463520050,-1.559627358113,1.574563145638,-0.787385288869,-0.000012783174,0.000000000000,-0.000000000000,0.000000000000,-0.000023968450,0.000000000000
0.717743000000,0.000020000000,11453.912000000000,-0.085853041724,-0.111116339241,0.318492066101,-0.001990057947,-0.006928775803,-2.353011773953,-0.000001410203,-0.000000880588,0.000000008459,0.000023968129,0.000000123834,-0.000012773372,-0.059936765581,-0.044952575117,8.822691917419,0.003594518639,-2.800301376973,2.789475679398,-1.559627358113,1.574503183365,-0.787373367940,-0.000012783174,0.000000000000,-0.000000000000,0.000000000000,-0.000023968450,0.000000000000
0.725739000000,0.000020000000,11453.920000000000,-0.085845028170,-0.111113318216,0.318481119113,-0.002049627293,-0.006953809791,-2.352999322071,-0.000001410164,-0.000000880691,0.000000008530,0.000023968129,0.000000123831,-0.000012774229,-0.050946250558,-0.077917799354,8.813701629639,0.003594518639,-2.800337139760,2.789511442184,-1.559663120900,1.574539184570,-0.787360970174,-0.000012783174,0.000000000000,-0.000000000000,0.000000000000,-0.000023968450,0.000000000000
0.733733000000,0.000020000000,11453.928000000000,-0.085839868641,-0.111110260230,0.318508970819,-0.002112600445,-0.006944607542,-2.353023045828,-0.000001410172,-0.000000880757,0.000000008554,0.000023968132,0.000000123258,-0.000012775389,-0.104889340699,-0.020977867767,8.876635551453,0.003570550121,-2.800361458455,2.789451599121,-1.559627358113,1.574551224709,-0.787360970174,-0.000012783174,0.000000000000,-0.000000000000,0.000000000000,-0.000023968450,0.000000000000
0.741741000000,0.000020000000,11453.936000000000,-0.085851430904,-0.111115426990,0.318486246645,-0.001993274728,-0.006976997682,-2.352999671972,-0.000001410144,-0.000000880608,0.000000008530,0.000023968125,0.000000124408,-0.000012773086,-0.134857729077,0.002996838419,8.882628440857,0.003618486924,-2.800301376973,2.789487600327,-1.559627358113,1.574539184570,-0.787385288869,-0.000012783174,0.000000000000,-0.000000000000,0.000000000000,-0.000023968450,0.000000000000
0.749780000000,0.000020000000,11453.944000000000,-0.085849652638,-0.111112258192,0.318478860046,-0.002015813384,-0.006951331273,-2.353035736245,-0.000001410198,-0.000000880632,0.000000008506,0.000023968132,0.000000123257,-0.000012773658,-0.134857729077,0.041955735534,8.885625839233,0.003570550121,-2.800337139760,2.789511442184,-1.559639279042,1.574527263641,-0.787373367940,-0.000012783174,0.000000000000,-0.000000000000,0.000000000000,-0.000023968450,0.000000000000
0.757740000000,0.000020000000,11453.951999999999,-0.085839399383,-0.111114285729,0.318487899955,-0.002072521070,-0.006927961229,-2.352999285080,-0.000001410177,-0.000000880763,0.000000008506,0.000023968129,0.000000123831,-0.000012774812,-0.104889340699,0.008990515023,8.864647865295,0.003594518639,-2.800361458455,2.789499521255,-1.559651199971,1.574527263641,-0.787360970174,-0.000012783174,0.000000000000,-0.000000000000,0.000000000000,-0.000023968450,0.000000000000
0.765751000000,0.000020000000,11453.959999999999,-0.085843350759,-0.111119434407,0.318483640734,-0.002009722872,-0.006937126777,-2.352963841190,-0.000001410148,-0.000000880712,0.000000008483,0.000023968123,0.000000124981,-0.000012773658,-0.050946250558,-0.065930441022,8.828685760498,0.003642455442,-2.800325218831,2.789499521255,-1.559639279042,1.574515223503,-0.787373367940,-0.000012783174,0.000000000000,-0.000000000000,0.000000000000,-0.000023968450,0.000000000000
0.773735000000,0.000020000000,11453.967999999999,-0.085845746073,-0.111116379089,0.318490676172,-0.002043718933,-0.006939858789,-2.352999660605,-0.000001410156,-0.000000880681,0.000000008507,0.000023968126,0.000000124406,-0.000012774229,-0.068927280605,-0.047949414700,8.783733367920,0.003618486924,-2.800313297902,2.789487600327,-1.559663120900,1.574527263641,-0.787385288869,-0.000012783174,0.000000000000,-0.000000000000,0.000000000000,-0.000023968450,0.000000000000
0.781738000000,0.000020000000,11453.975999999999,-0.085852810332,-0.111116410245,0.318468613217,-0.001945126880,-0.006980252346,-2.352975493887,-0.000001410157,-0.000000880591,0.000000008507,0.000023968125,0.000000124408,-0.000012772223,-0.089905150235,-0.014984191395,8.831682205200,0.003618486924,-2.800313297902,2.789523601532,-1.559615437184,1.574527263641,-0.787360970174,-0.000012783174,0.000000000000,-0.000000000000,0.000000000000,-0.000023968450,0.000000000000
0.789734000000,0.000020000000,11453.984000000000,-0.085851775723,-0.111111373461,0.318470762468,-0.001990703302,-0.007010988817,-2.352987421595,-0.000001410140,-0.000000880604,0.000000008577,0.000023968128,0.000000123832,-0.000012772795,-0.131860882044,-0.002996838419,8.933574676514,0.003594518639,-2.800325218831,2.789523601532,-1.559627358113,1.574563145638,-0.787349049245,-0.000012783174,0.000000000000,-0.000000000000,0.000000000000,-0.000023968450,0.000000000000
0.797800000000,0.000020000000,11453.992000000000,-0.085854128962,-0.111113306936,0.318464968533,-0.001959310009,-0.006974478064,-2.353011460048,-0.000001410188,-0.000000880574,0.000000008506,0.000023968130,0.000000123545,-0.000012772509,-0.167822942138,0.044952575117,8.897612571716,0.003582534380,-2.800325218831,2.789535522461,-1.559627358113,1.574527263641,-0.787360970174,-0.000012783174,0.000000000000,-0.000000000000,0.000000000000,-0.000023968450,0.000000000000
0.805736000000,0.000020000000,11454.000000000000,-0.085848623388,-0.111115325031,0.318488315749,-0.002009950981,-0.006937128004,-2.352999348616,-0.000001410190,-0.000000880645,0.000000008483,0.000023968129,0.000000123833,-0.000012773658,-0.092901989818,-0.023974707350,8.828685760498,0.003594518639,-2.800325218831,2.789487600327,-1.559627358113,1.574515223503,-0.787360970174,-0.000012783174,0.000000000000,-0.000000000000,0.000000000000,-0.000023968450,0.000000000000
0.813732000000,0.000020000000,11454.008000000000,-0.085850287308,-0.111113300830,0.318476596695,-0.001987659332,-0.006962858583,-2.353023768329,-0.000001410188,-0.000000880624,0.000000008506,0.000023968130,0.000000123546,-0.000012773086,-0.062933601439,-0.065930441022,8.825689315796,0.003582534380,-2.800337139760,2.789511442184,-1.559615437184,1.574527263641,-0.787373367940,-0.000012783174,0.000000000000,-0.000000000000,0.000000000000,-0.000023968450,0.000000000000
0.821743000000,0.000020000000,11454.016000000000,-0.085852180849,-0.111114383718,0.318470872402,-0.001979080193,-0.006982750880,-2.352975509963,-0.000001410155,-0.000000880599,0.000000008530,0.000023968127,0.000000124119,-0.000012772795,-0.044952575117,-0.044952575117,8.822691917419,0.003606502898,-2.800313297902,2.789523601532,-1.559639279042,1.574539184570,-0.787349049245,-0.000012783174,0.000000000000,-0.000000000000,0.000000000000,-0.000023968450,0.000000000000
0.829733000000,0.000020000000,11454.023999999999,-0.085845214478,-0.111112299941,0.318496275792,-0.002063628137,-0.006948166005,-2.353047442948,-0.000001410175,-0.000000880688,0.000000008530,0.000023968131,0.000000123545,-0.000012774515,-0.110883019865,-0.041955735534,8.855657577515,0.003582534380,-2.800337139760,2.789475679398,-1.559639279042,1.574539184570,-0.787397209798,-0.000012783174,0.000000000000,-0.000000000000,0.000000000000,-0.000023968450,0.000000000000
0.837736000000,0.000020000000,11454.031999999999,-0.085845422498,-0.111114275249,0.318484610768,-0.002024630471,-0.006931060165,-2.352999414997,-0.000001410200,-0.000000880686,0.000000008483,0.000023968130,0.000000123545,-0.000012773955,-0.173816621304,0.038958899677,8.876635551453,0.003582534380,-2.800349537526,2.789499521255,-1.559627358113,1.574515223503,-0.787349049245,-0.000012783174,0.000000000000,-0.000000000000,0.000000000000,-0.000023968450,0.000000000000
0.845756000000,0.000020000000,11454.039999999999,-0.085842986542,-0.111113234597,0.318491447613,-0.002052743855,-0.006919552110,-2.353023262324,-0.000001410211,-0.000000880717,0.000000008483,0.000023968132,0.000000123258,-0.000012774526,-0.125867202878,0.023974707350,8.918590545654,0.003570550121,-2.800361458455,2.789487600327,-1.559627358113,1.574515223503,-0.787360970174,-0.000012783174,0.000000000000,-0.000000000000,0.000000000000,-0.000023968450,0.000000000000
0.853747000000,0.000020000000,11454.047999999999,-0.085845738072,-0.111113321032,0.318487027168,-0.002063727901,-0.006948039933,-2.352987371056,-0.000001410164,-0.000000880681,0.000000008530,0.000023968129,0.000000123831,-0.000012774515,-0.089905150235,-0.014984191395,8.855657577515,0.003594518639,-2.800325218831,2.789499521255,-1.559675041829,1.574539184570,-0.787349049245,-0.000012783174,0.000000000000,-0.000000000000,0.000000000000,-0.000023968450,0.000000000000
0.861731000000,0.000020000000,11454.055999999999,-0.085858258479,-0.111113323333,0.318475870496,-0.001973563644,-0.006968759459,-2.353047657104,-0.000001410189,-0.000000880522,0.000000008507,0.000023968130,0.000000123545,-0.000012772800,-0.059936765581,-0.089905150235,8.792723655701,0.003582534380,-2.800289456044,2.789511442184,-1.559651199971,1.574527263641,-0.787397209798,-0.000012783174,0.000000000000,-0.000000000000,0.000000000000,-0.000023968450,0.000000000000
0.869733000000,0.000020000000,11454.064000000000,-0.085856090946,-0.111113280264,0.318475672058,-0.001967847240,-0.006954473276,-2.353035811461,-0.000001410212,-0.000000880550,0.000000008483,0.000023968131,0.000000123259,-0.000012772800,-0.071924120188,-0.035962060094,8.840673446655,0.003570550121,-2.800313297902,2.789511442184,-1.559627358113,1.574515223503,-0.787373367940,-0.000012783174,0.000000000000,-0.000000000000,0.000000000000,-0.000023968450,0.000000000000
0.877741000000,0.000020000000,11454.072000000000,-0.085847722661,-0.111114415509,0.318488404340,-0.002027268808,-0.006979580613,-2.352975295471,-0.000001410131,-0.000000880656,0.000000008554,0.000023968126,0.000000124407,-0.000012773658,-0.110883019865,0.014984191395,8.921587944031,0.003618486924,-2.800313297902,2.789487600327,-1.559639279042,1.574551224709,-0.787360970174,-0.000012783174,0.000000000000,-0.000000000000,0.000000000000,-0.000023968450,0.000000000000
0.885735000000,0.000020000000,11454.080000000000,-0.085865628105,-0.111109312442,0.318472568141,-0.001943236391,-0.007014221655,-2.353023436381,-0.000001410185,-0.000000880427,0.000000008554,0.000023968132,0.000000122972,-0.000012771943,-0.134857729077,0.038958899677,8.894616127014,0.003558565862,-2.800277535115,2.789511442184,-1.559627358113,1.574551224709,-0.787349049245,-0.000012783174,0.000000000000,-0.000000000000,0.000000000000,-0.000023968450,0.000000000000
0.893725000000,0.000020000000,11454.088000000000,-0.085840052125,-0.111116418628,0.318489277279,-0.002036102271,-0.006959235006,-2.352927542120,-0.000001410133,-0.000000880754,0.000000008530,0.000023968124,0.000000124695,-0.000012773955,-0.101892501116,0.005993676838,8.882628440857,0.003630471183,-2.800349537526,2.789487600327,-1.559615437184,1.574539184570,-0.787325207387,-0.000012783174,0.000000000000,-0.000000000000,0.000000000000,-0.000023968450,0.000000000000
0.901791000000,0.000020000000,11454.096000000000,-0.085857069668,-0.111111315784,0.318479161598,-0.001964966541,-0.006988609337,-2.352987565515,-0.000001410187,-0.000000880537,0.000000008530,0.000023968131,0.000000123260,-0.000012772503,-0.077917799354,-0.023974707350,8.846666336060,0.003570550121,-2.800313297902,2.789499521255,-1.559603039418,1.574539184570,-0.787325207387,-0.000012783174,0.000000000000,-0.000000000000,0.000000000000,-0.000023968450,0.000000000000
0.909736000000,0.000020000000,11454.103999999999,-0.085852808392,-0.111111324277,0.318477922637,-0.002013386333,-0.006985318519,-2.352999398168,-0.000001410163,-0.000000880591,0.000000008554,0.000023968130,0.000000123545,-0.000012773372,-0.077917799354,-0.032965220511,8.810704231262,0.003582534380,-2.800313297902,2.789511442184,-1.559651199971,1.574551224709,-0.787349049245,-0.000012783174,0.000000000000,-0.000000000000,0.000000000000,-0.000023968450,0.000000000000
0.917732000000,0.000020000000,11454.111999999999,-0.085847067400,-0.111117337594,0.318490684694,-0.002032160952,-0.006911443317,-2.352999787139,-0.000001410192,-0.000000880665,0.000000008459,0.000023968127,0.000000124119,-0.000012774229,-0.047949414700,-0.077917799354,8.834679603577,0.003606502898,-2.800313297902,2.789487600327,-1.559663120900,1.574503183365,-0.787373367940,-0.000012783174,0.000000000000,-0.000000000000,0.000000000000,-0.000023968450,0.000000000000
0.925728000000,0.000020000000,11454.119999999999,-0.085851369002,-0.111112364767,0.318487272670,-0.002013271604,-0.006985390503,-2.353011669664,-0.000001410152,-0.000000880609,0.000000008554,0.000023968129,0.000000123833,-0.000012773372,-0.107886180282,-0.032965220511,8.855657577515,0.003594518639,-2.800313297902,2.789487600327,-1.559627358113,1.574551224709,-0.787373367940,-0.000012783174,0.000000000000,-0.000000000000,0.000000000000,-0.000023968450,0.000000000000
0.933727000000,0.000020000000,11454.127999999999,-0.085852749401,-0.111112323731,0.318482601945,-0.002007494678,-0.006971192654,-2.353023716982,-0.000001410176,-0.000000880592,0.000000008530,0.000023968130,0.000000123545,-0.000012773372,-0.140851408243,0.008990515023,8.873638153076,0.003582534380,-2.800313297902,2.789499521255,-1.559639279042,1.574539184570,-0.787373367940,-0.000012783174,0.000000000000,-0.000000000000,0.000000000000,-0.000023968450,0.000000000000
0.941748000000,0.000020000000,11454.135999999999,-0.085853323126,-0.111113234899,0.318494228063,-0.002018297501,-0.006917241708,-2.353047700675,-0.000001410234,-0.000000880585,0.000000008459,0.000023968133,0.000000122971,-0.000012773943,-0.149841919541,-0.002996838419,8.861651420593,0.003558565862,-2.800313297902,2.789475679398,-1.559639279042,1.574503183365,-0.787373367940,-0.000012783174,0.000000000000,-0.000000000000,0.000000000000,-0.000023968450,0.000000000000
0.949799000000,0.000020000000,11454.144000000000,-0.085865747037,-0.111112409722,0.318453899915,-0.001886553186,-0.007037388137,-2.352999530972,-0.000001410154,-0.000000880426,0.000000008554,0.000023968127,0.000000123834,-0.000012770795,-0.086908310652,-0.041955735534,8.813701629639,0.003594518639,-2.800277535115,2.789547443390,-1.559615437184,1.574551224709,-0.787360970174,-0.000012783174,0.000000000000,-0.000000000000,0.000000000000,-0.000023968450,0.000000000000
0.957737000000,0.000020000000,11454.152000000000,-0.085842613620,-0.111116375673,0.318508212217,-0.002086351779,-0.006922316994,-2.352939458943,-0.000001410156,-0.000000880721,0.000000008507,0.000023968126,0.000000124407,-0.000012775092,-0.035962060094,-0.065930441022,8.867644309998,0.003618486924,-2.800313297902,2.789451599121,-1.559663120900,1.574527263641,-0.787325207387,-0.000012783174,0.000000000000,-0.000000000000,0.000000000000,-0.000023968450,0.000000000000
0.965764000000,0.000020000000,11454.160000000000,-0.085839974901,-0.111115293781,0.318503278454,-0.002081052765,-0.006907927725,-2.352999223160,-0.000001410189,-0.000000880755,0.000000008483,0.000023968129,0.000000123832,-0.000012775103,-0.080914631486,-0.050946250558,8.885625839233,0.003594518639,-2.800349537526,2.789463520050,-1.559639279042,1.574515223503,-0.787360970174,-0.000012783174,0.000000000000,-0.000000000000,0.000000000000,-0.000023968450,0.000000000000
0.973724000000,0.000020000000,11454.168000000000,-0.085843801571,-0.111115340276,0.318478799829,-0.002016264514,-0.006951032027,-2.352987375469,-0.000001410167,-0.000000880706,0.000000008506,0.000023968127,0.000000124119,-0.000012773669,-0.140851408243,0.029968382791,8.846666336060,0.003606502898,-2.800349537526,2.789511442184,-1.559627358113,1.574527263641,-0.787360970174,-0.000012783174,0.000000000000,-0.000000000000,0.000000000000,-0.000023968450,0.000000000000
0.981720000000,0.000020000000,11454.175999999999,-0.085848749470,-0.111116394091,0.318482606182,-0.002001590953,-0.006957119349,-2.352987795908,-0.000001410156,-0.000000880643,0.000000008507,0.000023968126,0.000000124407,-0.000012773372,-0.164826110005,0.035962060094,8.933574676514,0.003618486924,-2.800313297902,2.789499521255,-1.559639279042,1.574527263641,-0.787373367940,-0.000012783174,0.000000000000,-0.000000000000,0.000000000000,-0.000023968450,0.000000000000
0.989722000000,0.000020000000,11454.183999999999,-0.085846702637,-0.111118413720,0.318476702367,-0.001981769511,-0.006948566369,-2.352939633522,-0.000001410159,-0.000000880669,0.000000008483,0.000023968124,0.000000124694,-0.000012773086,-0.140851408243,0.002996838419,8.921587944031,0.003630471183,-2.800325218831,2.789511442184,-1.559627358113,1.574515223503,-0.787337128316,-0.000012783174,0.000000000000,-0.000000000000,0.000000000000,-0.000023968450,0.000000000000
0.997804000000,0.000020000000,11454.191999999999,-0.085844571704,-0.111114365535,0.318489337497,-0.002035423368,-0.006959678864,-2.353023522823,-0.000001410154,-0.000000880696,0.000000008530,0.000023968127,0.000000124120,-0.000012773943,-0.074920959771,-0.023974707350,8.840673446655,0.003606502898,-2.800337139760,2.789487600327,-1.559627358113,1.574539184570,-0.787397209798,-0.000012783174,0.000000000000,-0.000000000000,0.000000000000,-0.000023968450,0.000000000000
1.005742000000,0.000020000000,11454.199999999999,-0.085845776051,-0.111112245912,0.318485738147,-0.002044551625,-0.006939494592,-2.353011359197,-0.000001410198,-0.000000880681,0.000000008506,0.000023968132,0.000000123257,-0.000012774240,-0.050946250558,-0.080914631486,8.780735969543,0.003570550121,-2.800349537526,2.789499521255,-1.559639279042,1.574527263641,-0.787349049245,-0.000012783174,0.000000000000,-0.000000000000,0.000000000000,-0.000023968450,0.000000000000
1.013748000000,0.000020000000,11454.207999999999,-0.085853893370,-0.111114440142,0.318492251719,-0.002013203829,-0.006985442671,-2.352987699303,-0.000001410131,-0.000000880577,0.000000008554,0.000023968126,0.000000124408,-0.000012773372,-0.068927280605,-0.017981030047,8.831682205200,0.003618486924,-2.800277535115,2.789475679398,-1.559651199971,1.574551224709,-0.787373367940,-0.000012783174,0.000000000000,-0.000000000000,0.000000000000,-0.000023968450,0.000000000000
1.021814000000,0.000020000000,11454.216000000000,-0.085852738400,-0.111115335280,0.318469647818,-0.001953445810,-0.006960284546,-2.352999475729,-0.000001410191,-0.000000880592,0.000000008483,0.000023968128,0.000000123833,-0.000012772509,-0.140851408243,0.005993676838,8.894616127014,0.003594518639,-2.800325218831,2.789523601532,-1.559615437184,1.574515223503,-0.787360970174,-0.000012783174,0.000000000000,-0.000000000000,0.000000000000,-0.000023968450,0.000000000000
1.029728000000,0.000020000000,11454.224000000000,-0.085842049418,-0.111116329980,0.318478702649,-0.002010326385,-0.006936908835,-2.353023636783,-0.000001410179,-0.000000880729,0.000000008483,0.000023968127,0.000000124120,-0.000012773669,-0.164826110005,0.038958899677,8.879631996155,0.003606502898,-2.800361458455,2.789511442184,-1.559615437184,1.574515223503,-0.787397209798,-0.000012783174,0.000000000000,-0.000000000000,0.000000000000,-0.000023968450,0.000000000000
1.037724000000,0.000020000000,11454.232000000000,-0.085849655382,-0.111116319782,0.318482513319,-0.001990109638,-0.006928660977,-2.352987498757,-0.000001410203,-0.000000880632,0.000000008459,0.000023968129,0.000000123833,-0.000012773372,-0.110883019865,0.017981030047,8.861651420593,0.003594518639,-2.800325218831,2.789499521255,-1.559627358113,1.574503183365,-0.787349049245,-0.000012783174,0.000000000000,-0.000000000000,0.000000000000,-0.000023968450,0.000000000000
1.045727000000,0.000020000000,11454.240000000000,-0.085850712916,-0.111112356142,0.318476689572,-0.001999314619,-0.006991030456,-2.352975491599,-0.000001410152,-0.000000880618,0.000000008554,0.000023968128,0.000000123833,-0.000012773086,-0.065930441022,-0.038958899677,8.843669891357,0.003594518639,-2.800325218831,2.789511442184,-1.559627358113,1.574551224709,-0.787337128316,-0.000012783174,0.000000000000,-0.000000000000,0.000000000000,-0.000023968450,0.000000000000
1.053818000000,0.000020000000,11454.248000000000,-0.085848323729,-0.111117348618,0.318482513319,-0.001990026795,-0.006928684668,-2.352987435427,-0.000001410192,-0.000000880649,0.000000008459,0.000023968127,0.000000124120,-0.000012773372,-0.053943090141,-0.071924120188,8.819695472717,0.003606502898,-2.800325218831,2.789499521255,-1.559627358113,1.574503183365,-0.787360970174,-0.000012783174,0.000000000000,-0.000000000000,0.000000000000,-0.000023968450,0.000000000000
1.061838000000,0.000020000000,11454.255999999999,-0.085849947090,-0.111111228271,0.318484666719,-0.002029954796,-0.006945547526,-2.353035283055,-0.000001410209,-0.000000880628,0.000000008506,0.000023968133,0.000000122970,-0.000012773943,-0.071924120188,-0.029968382791,8.828685760498,0.003558565862,-2.800337139760,2.789499521255,-1.559639279042,1.574527263641,-0.787360970174,-0.000012783174,0.000000000000,-0.000000000000,0.000000000000,-0.000023968450,0.000000000000
1.069841000000,0.000020000000,11454.263999999999,-0.085845322609,-0.111112288326,0.318486925763,-0.002063731134,-0.006948057238,-2.353011266379,-0.000001410175,-0.000000880687,0.000000008530,0.000023968131,0.000000123544,-0.000012774515,-0.110883019865,0.008990515023,8.903606414795,0.003582534380,-2.800337139760,2.789499521255,-1.559663120900,1.574539184570,-0.787360970174,-0.000012783174,0.000000000000,-0.000000000000,0.000000000000,-0.000023968450,0.000000000000
1.077846000000,0.000020000000,11454.271999999999,-0.085850008342,-0.111115324446,0.318470678118,-0.001967417443,-0.006954559874,-2.353023776661,-0.000001410190,-0.000000880627,0.000000008483,0.000023968128,0.000000123833,-0.000012772795,-0.149841919541,0.038958899677,8.831682205200,0.003594518639,-2.800337139760,2.789523601532,-1.559615437184,1.574515223503,-0.787385288869,-0.000012783174,0.000000000000,-0.000000000000,0.000000000000,-0.000023968450,0.000000000000
1.085839000000,0.000020000000,11454.279999999999,-0.085851286633,-0.111113267335,0.318488315749,-0.002010153019,-0.006937050223,-2.352987554403,-0.000001410211,-0.000000880611,0.000000008483,0.000023968132,0.000000123259,-0.000012773658,-0.077917799354,-0.023974707350,8.822691917419,0.003570550121,-2.800325218831,2.789487600327,-1.559627358113,1.574515223503,-0.787325207387,-0.000012783174,0.000000000000,-0.000000000000,0.000000000000,-0.000023968450,0.000000000000
1.093829000000,0.000020000000,11454.287999999999,-0.085849304177,-0.111113293929,0.318477728376,-0.002001750653,-0.006957060810,-2.353011362515,-0.000001410188,-0.000000880636,0.000000008506,0.000023968130,0.000000123545,-0.000012773372,-0.086908310652,-0.053943090141,8.843669891357,0.003582534380,-2.800337139760,2.789511442184,-1.559627358113,1.574527263641,-0.787360970174,-0.000012783174,0.000000000000,-0.000000000000,0.000000000000,-0.000023968450,0.000000000000
1.101832000000,0.000020000000,11454.296000000000,-0.085849103035,-0.111114374538,0.318483733615,-0.002021454270,-0.006965414009,-2.352999740334,-0.000001410154,-0.000000880638,0.000000008530,0.000023968127,0.000000124119,-0.000012773658,-0.044952575117,-0.047949414700,8.831682205200,0.003606502898,-2.800313297902,2.789499521255,-1.559651199971,1.574539184570,-0.787373367940,-0.000012783174,0.000000000000,-0.000000000000,0.000000000000,-0.000023968450,0.000000000000
1.109803000000,0.000020000000,11454.304000000000,-0.085835928327,-0.111114374446,0.318491333349,-0.002069878957,-0.006962018512,-2.352999539205,-0.000001410130,-0.000000880807,0.000000008554,0.000023968126,0.000000124407,-0.000012774526,-0.110883019865,0.005993676838,8.837676048279,0.003618486924,-2.800373379384,2.789487600327,-1.559615437184,1.574551224709,-0.787385288869,-0.000012783174,0.000000000000,-0.000000000000,0.000000000000,-0.000023968450,0.000000000000
1.117751000000,0.000020000000,11454.312000000000,-0.085853655363,-0.111112239531,0.318482509064,-0.001996034515,-0.006942904529,-2.353035340764,-0.000001410222,-0.000000880581,0.000000008483,0.000023968133,0.000000122971,-0.000012773372,-0.149841919541,0.029968382791,8.906603813171,0.003558565862,-2.800325218831,2.789499521255,-1.559627358113,1.574515223503,-0.787360970174,-0.000012783174,0.000000000000,-0.000000000000,0.000000000000,-0.000023968450,0.000000000000
1.125793000000,0.000020000000,11454.320000000000,-0.085855085547,-0.111110267659,0.318494316669,-0.002035747863,-0.006959675216,-2.353035217984,-0.000001410196,-0.000000880562,0.000000008530,0.000023968133,0.000000122971,-0.000012773943,-0.137854561210,0.008990515023,8.909600257874,0.003558565862,-2.800301376973,2.789475679398,-1.559651199971,1.574539184570,-0.787360970174,-0.000012783174,0.000000000000,-0.000000000000,0.000000000000,-0.000023968450,0.000000000000
1.133838000000,0.000020000000,11454.328000000000,-0.085857810841,-0.111111262203,0.318493290593,-0.002015901057,-0.006951437042,-2.353047665122,-0.000001410209,-0.000000880528,0.000000008507,0.000023968133,0.000000122971,-0.000012773658,-0.077917799354,-0.035962060094,8.858654022217,0.003558565862,-2.800289456044,2.789475679398,-1.559651199971,1.574527263641,-0.787373367940,-0.000012783174,0.000000000000,-0.000000000000,0.000000000000,-0.000023968450,0.000000000000
1.141807000000,0.000020000000,11454.335999999999,-0.085841737344,-0.111113360587,0.318490404634,-0.002055887789,-0.006967827923,-2.353011551197,-0.000001410141,-0.000000880732,0.000000008554,0.000023968127,0.000000124120,-0.000012774240,-0.053943090141,-0.041955735534,8.819695472717,0.003606502898,-2.800349537526,2.789487600327,-1.559627358113,1.574551224709,-0.787385288869,-0.000012783174,0.000000000000,-0.000000000000,0.000000000000,-0.000023968450,0.000000000000
1.149776000000,0.000020000000,11454.343999999999,-0.085848566519,-0.111111279112,0.318489337497,-0.002035636791,-0.006959636293,-2.353035633683,-0.000001410186,-0.000000880646,0.000000008530,0.000023968132,0.000000123258,-0.000012773943,-0.065930441022,-0.032965220511,8.825689315796,0.003570550121,-2.800337139760,2.789487600327,-1.559627358113,1.574539184570,-0.787373367940,-0.000012783174,0.000000000000,-0.000000000000,0.000000000000,-0.000023968450,0.000000000000
1.157732000000,0.000020000000,11454.351999999999,-0.085841443019,-0.111114390440,0.318484597974,-0.002041783711,-0.006973580039,-2.352999607128,-0.000001410131,-0.000000880736,0.000000008554,0.000023968126,0.000000124407,-0.000012773955,-0.095898829401,-0.023974707350,8.858654022217,0.003618486924,-2.800349537526,2.789499521255,-1.559627358113,1.574551224709,-0.787385288869,-0.000012783174,0.000000000000,-0.000000000000,0.000000000000,-0.000023968450,0.000000000000
1.165725000000,0.000020000000,11454.359999999999,-0.085843748689,-0.111114324123,0.318505746188,-0.002058251611,-0.006933884717,-2.352987266328,-0.000001410177,-0.000000880707,0.000000008507,0.000023968129,0.000000123834,-0.000012774520,-0.137854561210,0.023974707350,8.879631996155,0.003594518639,-2.800337139760,2.789451599121,-1.559615437184,1.574527263641,-0.787349049245,-0.000012783174,0.000000000000,-0.000000000000,0.000000000000,-0.000023968450,0.000000000000
1.173710000000,0.000020000000,11454.367999999999,-0.085847020815,-0.111111304389,0.318491697893,-0.002069671351,-0.006962188749,-2.352975450110,-0.000001410162,-0.000000880665,0.000000008554,0.000023968131,0.000000123544,-0.000012774515,-0.128864049911,0.023974707350,8.852660179138,0.003582534380,-2.800325218831,2.789487600327,-1.559663120900,1.574551224709,-0.787325207387,-0.000012783174,0.000000000000,-0.000000000000,0.000000000000,-0.000023968450,0.000000000000
1.181712000000,0.000020000000,11454.376000000000,-0.085854086102,-0.111110301196,0.318482597654,-0.002013326020,-0.006985424392,-2.353047590376,-0.000001410173,-0.000000880575,0.000000008554,0.000023968132,0.000000123258,-0.000012773372,-0.089905150235,-0.014984191395,8.804711341858,0.003570550121,-2.800313297902,2.789499521255,-1.559639279042,1.574551224709,-0.787385288869,-0.000012783174,0.000000000000,-0.000000000000,0.000000000000,-0.000023968450,0.000000000000
1.189708000000,0.000020000000,11454.384000000000,-0.085852466110,-0.111114297091,0.318489650157,-0.002024102740,-0.006931374609,-2.352999423270,-0.000001410201,-0.000000880596,0.000000008483,0.000023968130,0.000000123545,-0.000012773943,-0.068927280605,-0.056939929724,8.834679603577,0.003582534380,-2.800301376973,2.789487600327,-1.559663120900,1.574515223503,-0.787349049245,-0.000012783174,0.000000000000,-0.000000000000,0.000000000000,-0.000023968450,0.000000000000
1.197704000000,0.000030000000,11454.392000000000,-0.085851134482,-0.111115325962,0.318489650157,-0.002023946261,-0.006931459887,-2.353023678519,-0.000001410190,-0.000000880613,0.000000008483,0.000023968129,0.000000123832,-0.000012773943,-0.056939929724,-0.053943090141,8.786729812622,0.003594518639,-2.800301376973,2.789487600327,-1.559663120900,1.574515223503,-0.787385288869,-0.000012783174,0.000000000000,-0.000000000000,0.000000000000,-0.000023968450,0.000000000000
1.205722000000,0.000080000000,11454.400000000000,-0.085855487659,-0.111115392811,0.318485220532,-0.001973587301,-0.006968673072,-2.352987386374,-0.000001410167,-0.000000880557,0.000000008507,0.000023968127,0.000000124121,-0.000012772800,-0.125867202878,-0.011987353675,8.864647865295,0.003606502898,-2.800289456044,2.789487600327,-1.559627358113,1.574527263641,-0.787360970174,-0.000012783174,0.000000000000,-0.000000000000,0.000000000000,-0.000023968450,0.000000000000
1.213743000000,0.000200000000,11454.407999999999,-0.085839962673,-0.111112454249,0.318491583628,-0.002086638461,-0.007004606007,-2.352987489308,0.000000010288,-0.000001978062,0.000000008625,0.000023968125,0.000000124694,0.000000008659,0.173816621304,0.347633242607,8.930578231812,0.003630471183,-2.800337139760,2.789487600327,-1.559651199971,1.574587106705,-0.787385288869,0.000000000000,0.000000000000,-0.000000000000,0.000000000000,-0.000023968450,0.000000000000
1.221724000000,0.000370000000,11454.415999999999,-0.085847012662,-0.111114412675,0.318482496270,-0.002013129964,-0.006985381335,-2.352999644058,0.000000010264,-0.000001978062,0.000000008554,0.000023968126,0.000000124407,0.000000009802,0.842111587524,1.015928149223,8.771745681763,0.003618486924,-2.800325218831,2.789499521255,-1.559627358113,1.574551224709,-0.787385288869,0.000000000000,0.000000000000,-0.000000000000,0.000000000000,-0.000023968450,0.000000000000
1.229735000000,0.000580000000,11454.423999999999,-0.085843309555,-0.111112417386,0.318484649617,-0.002052812553,-0.007002080827,-2.352999554069,0.000000010264,-0.000001978062,0.000000008601,0.000023968126,0.000000124407,0.000000009230,0.923026204109,1.069871306419,8.858654022217,0.003618486924,-2.800337139760,2.789499521255,-1.559639279042,1.574575185776,-0.787385288869,0.000000000000,0.000000000000,-0.000000000000,0.000000000000,-0.000023968450,0.000000000000
1.237774000000,0.000830000000,11454.431999999999,-0.085848393036,-0.111114371713,0.318477825544,-0.002007463840,-0.006971092238,-2.352975451695,0.000000010240,-0.000001978062,0.000000008530,0.000023968127,0.000000124119,0.000000009802,0.377601623535,0.431544721127,8.774743080139,0.003606502898,-2.800325218831,2.789511442184,-1.559639279042,1.574539184570,-0.787349049245,0.000000000000,0.000000000000,-0.000000000000,0.000000000000,-0.000023968450,0.000000000000
1.245709000000,0.001080000000,11454.439999999999,-0.085849683779,-0.111115423027,0.318486145280,-0.001993377788,-0.006976888047,-2.352963422775,0.000000010264,-0.000001978062,0.000000008530,0.000023968125,0.000000124408,0.000000010087,-0.227759718895,-0.185803979635,8.867644309998,0.003618486924,-2.800313297902,2.789487600327,-1.559615437184,1.574539184570,-0.787349049245,0.000000000000,0.000000000000,-0.000000000000,0.000000000000,-0.000023968450,0.000000000000
1.253812000000,0.001380000000,11454.448000000000,-0.085848355335,-0.111114327289,0.318495351187,-0.002043743909,-0.006939939016,-2.353047439077,0.000000010217,-0.000001978063,0.000000008507,0.000023968129,0.000000123833,0.000000008945,0.053943090141,0.107886180282,8.918590545654,0.003594518639,-2.800313297902,2.789475679398,-1.559651199971,1.574527263641,-0.787409130727,0.000000000000,0.000000000000,-0.000000000000,0.000000000000,-0.000023968450,0.000000000000
1.261848000000,0.001710000000,11454.456000000000,-0.085840166714,-0.111114391424,0.318502194270,-0.002083791312,-0.006956348756,-2.352963257460,0.000000010264,-0.000001978062,0.000000008554,0.000023968126,0.000000124407,0.000000008367,0.191797658801,0.362617433071,8.960546493530,0.003618486924,-2.800337139760,2.789463520050,-1.559639279042,1.574551224709,-0.787349049245,0.000000000000,0.000000000000,-0.000000000000,0.000000000000,-0.000023968450,0.000000000000
1.269793000000,0.002080000000,11454.464000000000,-0.085839828567,-0.111113449643,0.318501054073,-0.002081163693,-0.006990452511,-2.352987457479,0.000000010288,-0.000001978062,0.000000008601,0.000023968125,0.000000124695,0.000000008653,0.488484650850,0.698263347149,8.936572074890,0.003630471183,-2.800337139760,2.789463520050,-1.559627358113,1.574575185776,-0.787385288869,0.000000000000,0.000000000000,-0.000000000000,0.000000000000,-0.000023968450,0.000000000000
1.277716000000,0.002500000000,11454.472000000000,-0.085845503290,-0.111114475066,0.318496633188,-0.002019284056,-0.006999218531,-2.352939372992,0.000000010288,-0.000001978062,0.000000008578,0.000023968124,0.000000124697,0.000000009796,0.503468811512,0.614351868629,8.777739524841,0.003630471183,-2.800325218831,2.789463520050,-1.559591595327,1.574563145638,-0.787337128316,0.000000000000,0.000000000000,-0.000000000000,0.000000000000,-0.000023968450,0.000000000000
1.285730000000,0.002960000000,11454.480000000000,-0.085839063838,-0.111117395487,0.318490413161,-0.002044320476,-0.006939474007,-2.352951406985,0.000000010288,-0.000001978062,0.000000008506,0.000023968124,0.000000124694,0.000000008933,0.332649052143,0.233753383160,8.882628440857,0.003630471183,-2.800349537526,2.789487600327,-1.559627358113,1.574527263641,-0.787349049245,0.000000000000,0.000000000000,-0.000000000000,0.000000000000,-0.000023968450,0.000000000000
1.293726000000,0.003450000000,11454.487999999999,-0.085837662532,-0.111112304354,0.318487789959,-0.002084059536,-0.006956224639,-2.353011609347,0.000000010217,-0.000001978062,0.000000008554,0.000023968129,0.000000123831,0.000000008362,0.245740741491,0.215772360563,8.978528022766,0.003594518639,-2.800373379384,2.789499521255,-1.559639279042,1.574551224709,-0.787373367940,0.000000000000,0.000000000000,-0.000000000000,0.000000000000,-0.000023968450,0.000000000000
1.301711000000,0.003970000000,11454.495999999999,-0.085846083445,-0.111114399932,0.318478952923,-0.002027143910,-0.006979636810,-2.353011588050,0.000000010264,-0.000001978062,0.000000008554,0.000023968126,0.000000124406,0.000000009516,0.305677503347,0.374604791403,8.834679603577,0.003618486924,-2.800325218831,2.789511442184,-1.559651199971,1.574551224709,-0.787397209798,0.000000000000,0.000000000000,-0.000000000000,0.000000000000,-0.000023968450,0.000000000000
1.309710000000,0.004530000000,11454.503999999999,-0.085848134589,-0.111112430568,0.318471889846,-0.002010334855,-0.007019526896,-2.353011573749,0.000000010263,-0.000001978062,0.000000008601,0.000023968125,0.000000124406,0.000000010093,0.272712290287,0.410566866398,8.861651420593,0.003618486924,-2.800325218831,2.789523601532,-1.559639279042,1.574575185776,-0.787397209798,0.000000000000,0.000000000000,-0.000000000000,0.000000000000,-0.000023968450,0.000000000000
1.317718000000,0.005130000000,11454.511999999999,-0.085836689656,-0.111119416687,0.318496224076,-0.002052436714,-0.006919576336,-2.352963733364,0.000000010312,-0.000001978062,0.000000008483,0.000023968123,0.000000124982,0.000000008647,0.182807132602,0.341639578342,8.903606414795,0.003642455442,-2.800349537526,2.789475679398,-1.559627358113,1.574515223503,-0.787373367940,0.000000000000,0.000000000000,-0.000000000000,0.000000000000,-0.000023968450,0.000000000000
1.325770000000,0.005780000000,11454.519999999999,-0.085842966831,-0.111115390187,0.318496377199,-0.002063676658,-0.006948015014,-2.352951419136,0.000000010264,-0.000001978062,0.000000008530,0.000023968126,0.000000124407,0.000000008659,0.416560530663,0.443532079458,8.858654022217,0.003618486924,-2.800325218831,2.789475679398,-1.559651199971,1.574539184570,-0.787337128316,0.000000000000,0.000000000000,-0.000000000000,0.000000000000,-0.000023968450,0.000000000000
1.333717000000,0.006460000000,11454.528000000000,-0.085842024643,-0.111113382923,0.318522243471,-0.002098266022,-0.006950463787,-2.352951274208,0.000413891714,0.000000446829,0.002316299019,-0.000026250337,0.004755266566,0.000003773263,0.608358204365,0.485487818718,8.924584388733,0.003606502898,-2.800325218831,2.789415597916,-1.559615437184,1.574551224709,-0.787325207387,0.000000000000,0.000000000000,-0.004755340517,0.000000000000,0.000000000000,0.000000000000
1.341838000000,0.007190000000,11454.536000000000,-0.085845766712,-0.111119376570,0.318536468083,-0.002006413806,-0.006889019765,-2.352951371810,-0.000621654303,-0.000565962048,0.002077880232,0.006793953839,-0.007938402693,0.000036329061,0.485487818718,0.347633242607,9.014490127563,0.003606502898,-2.800325218831,2.789367675781,-1.559519116079,1.574479222298,-0.787325207387,0.000000000000,0.000000000000,-0.007222493179,0.015195997432,-0.006759102922,0.000000000000
1.349780000000,0.007950000000,11454.544000000000,-0.085840533850,-0.111126184392,0.318557263997,-0.002039502294,-0.006726971229,-2.352902990159,0.000119341077,-0.000887695691,0.003056846313,0.010773303614,0.001140085078,0.004822881424,0.143848240376,0.335645884275,8.861651420593,0.003582534380,-2.800337139760,2.789331912994,-1.559543434774,1.574371457100,-0.787252728139,-0.000063915868,0.000000000000,-0.007529288996,0.006471481640,-0.010785803199,0.004865595605
1.357709000000,0.008720000000,11454.552000000000,-0.085841074778,-0.111126212801,0.318584213641,-0.001963567536,-0.006741533574,-2.352879029559,-0.002267401848,-0.000148833054,0.004086396406,0.004994511592,-0.024038737968,0.001853030653,0.218769192696,0.314668029547,8.834679603577,0.003570550121,-2.800373379384,2.789247989655,-1.559363667165,1.574359416962,-0.787216965352,-0.003221359802,0.000000000000,-0.016247414052,0.040338903666,-0.004889564123,0.004985437728
1.365711000000,0.009550000000,11454.559999999999,-0.085855072299,-0.111138801008,0.318622102924,-0.001786049099,-0.006468501619,-2.352939506376,0.001700690332,-0.001570421732,0.007106696230,0.028800492042,0.014976822415,0.013452497315,0.470503628254,0.335645884275,9.194299697876,0.003474676283,-2.800373379384,2.789139986038,-1.559207741414,1.574108123779,-0.787181202565,-0.009421198629,-0.009906959720,-0.014751782641,0.009946906939,-0.028881983832,0.022841934115
1.373704000000,0.010430000000,11454.567999999999,-0.085833338181,-0.111133664350,0.318712490716,-0.001990337138,-0.006401122489,-2.352830351382,-0.000763452821,0.000063620576,0.007400371060,0.006866473866,-0.013844761240,-0.000914186930,-0.002996838419,0.413563698530,8.921587944031,0.003426739480,-2.800457302724,2.788948297501,-1.559099976216,1.574120163918,-0.787024799977,-0.007478156593,-0.007529288996,-0.022396119311,0.043838296086,-0.006807039957,0.006471481640
1.381701000000,0.011330000000,11454.575999999999,-0.085842378583,-0.111145331549,0.318788886773,-0.001832474877,-0.006135952271,-2.352866188149,-0.000654911902,-0.002081368495,0.010917194648,0.040291444744,0.004469342526,0.016514834186,0.683279156685,0.704257011414,9.062438964844,0.003330865642,-2.800481144582,2.788744449615,-1.558836285268,1.573880434036,-0.786964718496,-0.014649516903,-0.003310841974,-0.026883013546,0.026077674702,-0.040338903666,0.031087080017
1.389794000000,0.012300000000,11454.583999999999,-0.085841082504,-0.111136096434,0.318846739211,-0.001799006787,-0.006133114757,-2.352853962895,0.001339236635,0.000662091153,0.013818808852,0.008611089198,0.008395488826,-0.007953736518,0.443532079458,0.422554194927,8.855657577515,0.003211023286,-2.800588909780,2.788588762283,-1.558548752462,1.573868393898,-0.786833111440,-0.016119582579,-0.015480423346,-0.033555831760,0.040722396225,-0.008652610704,0.008077368140
1.397803000000,0.013280000000,11454.591999999999,-0.085832758494,-0.111150497060,0.318991331850,-0.001750511740,-0.005691107108,-2.352865485324,0.000160905301,-0.000943187938,0.017213288677,0.035615264857,0.005993422157,0.017014323982,0.386592149734,0.464509934187,9.224267959595,0.003055228386,-2.800696674977,2.788241147995,-1.558189217244,1.573532938957,-0.786689106618,-0.023469906300,-0.014074274339,-0.042810849845,0.051244549453,-0.035665053874,0.040362872183
1.405711000000,0.014300000000,11454.600000000000,-0.085822316523,-0.111157117445,0.319158236886,-0.001746051050,-0.005395847568,-2.352841155102,0.000186614257,-0.002028441807,0.020611776377,0.052152382271,0.007660043902,-0.000022382399,0.116876691580,0.197791323066,9.284205436707,0.002923402004,-2.800804917012,2.787833690643,-1.557757679616,1.573317170143,-0.786533657704,-0.026767965406,-0.015390940942,-0.051094345748,0.059178106487,-0.052203286439,0.026604980230
1.413698000000,0.015350000000,11454.608000000000,-0.085809855788,-0.111172262332,0.319326827859,-0.001671701394,-0.004849083861,-2.352744251112,0.000109568265,-0.002110645027,0.024538731318,0.057557431735,0.005138809584,0.000901291934,0.419557362795,0.671291768551,9.230261802673,0.002695701551,-2.800984684621,2.787426233292,-1.557278458272,1.572898149490,-0.786209408437,-0.031075894833,-0.019034145400,-0.061806645244,0.076075859368,-0.057596188039,0.031806133687
1.421712000000,0.016460000000,11454.616000000000,-0.085821638005,-0.111185602619,0.319543589770,-0.001489262650,-0.004363208653,-2.352839308148,-0.000197778780,-0.001631770302,0.024162599739,0.051470343253,0.004716882846,0.001165569997,0.578389823437,0.512459337711,9.347138404846,0.002456391696,-2.801056210195,2.786875009537,-1.556667629872,1.572490692139,-0.786065880452,-0.030807448551,-0.016886571422,-0.060899037868,0.073391392827,-0.051508199424,0.031806133687
1.429699000000,0.017600000000,11454.624000000000,-0.085796610577,-0.111193787046,0.319745634177,-0.001626876886,-0.003810475976,-2.352874309931,0.000222374858,-0.000782823801,0.020800501327,0.036885329749,0.011033074060,-0.011111472485,0.134857729077,0.515456199646,8.951556205750,0.002204722958,-2.801248375569,2.786419630051,-1.556284252797,1.572130680084,-0.785849873220,-0.026614567265,-0.013307283632,-0.050698067993,0.053162023425,-0.036935381591,0.015387745574
1.437698000000,0.018770000000,11454.632000000000,-0.085801586414,-0.111203128465,0.319889336842,-0.001513020452,-0.003412076458,-2.352837743316,-0.000374320867,-0.000854724753,0.016000445664,0.032850320060,0.001367390970,0.010483628433,0.269715458155,0.167822942138,8.088466644287,0.002000991022,-2.801332298909,2.786060094833,-1.555876557027,1.571807503700,-0.785610024129,-0.021859226748,-0.011466506869,-0.040765538812,0.051076769829,-0.032860744745,0.032237567008
1.445783000000,0.019990000000,11454.639999999999,-0.085812879291,-0.111214771530,0.319968920095,-0.001215396585,-0.003171645302,-2.352957231775,-0.000487662717,-0.000720008868,0.010924750316,0.025458248964,-0.002746507044,-0.005389340205,0.383595317602,0.134857729077,7.812757492065,0.001881148899,-2.801415745412,2.785820484161,-1.555409256612,1.571543931961,-0.785610024129,-0.016260197386,-0.009229451418,-0.028749357909,0.040842238814,-0.025454495102,0.010785803199
1.453712000000,0.021200000000,11454.647999999999,-0.085827447078,-0.111215344366,0.320032283366,-0.001106276847,-0.002985423616,-2.352993100908,0.000035509840,-0.000615693573,0.005261079779,0.016181624795,-0.000861993486,-0.003914927717,0.344636410475,0.167822942138,8.106448173523,0.001725353883,-2.801440064107,2.785652637482,-1.555193249379,1.571376085281,-0.785490338002,-0.008462460712,-0.006481069140,-0.013780261390,0.021188110113,-0.016178704798,0.004506068770
1.461702000000,0.022480000000,11454.655999999999,-0.085826751439,-0.111228405368,0.320040777390,-0.000984030446,-0.002887055937,-2.352825008930,-0.001182837591,-0.000392532349,0.001328611551,0.008648542580,-0.008260977105,0.006897719565,0.071924120188,0.221766039729,8.520010948181,0.001773290802,-2.801440064107,2.785616636276,-1.555097881948,1.571268200874,-0.785370175038,-0.003796602599,0.000754207256,-0.005381715950,0.012942963280,-0.008628642187,0.010665960610
1.469708000000,0.023780000000,11454.663999999999,-0.085851252523,-0.111223577145,0.320010401435,-0.000869179445,-0.003050387696,-2.353040900960,0.000687417460,0.001429432030,-0.005560428227,-0.021309870220,0.005507675399,-0.022013428032,0.296687006950,0.203785002232,8.280263900757,0.001797259320,-2.801332298909,2.785664558411,-1.555121723806,1.571352124214,-0.785610024129,0.003950000741,0.000754207256,0.015557122417,-0.021955100819,0.021307952702,-0.025909895077
1.477753000000,0.025140000000,11454.671999999999,-0.085866677744,-0.111210024127,0.319944166992,-0.000688450873,-0.003455082347,-2.352669348984,-0.001560136143,0.002278787473,0.009813874662,-0.034404456425,-0.022034809231,0.022560787032,0.020977867767,0.509462535381,8.289255142212,0.001869164640,-2.801319901143,2.785772562027,-1.554989639913,1.571591854095,-0.785310570394,0.006276538130,0.004256796557,-0.030257770792,0.047960869968,0.034442663193,0.016178704798
1.485716000000,0.026520000000,11454.680000000000,-0.085882891347,-0.111175398860,0.320016262438,-0.000707735732,-0.003942604541,-2.353051914314,-0.000867819965,0.003340662531,0.008424376920,-0.043477199091,-0.011600227208,0.028561721908,1.252678394318,-0.323658525944,9.413068771362,0.001809243462,-2.801319901143,2.785556793213,-1.554642502462,1.571951031685,-0.785634342824,0.002684466541,0.002428802894,-0.024236897007,0.033340115100,0.043478768319,0.025814021006
1.493754000000,0.027960000000,11454.688000000000,-0.085864654056,-0.111139702253,0.320168295998,-0.001149816088,-0.004289049251,-2.352894385710,0.001597026833,0.004720319125,0.020288234413,-0.059240015678,0.015962736102,-0.037610397948,-0.548421442509,0.008990515023,11.190194129944,0.001761306659,-2.801344219838,2.785220861435,-1.554498974477,1.572334527969,-0.785430256520,0.001712945290,0.001597896684,-0.047783501446,0.029888657853,0.059178106487,-0.039404131472
1.501708000000,0.029410000000,11454.696000000000,-0.085847000137,-0.111104376809,0.320364105683,-0.001594063891,-0.004767339823,-2.352808675495,0.000432155949,0.005442645294,0.023021256448,-0.067642632920,0.001363452529,0.042768172346,0.245740741491,0.149841919541,9.994456291199,0.001809243462,-2.801307980214,2.784765481949,-1.554259125386,1.572814226151,-0.785394493734,0.001252750983,0.001355016371,-0.058367971331,0.055582836270,0.067591033876,0.041369546205
1.509695000000,0.030920000000,11454.704000000000,-0.085840798361,-0.111051234885,0.320589510099,-0.002020917561,-0.005483327482,-2.352925526857,0.000084793926,0.007167959793,0.028395062661,-0.088335543660,0.004858422132,-0.031221041294,0.569399297237,0.611355006695,9.311176300049,0.001809243462,-2.801272217427,2.784214258194,-1.553839508687,1.573460936546,-0.785514179860,0.000984304352,0.006276538130,-0.071048878133,0.059465724975,0.088275805116,-0.032381378114
1.517777000000,0.032480000000,11454.712000000000,-0.085821314247,-0.110998237796,0.320840216610,-0.002437836640,-0.006252639455,-2.352682534292,0.000296193945,0.008213350129,0.032509222155,-0.100049882857,0.006232375444,0.028491518261,0.593374013901,-0.200788170099,8.891619682312,0.001845196122,-2.801307980214,2.783591032028,-1.553252522145,1.574143767357,-0.785310570394,0.000000000000,0.005330583546,-0.081313766539,0.069556444883,0.099972404540,0.028282772750
1.525791000000,0.034080000000,11454.719999999999,-0.085827209333,-0.110924579817,0.321090950134,-0.002798496871,-0.007409677221,-2.352810002867,0.000732006832,0.009835412339,0.035265616487,-0.122922981607,0.001236381281,0.008310085849,0.548421442509,-0.680282294750,9.245245933533,0.001893133041,-2.801248375569,2.782931804657,-1.552569214498,1.575090527534,-0.785490338002,0.003042395227,0.002505501965,-0.089610047638,0.085471495986,0.122862279415,0.005033374764
1.533772000000,0.035700000000,11454.727999999999,-0.085850677836,-0.110828878518,0.321371433176,-0.003250197370,-0.008743190856,-2.352780557385,-0.002297240209,0.010379001834,0.039075574270,-0.129634131176,-0.010859219711,-0.039976096691,-0.095898829401,0.296687006950,9.535939216614,0.001833211980,-2.801140133535,2.782200336456,-1.551874462758,1.576192617416,-0.785406414662,0.003042395227,0.017065536231,-0.101881891489,0.094915062189,0.129597410560,-0.043287023902
1.541778000000,0.037370000000,11454.735999999999,-0.085848147676,-0.110730493157,0.321730671624,-0.003871842321,-0.010172488206,-2.352785169545,0.001021456400,0.012932799576,0.045654482072,-0.159456305211,0.009517802338,0.042566684377,0.920029342175,0.353626936674,9.685781478882,0.001857180381,-2.801080528890,2.781289577484,-1.551047150289,1.577414989471,-0.785442177449,0.001930259168,0.005790777504,-0.114192090929,0.098678112030,0.159342259169,0.040362872183
1.549774000000,0.039080000000,11454.743999999999,-0.085837384480,-0.110619047030,0.322118446933,-0.004667325104,-0.011662093264,-2.352872327137,0.000046626958,0.014677108484,0.049550946971,-0.180087708820,0.001462943414,-0.043590349534,-0.026971545070,0.383595317602,9.652815818787,0.001821227721,-2.801056210195,2.780330896378,-1.550244633351,1.578732967377,-0.785502258931,0.001367799588,0.008794823661,-0.125888690352,0.114569194615,0.180003061891,-0.045300371945
1.557737000000,0.040820000000,11454.751999999999,-0.085854077601,-0.110499123022,0.322525320132,-0.005310547198,-0.013461177319,-2.352705931305,-0.000912178169,0.015820525496,0.054614405630,-0.192628381993,0.002655142230,0.026263070209,0.197791323066,0.149841919541,9.260230064392,0.001857180381,-2.800900761281,2.779276371002,-1.549273792897,1.580230236053,-0.785382095967,0.000000000000,0.015416507609,-0.138620734215,0.120177812874,0.192514598370,0.025909895077
1.565697000000,0.042590000000,11454.760000000000,-0.085846828859,-0.110367204369,0.322993084911,-0.006137423850,-0.015351874248,-2.352933238706,0.000083655262,0.017547736630,0.057808041606,-0.213598528312,-0.001492724599,-0.021193043134,0.338642746210,0.068927280605,9.407075881958,0.001869164640,-2.800852600728,2.778089523315,-1.548171345388,1.581848025322,-0.785634342824,0.000000000000,0.007797735743,-0.147901311517,0.140574961901,0.213510960340,-0.021595574915
1.573693000000,0.044410000000,11454.768000000000,-0.085844453065,-0.110216562045,0.323485133174,-0.007029386436,-0.017510647185,-2.352737185528,-0.000577728265,0.018814215137,0.063167937623,-0.229047604753,0.002737601375,0.026329855856,0.275709122419,0.116876691580,9.613857269287,0.001869164640,-2.800792996083,2.776831150055,-1.546973053609,1.583680868149,-0.785454098378,0.000000000000,0.015352590941,-0.160658925772,0.142156884074,0.228922680020,0.025909895077
1.581689000000,0.046260000000,11454.776000000000,-0.085861575186,-0.110057117365,0.324013047340,-0.007891695994,-0.019849205085,-2.352887288378,-0.000217867737,0.020601949064,0.068226061431,-0.250790364678,0.002860085093,0.004011202198,0.647317051888,0.218769192696,9.365119934082,0.001881148899,-2.800625149404,2.775465011597,-1.545702759420,1.585633993149,-0.785634342824,0.000000000000,0.014534467831,-0.173621058464,0.155411437154,0.250662058592,0.003571299138
1.589694000000,0.048140000000,11454.784000000000,-0.085851967981,-0.109886744601,0.324591054825,-0.008984218570,-0.022256280165,-2.352744776696,-0.000176822023,0.021634791093,0.071956213223,-0.264590118608,0.001287488814,-0.049909859494,-0.080914631486,0.188800811768,9.431050300598,0.001881148899,-2.800553146993,2.774002552032,-1.544384304677,1.587706804276,-0.785514179860,0.001176051912,0.016068449244,-0.183387413621,0.164135947824,0.264467895031,-0.051580104977
1.597776000000,0.050070000000,11454.791999999999,-0.085858867093,-0.109708573480,0.325176367328,-0.009986200674,-0.024850707885,-2.352791972983,0.000052567578,0.022841316017,0.076630465445,-0.279324025607,0.000325085191,0.047507022714,0.617348670959,-0.014984191395,9.326160430908,0.001893133041,-2.800421063100,2.772492408752,-1.542958561574,1.589887619019,-0.785598103200,0.001176051912,0.014534467831,-0.196221709251,0.181345298886,0.279184520245,0.045827679336
1.605693000000,0.051990000000,11454.799999999999,-0.085860547546,-0.109518629766,0.325838671696,-0.011142860529,-0.027579503570,-2.352870423903,-0.000418252004,0.024513604575,0.081702224926,-0.299667262467,-0.000639595060,-0.046270970373,-0.000000000000,0.311671197414,9.508968353271,0.001905117300,-2.800265614186,2.770802259445,-1.541448895131,1.592211842537,-0.785718266164,0.001176051912,0.019877834246,-0.208992108703,0.187577098608,0.299533724785,-0.048008807003
1.613689000000,0.053970000000,11454.807999999999,-0.085860163491,-0.109315775396,0.326523325616,-0.012427899101,-0.030451992025,-2.352655374988,0.000867804355,0.025905576390,0.086556274901,-0.316609599602,0.009253884042,0.027664868916,0.521449863911,0.305677503347,9.505970954895,0.001905117300,-2.800097767507,2.769064664841,-1.539950672780,1.594680190086,-0.785538021718,0.001176051912,0.017487380654,-0.219704404473,0.192514598370,0.316431492567,0.025909895077
1.621716000000,0.056010000000,11454.815999999999,-0.085844706339,-0.109104060996,0.327239487418,-0.013759838669,-0.033457163461,-2.352879782345,0.000536286461,0.026800958035,0.091365514923,-0.327444486293,0.007110192762,0.009518595986,0.509462535381,0.323658525944,9.541933059692,0.001905117300,-2.800013844167,2.767242908478,-1.538284603749,1.597256422043,-0.785802189504,0.001061003422,0.020606474951,-0.232551485300,0.203899607062,0.327265232801,0.007813715376
1.629688000000,0.058070000000,11454.823999999999,-0.085848657458,-0.108882706861,0.328005465841,-0.015143665955,-0.036652176467,-2.352690697961,0.000280437779,0.028759669661,0.095897308800,-0.351204439953,0.005808512512,-0.036314689723,0.065930441022,0.554415106773,9.260230064392,0.001941069961,-2.799773995076,2.765289306641,-1.536619011556,1.599988102913,-0.785694424306,0.000984304352,0.024185763672,-0.244337573647,0.211905077100,0.351017951965,-0.038013961166
1.637687000000,0.060180000000,11454.832000000000,-0.085848881960,-0.108650563748,0.328766744450,-0.016433507540,-0.040068870147,-2.352676819055,0.000380851101,0.029778080628,0.099240371145,-0.366319937418,0.001672290960,0.033690334003,0.821133732796,0.167822942138,9.353132247925,0.001977022737,-2.799618069326,2.763311386108,-1.534713570272,1.602851510048,-0.785765949880,0.003540938953,0.023942884058,-0.254717528820,0.228778868914,0.366142064333,0.029457226396
1.645775000000,0.062360000000,11454.840000000000,-0.085862388781,-0.108404466353,0.329570866979,-0.017857960005,-0.043613365242,-2.352715947889,-0.000120981464,0.031154617542,0.103372603307,-0.382980677959,0.000383403992,-0.043276459255,0.665298104286,0.275709122419,9.389094352722,0.001977022737,-2.799354378377,2.761238098145,-1.532880131398,1.605847239494,-0.785861794149,0.003425890580,0.029835926369,-0.265135794878,0.231774926186,0.382800132036,-0.047457531095
1.653692000000,0.064540000000,11454.848000000000,-0.085853230407,-0.108146635970,0.330448016601,-0.019475030934,-0.047289898725,-2.352518075466,-0.000092543350,0.032451369295,0.109755516760,-0.398532349148,0.002040642381,0.036357459695,0.665298104286,0.275709122419,9.389094352722,0.001989006996,-2.799150768911,2.758997201920,-1.530915562307,1.608998298645,-0.785742108022,0.003106311196,0.031587220728,-0.282111853361,0.248337119818,0.398331671953,0.032477252185
1.661685000000,0.066780000000,11454.856000000000,-0.085853449898,-0.107873980906,0.331352618409,-0.021103217512,-0.051182118035,-2.352743723894,-0.000269830179,0.033775633339,0.114075871903,-0.415188586738,-0.001231646124,-0.014075590399,0.713247537613,0.338642746210,9.473006248474,0.001977022737,-2.798910919820,2.756671667099,-1.528854195272,1.612305283546,-0.786029640828,0.003566505387,0.034898065031,-0.293782889843,0.257804661989,0.414989769459,-0.018503643572
1.669688000000,0.069060000000,11454.864000000000,-0.085851827505,-0.107606771215,0.332295405774,-0.022780239165,-0.055128876742,-2.352363330207,0.000282017376,0.035086638645,0.119971762621,-0.434448931386,0.006209845298,0.017840990234,0.383595317602,0.731228530407,9.643825531006,0.002084880602,-2.798575226461,2.754250526428,-1.526804749166,1.615671992302,-0.785837952291,0.006660033483,0.039512790740,-0.307716548443,0.260848641396,0.434212446213,0.010306433775
1.677687000000,0.071370000000,11454.871999999999,-0.085862963948,-0.107308694674,0.333243108741,-0.024506149047,-0.059458881133,-2.352438982757,-0.000207379962,0.036307681973,0.123152261104,-0.448188519729,-0.000916265396,-0.004700188273,0.233753383160,0.470503628254,9.431050300598,0.002108849119,-2.798239533101,2.751793861389,-1.524648014699,1.619326829910,-0.786029640828,0.005496764556,0.041149035096,-0.317764133215,0.275277644396,0.447970330715,-0.011121361516
1.685680000000,0.073710000000,11454.879999999999,-0.085863466721,-0.107013785550,0.334239050647,-0.026259158132,-0.063756839364,-2.352256367207,-0.000098288029,0.037947118437,0.127131574018,-0.469331693850,-0.002313387771,-0.041654637622,0.749209582806,0.200788170099,9.401082038879,0.002156785922,-2.797916237508,2.749216794968,-1.522383038198,1.622969269753,-0.785993878041,0.006570551079,0.044255346060,-0.328271895647,0.281868994236,0.469110518694,-0.049231197685
1.693728000000,0.076090000000,11454.887999999999,-0.085853543294,-0.106707176629,0.335304216901,-0.028216288975,-0.068202397815,-2.352095028645,-0.000263699257,0.039493451041,0.132719159738,-0.487479362287,0.002874684560,0.040117640758,0.167822942138,0.395582646132,9.772689819336,0.002228691475,-2.797556702291,2.746484518051,-1.520105663930,1.626779556274,-0.786017719899,0.005790777504,0.048435445875,-0.342908620834,0.291624128819,0.487230658531,0.033364083618
