Fabs3007/Masterarbeit_Abgabe/Messungen/Roboter/Bergfahrt mit schnellem Roboter/richard_capture_2023-08-28_16-15-42_ground_truth.csv
Rail.Time,Rail.Position,Bot.Time,Bot.TCP_pose_0,Bot.TCP_pose_1,Bot.TCP_pose_2,Bot.TCP_pose_3,Bot.TCP_pose_4,Bot.TCP_pose_5,Bot.TCP_speed_0,Bot.TCP_speed_1,Bot.TCP_speed_2,Bot.TCP_speed_3,Bot.TCP_speed_4,Bot.TCP_speed_5,Bot.actual_tool_accelerometer_0,Bot.actual_tool_accelerometer_1,Bot.actual_tool_accelerometer_2,Bot.actual_tool_accelerometer_3,Bot.actual_tool_accelerometer_4,Bot.actual_tool_accelerometer_5,Bot.actual_q_0,Bot.actual_q_1,Bot.actual_q_2,Bot.actual_q_3,Bot.actual_q_4,Bot.actual_q_5,Bot.actual_dq_0,Bot.actual_dq_1,Bot.actual_dq_2,Bot.actual_dq_3,Bot.actual_dq_4,Bot.actual_dq_5
0.001057000000,0.000010000000,11583.008000000000,-0.085858540858,-0.111119316363,0.318485342988,-0.001945017617,-0.006897704973,-2.352879373591,0.000004261373,-0.000003292634,0.000000000000,0.000000000000,0.000000000000,0.000038349521,-0.110883019865,0.029968382791,8.906603813171,0.003594518639,-2.800277535115,2.789487600327,-1.559639279042,1.574467301369,-0.787240807210,0.000038349521,0.000000000000,-0.000000000000,0.000000000000,0.000000000000,0.000000000000
0.003876000000,0.000010000000,11583.016000000000,-0.085868342948,-0.111112294278,0.318471550497,-0.001912081292,-0.006977323676,-2.352927226622,0.000004261103,-0.000003293010,0.000000000000,0.000000000000,0.000000000000,0.000038349521,-0.086908310652,-0.011987353675,8.831682205200,0.003558565862,-2.800265614186,2.789511442184,-1.559627358113,1.574515223503,-0.787252728139,0.000038349521,0.000000000000,-0.000000000000,0.000000000000,0.000000000000,0.000000000000
0.011872000000,0.000010000000,11583.023999999999,-0.085855104027,-0.111120399462,0.318488735531,-0.001935995208,-0.006917794199,-2.352879659994,0.000002840943,-0.000002195001,0.000000000000,0.000000000000,0.000000000000,0.000025566347,-0.032965220511,-0.062933601439,8.777739524841,0.003618486924,-2.800289456044,2.789475679398,-1.559603039418,1.574479222298,-0.787265125905,0.000025566347,0.000000000000,-0.000000000000,0.000000000000,0.000000000000,0.000000000000
0.019797000000,0.000010000000,11583.031999999999,-0.085863371864,-0.111117311398,0.318485541393,-0.001950769449,-0.006911862998,-2.352915665065,0.000002840864,-0.000002195213,0.000000000000,0.000000000000,0.000000000000,0.000025566347,-0.068927280605,-0.032965220511,8.777739524841,0.003582534380,-2.800253693257,2.789487600327,-1.559663120900,1.574479222298,-0.787265125905,0.000025566347,0.000000000000,-0.000000000000,0.000000000000,0.000000000000,0.000000000000
0.027793000000,0.000010000000,11583.039999999999,-0.085862662721,-0.111118439982,0.318470423001,-0.001892010097,-0.006968833167,-2.352855423566,0.000002840893,-0.000002195195,0.000000000000,0.000000000000,0.000000000000,0.000025566347,-0.116876691580,-0.008990515023,8.879631996155,0.003618486924,-2.800265614186,2.789511442184,-1.559615437184,1.574503183365,-0.787240807210,0.000025566347,0.000000000000,-0.000000000000,0.000000000000,0.000000000000,0.000000000000
0.035799000000,0.000010000000,11583.047999999999,-0.085863161163,-0.111117451314,0.318488000345,-0.001939416706,-0.006966050035,-2.352867216276,0.000002840867,-0.000002195207,0.000000000000,0.000000000000,0.000000000000,0.000025566347,-0.149841919541,0.032965220511,8.951556205750,0.003618486924,-2.800241295491,2.789475679398,-1.559639279042,1.574515223503,-0.787252728139,0.000025566347,0.000000000000,-0.000000000000,0.000000000000,0.000000000000,0.000000000000
0.043795000000,0.000010000000,11583.055999999999,-0.085867664755,-0.111118321367,0.318469258577,-0.001860073682,-0.006932637728,-2.352928191650,0.000002840890,-0.000002195323,0.000000000000,0.000000000000,0.000000000000,0.000025566347,-0.113879859447,0.017981030047,8.858654022217,0.003582534380,-2.800265614186,2.789511442184,-1.559603039418,1.574467301369,-0.787277523671,0.000025566347,0.000000000000,-0.000000000000,0.000000000000,0.000000000000,0.000000000000
0.051800000000,0.000010000000,11583.064000000000,-0.085856227182,-0.111116336768,0.318469854819,-0.001947932904,-0.006945888606,-2.352903682668,0.000002840839,-0.000002195030,0.000000000000,0.000000000000,0.000000000000,0.000025566347,-0.053943090141,-0.032965220511,8.828685760498,0.003594518639,-2.800301376973,2.789523601532,-1.559639279042,1.574503183365,-0.787265125905,0.000025566347,0.000000000000,-0.000000000000,0.000000000000,0.000000000000,0.000000000000
0.059809000000,0.000010000000,11583.072000000000,-0.085866502338,-0.111118407813,0.318481070313,-0.001899769696,-0.006949333295,-2.352879308823,0.000002840892,-0.000002195293,0.000000000000,0.000000000000,0.000000000000,0.000025566347,-0.035962060094,-0.080914631486,8.771745681763,0.003606502898,-2.800241295491,2.789487600327,-1.559627358113,1.574491262436,-0.787252728139,0.000025566347,0.000000000000,-0.000000000000,0.000000000000,0.000000000000,0.000000000000
0.067796000000,0.000010000000,11583.080000000000,-0.085864994601,-0.111117367491,0.318482142013,-0.001914311036,-0.006943413080,-2.352927991320,0.000002840865,-0.000002195254,0.000000000000,0.000000000000,0.000000000000,0.000025566347,-0.050946250558,-0.047949414700,8.804711341858,0.003594518639,-2.800253693257,2.789487600327,-1.559627358113,1.574491262436,-0.787289444600,0.000025566347,0.000000000000,-0.000000000000,0.000000000000,0.000000000000,0.000000000000
0.075792000000,0.000010000000,11583.088000000000,-0.085859539256,-0.111116362015,0.318484198673,-0.001948201614,-0.006945866632,-2.352916004769,0.000002840839,-0.000002195115,0.000000000000,0.000000000000,0.000000000000,0.000025566347,-0.122870370746,-0.005993676838,8.909600257874,0.003594518639,-2.800277535115,2.789487600327,-1.559627358113,1.574503183365,-0.787277523671,0.000025566347,0.000000000000,-0.000000000000,0.000000000000,0.000000000000,0.000000000000
0.083810000000,0.000010000000,11583.096000000000,-0.085849292956,-0.111116373919,0.318515505992,-0.002052711895,-0.006919531559,-2.352878969428,0.000002840840,-0.000002194853,0.000000000000,0.000000000000,0.000000000000,0.000025566347,-0.149841919541,0.038958899677,8.903606414795,0.003606502898,-2.800289456044,2.789427757263,-1.559639279042,1.574515223503,-0.787252728139,0.000025566347,0.000000000000,-0.000000000000,0.000000000000,0.000000000000,0.000000000000
0.091791000000,0.000010000000,11583.103999999999,-0.085859659885,-0.111118424981,0.318478493240,-0.001934244667,-0.006951481172,-2.352831527518,0.000002840892,-0.000002195118,0.000000000000,0.000000000000,0.000000000000,0.000025566347,-0.110883019865,0.020977867767,8.909600257874,0.003618486924,-2.800265614186,2.789499521255,-1.559639279042,1.574503183365,-0.787216965352,0.000025566347,0.000000000000,-0.000000000000,0.000000000000,0.000000000000,0.000000000000
0.099787000000,0.000010000000,11583.111999999999,-0.085866585850,-0.111121511364,0.318467147922,-0.001842849739,-0.006972594577,-2.352843449126,0.000002840971,-0.000002195295,0.000000000000,0.000000000000,0.000000000000,0.000025566347,-0.083911471069,-0.020977867767,8.807707786560,0.003642455442,-2.800241295491,2.789511442184,-1.559603039418,1.574491262436,-0.787252728139,0.000025566347,0.000000000000,-0.000000000000,0.000000000000,0.000000000000,0.000000000000
0.107864000000,0.000010000000,11583.119999999999,-0.085846234078,-0.111120307644,0.318494139288,-0.002001081933,-0.006874624145,-2.352891606392,0.000002840940,-0.000002194775,0.000000000000,0.000000000000,0.000000000000,0.000025566347,-0.041955735534,-0.056939929724,8.801713943481,0.003606502898,-2.800325218831,2.789475679398,-1.559627358113,1.574467301369,-0.787265125905,0.000025566347,0.000000000000,-0.000000000000,0.000000000000,0.000000000000,0.000000000000
0.115795000000,0.000010000000,11583.127999999999,-0.085858894481,-0.111119462169,0.318464297460,-0.001877647508,-0.006974633655,-2.352831538699,0.000002840919,-0.000002195098,0.000000000000,0.000000000000,0.000000000000,0.000025566347,-0.065930441022,-0.041955735534,8.855657577515,0.003630471183,-2.800289456044,2.789523601532,-1.559591595327,1.574503183365,-0.787228886281,0.000025566347,0.000000000000,-0.000000000000,0.000000000000,0.000000000000,0.000000000000
0.123788000000,0.000010000000,11583.135999999999,-0.085860417202,-0.111120440050,0.318466767798,-0.001899855882,-0.006949202164,-2.352880210975,0.000002840944,-0.000002195137,0.000000000000,0.000000000000,0.000000000000,0.000025566347,-0.140851408243,0.017981030047,8.852660179138,0.003630471183,-2.800265614186,2.789523601532,-1.559639279042,1.574491262436,-0.787277523671,0.000025566347,0.000000000000,-0.000000000000,0.000000000000,0.000000000000,0.000000000000
0.131787000000,0.000010000000,11583.144000000000,-0.085864531667,-0.111114322334,0.318499674149,-0.001962618238,-0.006940089010,-2.352951810611,0.000002840787,-0.000002195242,0.000000000000,0.000000000000,0.000000000000,0.000025566347,-0.119873531163,0.041955735534,8.876635551453,0.003570550121,-2.800253693257,2.789451599121,-1.559627358113,1.574503183365,-0.787289444600,0.000025566347,0.000000000000,-0.000000000000,0.000000000000,0.000000000000,0.000000000000
0.139790000000,0.000010000000,11583.152000000000,-0.085856146143,-0.111119406946,0.318482924566,-0.001927834134,-0.006937687684,-2.352855349431,0.000002840917,-0.000002195028,0.000000000000,0.000000000000,0.000000000000,0.000025566347,-0.107886180282,0.017981030047,8.843669891357,0.003618486924,-2.800289456044,2.789487600327,-1.559603039418,1.574491262436,-0.787240807210,0.000025566347,0.000000000000,-0.000000000000,0.000000000000,0.000000000000,0.000000000000
0.147798000000,0.000010000000,11583.160000000000,-0.085864574004,-0.111117328200,0.318482044963,-0.001908640765,-0.006929115696,-2.352903280455,0.000002840864,-0.000002195244,0.000000000000,0.000000000000,0.000000000000,0.000025566347,-0.077917799354,-0.041955735534,8.822691917419,0.003582534380,-2.800265614186,2.789487600327,-1.559615437184,1.574479222298,-0.787252728139,0.000025566347,0.000000000000,-0.000000000000,0.000000000000,0.000000000000,0.000000000000
0.155798000000,0.000010000000,11583.168000000000,-0.085860589258,-0.111118437725,0.318482036530,-0.001920158858,-0.006957286239,-2.352843424641,0.000002840893,-0.000002195142,0.000000000000,0.000000000000,0.000000000000,0.000025566347,-0.035962060094,-0.095898829401,8.834679603577,0.003618486924,-2.800265614186,2.789487600327,-1.559615437184,1.574503183365,-0.787228886281,0.000025566347,0.000000000000,-0.000000000000,0.000000000000,0.000000000000,0.000000000000
0.163788000000,0.000010000000,11583.175999999999,-0.085846017440,-0.111120394549,0.318500256425,-0.002026963405,-0.006896994207,-2.352855157122,0.000002840943,-0.000002194769,0.000000000000,0.000000000000,0.000000000000,0.000025566347,-0.104889340699,-0.023974707350,8.849663734436,0.003630471183,-2.800301376973,2.789463520050,-1.559651199971,1.574491262436,-0.787252728139,0.000025566347,0.000000000000,-0.000000000000,0.000000000000,0.000000000000,0.000000000000
0.171787000000,0.000010000000,11583.183999999999,-0.085864989469,-0.111118361137,0.318482146244,-0.001908638337,-0.006929098485,-2.352879385131,0.000002840891,-0.000002195254,0.000000000000,0.000000000000,0.000000000000,0.000025566347,-0.113879859447,0.029968382791,8.882628440857,0.003594518639,-2.800253693257,2.789487600327,-1.559627358113,1.574479222298,-0.787240807210,0.000025566347,0.000000000000,-0.000000000000,0.000000000000,0.000000000000,0.000000000000
0.179805000000,0.000010000000,11583.191999999999,-0.085860632701,-0.111120409371,0.318477369944,-0.001908534343,-0.006929058295,-2.352855438650,0.000002840943,-0.000002195143,0.000000000000,0.000000000000,0.000000000000,0.000025566347,-0.134857729077,0.062933601439,8.849663734436,0.003618486924,-2.800265614186,2.789499521255,-1.559627358113,1.574479222298,-0.787240807210,0.000025566347,0.000000000000,-0.000000000000,0.000000000000,0.000000000000,0.000000000000
0.187795000000,0.000010000000,11583.199999999999,-0.085858149768,-0.111117346407,0.318501840441,-0.001985007103,-0.006914347957,-2.352879210527,0.000002840865,-0.000002195079,0.000000000000,0.000000000000,0.000000000000,0.000025566347,-0.131860882044,0.023974707350,8.828685760498,0.003594518639,-2.800265614186,2.789451599121,-1.559639279042,1.574491262436,-0.787240807210,0.000025566347,0.000000000000,-0.000000000000,0.000000000000,0.000000000000,0.000000000000
0.195782000000,0.000010000000,11583.207999999999,-0.085854287662,-0.111118327703,0.318483903074,-0.001936705470,-0.006917470539,-2.352879321221,0.000002840890,-0.000002194981,0.000000000000,0.000000000000,0.000000000000,0.000025566347,-0.044952575117,-0.041955735534,8.858654022217,0.003594518639,-2.800313297902,2.789487600327,-1.559591595327,1.574479222298,-0.787240807210,0.000025566347,0.000000000000,-0.000000000000,0.000000000000,0.000000000000,0.000000000000
0.203800000000,0.000010000000,11583.216000000000,-0.085853519133,-0.111120424529,0.318491141289,-0.001970445299,-0.006920236962,-2.352867638543,0.000002840943,-0.000002194961,0.000000000000,0.000000000000,0.000000000000,0.000025566347,-0.053943090141,-0.038958899677,8.873638153076,0.003630471183,-2.800277535115,2.789475679398,-1.559639279042,1.574491262436,-0.787265125905,0.000025566347,0.000000000000,-0.000000000000,0.000000000000,0.000000000000,0.000000000000
0.211861000000,0.000010000000,11583.224000000000,-0.085855712577,-0.111117293262,0.318479182789,-0.001936186503,-0.006917699242,-2.352891337169,0.000002840863,-0.000002195017,0.000000000000,0.000000000000,0.000000000000,0.000025566347,-0.065930441022,-0.047949414700,8.801713943481,0.003582534380,-2.800313297902,2.789499521255,-1.559603039418,1.574479222298,-0.787240807210,0.000025566347,0.000000000000,-0.000000000000,0.000000000000,0.000000000000,0.000000000000
0.219786000000,0.000010000000,11583.232000000000,-0.085856786861,-0.111118431757,0.318493619573,-0.001947871750,-0.006945955359,-2.352879575540,0.000002840892,-0.000002195044,0.000000000000,0.000000000000,0.000000000000,0.000025566347,-0.104889340699,0.002996838419,8.849663734436,0.003618486924,-2.800277535115,2.789463520050,-1.559603039418,1.574503183365,-0.787265125905,0.000025566347,0.000000000000,-0.000000000000,0.000000000000,0.000000000000,0.000000000000
0.227779000000,0.000010000000,11583.240000000000,-0.085857549773,-0.111119462986,0.318481889959,-0.001919320418,-0.006957670632,-2.352903909896,0.000002840919,-0.000002195064,0.000000000000,0.000000000000,0.000000000000,0.000025566347,-0.149841919541,0.044952575117,8.912597656250,0.003630471183,-2.800277535115,2.789487600327,-1.559603039418,1.574503183365,-0.787301365529,0.000025566347,0.000000000000,-0.000000000000,0.000000000000,0.000000000000,0.000000000000
0.235781000000,0.000010000000,11583.248000000000,-0.085858793469,-0.111117445922,0.318486605990,-0.001925864548,-0.006971560356,-2.352879591794,0.000002840867,-0.000002195096,0.000000000000,0.000000000000,0.000000000000,0.000025566347,-0.116876691580,-0.002996838419,8.918590545654,0.003618486924,-2.800277535115,2.789475679398,-1.559591595327,1.574515223503,-0.787265125905,0.000025566347,0.000000000000,-0.000000000000,0.000000000000,0.000000000000,0.000000000000
0.243778000000,0.000010000000,11583.255999999999,-0.085863547357,-0.111115349654,0.318487843276,-0.001934282100,-0.006951605883,-2.352903179625,0.000002840814,-0.000002195217,0.000000000000,0.000000000000,0.000000000000,0.000025566347,-0.062933601439,-0.053943090141,8.798717498779,0.003582534380,-2.800265614186,2.789475679398,-1.559615437184,1.574503183365,-0.787252728139,0.000025566347,0.000000000000,-0.000000000000,0.000000000000,0.000000000000,0.000000000000
0.251774000000,0.000010000000,11583.263999999999,-0.085864239364,-0.111114261654,0.318490110899,-0.001956717260,-0.006926029443,-2.352927163388,0.000002840786,-0.000002195235,0.000000000000,0.000000000000,0.000000000000,0.000025566347,-0.041955735534,-0.083911471069,8.810704231262,0.003558565862,-2.800265614186,2.789475679398,-1.559639279042,1.574491262436,-0.787252728139,0.000025566347,0.000000000000,-0.000000000000,0.000000000000,0.000000000000,0.000000000000
0.259795000000,0.000010000000,11583.271999999999,-0.085866436909,-0.111116377285,0.318459825061,-0.001877687950,-0.006974772103,-2.352903781456,0.000002840840,-0.000002195291,0.000000000000,0.000000000000,0.000000000000,0.000025566347,-0.101892501116,-0.005993676838,8.831682205200,0.003594518639,-2.800265614186,2.789535522461,-1.559627358113,1.574503183365,-0.787265125905,0.000025566347,0.000000000000,-0.000000000000,0.000000000000,0.000000000000,0.000000000000
0.267779000000,0.000010000000,11583.279999999999,-0.085869256096,-0.111118516074,0.318483675818,-0.001883173876,-0.006989148674,-2.352855282198,0.000002840895,-0.000002195363,0.000000000000,0.000000000000,0.000000000000,0.000025566347,-0.143848240376,-0.005993676838,8.843669891357,0.003630471183,-2.800217453633,2.789475679398,-1.559615437184,1.574515223503,-0.787252728139,0.000025566347,0.000000000000,-0.000000000000,0.000000000000,0.000000000000,0.000000000000
0.275781000000,0.000010000000,11583.287999999999,-0.085868971173,-0.111116411610,0.318477565510,-0.001863336815,-0.006980737271,-2.352916070086,0.000002840841,-0.000002195356,0.000000000000,0.000000000000,0.000000000000,0.000025566347,-0.140851408243,0.011987353675,8.891619682312,0.003594518639,-2.800253693257,2.789487600327,-1.559579197560,1.574503183365,-0.787277523671,0.000025566347,0.000000000000,-0.000000000000,0.000000000000,0.000000000000,0.000000000000
0.283795000000,0.000010000000,11583.296000000000,-0.085860937822,-0.111117401837,0.318483168258,-0.001934109611,-0.006951645916,-2.352904038076,0.000002840866,-0.000002195151,0.000000000000,0.000000000000,0.000000000000,0.000025566347,-0.113879859447,0.008990515023,8.897612571716,0.003606502898,-2.800265614186,2.789487600327,-1.559627358113,1.574503183365,-0.787277523671,0.000025566347,0.000000000000,-0.000000000000,0.000000000000,0.000000000000,0.000000000000
0.291776000000,0.000010000000,11583.304000000000,-0.085868822133,-0.111116401864,0.318479934360,-0.001891527061,-0.006969161533,-2.352891269918,0.000002840841,-0.000002195352,0.000000000000,0.000000000000,0.000000000000,0.000025566347,-0.059936765581,-0.035962060094,8.831682205200,0.003594518639,-2.800241295491,2.789487600327,-1.559615437184,1.574503183365,-0.787252728139,0.000025566347,0.000000000000,-0.000000000000,0.000000000000,0.000000000000,0.000000000000
0.299773000000,0.000010000000,11583.312000000000,-0.085856557812,-0.111119352865,0.318474755747,-0.001936667683,-0.006917484739,-2.352867419397,0.000002840916,-0.000002195039,0.000000000000,0.000000000000,0.000000000000,0.000025566347,-0.038958899677,-0.062933601439,8.750767707825,0.003606502898,-2.800289456044,2.789511442184,-1.559639279042,1.574479222298,-0.787240807210,0.000025566347,0.000000000000,-0.000000000000,0.000000000000,0.000000000000,0.000000000000
0.307861000000,0.000010000000,11583.320000000000,-0.085856919462,-0.111120391535,0.318479532087,-0.001936596006,-0.006917534827,-2.352867334610,0.000002840943,-0.000002195048,0.000000000000,0.000000000000,0.000000000000,0.000025566347,-0.071924120188,-0.029968382791,8.810704231262,0.003618486924,-2.800277535115,2.789499521255,-1.559639279042,1.574479222298,-0.787252728139,0.000025566347,0.000000000000,-0.000000000000,0.000000000000,0.000000000000,0.000000000000
0.315854000000,0.000010000000,11583.328000000000,-0.085863974942,-0.111118400886,0.318475056951,-0.001885697807,-0.006955053999,-2.352879327853,0.000002840892,-0.000002195228,0.000000000000,0.000000000000,0.000000000000,0.000025566347,-0.173816621304,0.023974707350,8.909600257874,0.003606502898,-2.800265614186,2.789499521255,-1.559603039418,1.574491262436,-0.787252728139,0.000025566347,0.000000000000,-0.000000000000,0.000000000000,0.000000000000,0.000000000000
0.323776000000,0.000010000000,11583.335999999999,-0.085860646880,-0.111119519048,0.318485631565,-0.001911171320,-0.006977581963,-2.352855650890,0.000002840920,-0.000002195143,0.000000000000,0.000000000000,0.000000000000,0.000025566347,-0.131860882044,0.044952575117,8.936572074890,0.003642455442,-2.800253693257,2.789475679398,-1.559603039418,1.574515223503,-0.787265125905,0.000025566347,0.000000000000,-0.000000000000,0.000000000000,0.000000000000,0.000000000000
0.331779000000,0.000010000000,11583.343999999999,-0.085849023491,-0.111119328897,0.318488429823,-0.001992796824,-0.006894455891,-2.352891624449,0.000002840915,-0.000002194846,0.000000000000,0.000000000000,0.000000000000,0.000025566347,-0.104889340699,0.023974707350,8.825689315796,0.003606502898,-2.800313297902,2.789487600327,-1.559639279042,1.574479222298,-0.787265125905,0.000025566347,0.000000000000,-0.000000000000,0.000000000000,0.000000000000,0.000000000000
0.339781000000,0.000010000000,11583.351999999999,-0.085855887755,-0.111119396760,0.318485334579,-0.001956509511,-0.006925941424,-2.352855343430,0.000002840917,-0.000002195021,0.000000000000,0.000000000000,0.000000000000,0.000025566347,-0.068927280605,-0.011987353675,8.801713943481,0.003618486924,-2.800277535115,2.789487600327,-1.559639279042,1.574491262436,-0.787240807210,0.000025566347,0.000000000000,-0.000000000000,0.000000000000,0.000000000000,0.000000000000
0.347771000000,0.000010000000,11583.359999999999,-0.085852378084,-0.111122359932,0.318485144529,-0.001939052295,-0.006883489676,-2.352867337837,0.000002840993,-0.000002194932,0.000000000000,0.000000000000,0.000000000000,0.000025566347,-0.032965220511,-0.089905150235,8.804711341858,0.003618486924,-2.800301376973,2.789487600327,-1.559615437184,1.574455261230,-0.787252728139,0.000025566347,0.000000000000,-0.000000000000,0.000000000000,0.000000000000,0.000000000000
0.355780000000,0.000010000000,11583.367999999999,-0.085857639989,-0.111118416916,0.318485431679,-0.001962206683,-0.006940074790,-2.352879640815,0.000002840892,-0.000002195066,0.000000000000,0.000000000000,0.000000000000,0.000025566347,-0.098895661533,-0.032965220511,8.867644309998,0.003618486924,-2.800265614186,2.789487600327,-1.559651199971,1.574503183365,-0.787265125905,0.000025566347,0.000000000000,-0.000000000000,0.000000000000,0.000000000000,0.000000000000
0.363782000000,0.000010000000,11583.376000000000,-0.085857482050,-0.111120349405,0.318478303226,-0.001916670591,-0.006909354903,-2.352927984269,0.000002840941,-0.000002195062,0.000000000000,0.000000000000,0.000000000000,0.000025566347,-0.140851408243,0.020977867767,8.903606414795,0.003606502898,-2.800289456044,2.789499521255,-1.559615437184,1.574467301369,-0.787301365529,0.000025566347,0.000000000000,-0.000000000000,0.000000000000,0.000000000000,0.000000000000
0.371772000000,0.000010000000,11583.384000000000,-0.085867358806,-0.111118464753,0.318467128955,-0.001849859421,-0.006986153185,-2.352855455564,0.000002840893,-0.000002195315,0.000000000000,0.000000000000,0.000000000000,0.000025566347,-0.134857729077,0.026971545070,8.864647865295,0.003618486924,-2.800253693257,2.789511442184,-1.559591595327,1.574503183365,-0.787240807210,0.000025566347,0.000000000000,-0.000000000000,0.000000000000,0.000000000000,0.000000000000
0.379820000000,0.000010000000,11583.392000000000,-0.085870404985,-0.111116354715,0.318468219672,-0.001857689581,-0.006966612547,-2.352903352198,0.000002840839,-0.000002195393,0.000000000000,0.000000000000,0.000000000000,0.000025566347,-0.107886180282,0.002996838419,8.837676048279,0.003582534380,-2.800253693257,2.789511442184,-1.559603039418,1.574491262436,-0.787252728139,0.000025566347,0.000000000000,-0.000000000000,0.000000000000,0.000000000000,0.000000000000
0.387820000000,0.000010000000,11583.400000000000,-0.085857100156,-0.111117436152,0.318481829650,-0.001925853518,-0.006971533320,-2.352879613485,0.000002840867,-0.000002195052,0.000000000000,0.000000000000,0.000000000000,0.000025566347,-0.050946250558,-0.026971545070,8.795720100403,0.003618486924,-2.800289456044,2.789487600327,-1.559591595327,1.574515223503,-0.787265125905,0.000025566347,0.000000000000,-0.000000000000,0.000000000000,0.000000000000,0.000000000000
0.395798000000,0.000010000000,11583.407999999999,-0.085860576105,-0.111116363119,0.318478391938,-0.001934330341,-0.006951475473,-2.352855485939,0.000002840840,-0.000002195141,0.000000000000,0.000000000000,0.000000000000,0.000025566347,-0.050946250558,-0.065930441022,8.834679603577,0.003594518639,-2.800277535115,2.789499521255,-1.559627358113,1.574503183365,-0.787216965352,0.000025566347,0.000000000000,-0.000000000000,0.000000000000,0.000000000000,0.000000000000
0.403806000000,0.000010000000,11583.415999999999,-0.085853978068,-0.111123429065,0.318486575983,-0.001958892538,-0.006891931603,-2.352831439083,0.000002841020,-0.000002194973,0.000000000000,0.000000000000,0.000000000000,0.000025566347,-0.122870370746,0.005993676838,8.912597656250,0.003642455442,-2.800265614186,2.789487600327,-1.559663120900,1.574467301369,-0.787240807210,0.000025566347,0.000000000000,-0.000000000000,0.000000000000,0.000000000000,0.000000000000
0.411873000000,0.000010000000,11583.423999999999,-0.085856579692,-0.111118318730,0.318487602184,-0.001978922926,-0.006900194935,-2.352867406338,0.000002840890,-0.000002195039,0.000000000000,0.000000000000,0.000000000000,0.000025566347,-0.164826110005,0.044952575117,8.876635551453,0.003594518639,-2.800277535115,2.789487600327,-1.559663120900,1.574479222298,-0.787228886281,0.000025566347,0.000000000000,-0.000000000000,0.000000000000,0.000000000000,0.000000000000
0.419802000000,0.000010000000,11583.431999999999,-0.085862274607,-0.111115379203,0.318483164003,-0.001940053359,-0.006965785877,-2.352891195684,0.000002840814,-0.000002195185,0.000000000000,0.000000000000,0.000000000000,0.000025566347,-0.152838751674,0.023974707350,8.867644309998,0.003594518639,-2.800265614186,2.789487600327,-1.559627358113,1.574515223503,-0.787252728139,0.000025566347,0.000000000000,-0.000000000000,0.000000000000,0.000000000000,0.000000000000
0.427798000000,0.000010000000,11583.439999999999,-0.085857924516,-0.111119364324,0.318491246823,-0.001964651449,-0.006906133394,-2.352915966299,0.000002840916,-0.000002195074,0.000000000000,0.000000000000,0.000000000000,0.000025566347,-0.119873531163,0.005993676838,8.852660179138,0.003606502898,-2.800265614186,2.789475679398,-1.559651199971,1.574479222298,-0.787289444600,0.000025566347,0.000000000000,-0.000000000000,0.000000000000,0.000000000000,0.000000000000
0.435807000000,0.000010000000,11583.448000000000,-0.085853162615,-0.111118402053,0.318486360747,-0.001976318125,-0.006934209874,-2.352855294842,0.000002840892,-0.000002194952,0.000000000000,0.000000000000,0.000000000000,0.000025566347,-0.017981030047,-0.038958899677,8.861651420593,0.003618486924,-2.800289456044,2.789487600327,-1.559639279042,1.574503183365,-0.787240807210,0.000025566347,0.000000000000,-0.000000000000,0.000000000000,0.000000000000,0.000000000000
0.443797000000,0.000010000000,11583.456000000000,-0.085857570864,-0.111121383984,0.318490119308,-0.001944935872,-0.006897719453,-2.352855383729,0.000002840968,-0.000002195064,0.000000000000,0.000000000000,0.000000000000,0.000025566347,-0.038958899677,-0.056939929724,8.801713943481,0.003618486924,-2.800265614186,2.789475679398,-1.559639279042,1.574467301369,-0.787240807210,0.000025566347,0.000000000000,-0.000000000000,0.000000000000,0.000000000000,0.000000000000
0.451790000000,0.000010000000,11583.464000000000,-0.085853862537,-0.111120382340,0.318492277202,-0.001978723810,-0.006900281248,-2.352879646179,0.000002840942,-0.000002194970,0.000000000000,0.000000000000,0.000000000000,0.000025566347,-0.077917799354,-0.047949414700,8.792723655701,0.003618486924,-2.800277535115,2.789475679398,-1.559651199971,1.574479222298,-0.787265125905,0.000025566347,0.000000000000,-0.000000000000,0.000000000000,0.000000000000,0.000000000000
0.459804000000,0.000010000000,11583.472000000000,-0.085855480185,-0.111121432071,0.318488882123,-0.001936518529,-0.006917575803,-2.352867685236,0.000002840969,-0.000002195011,0.000000000000,0.000000000000,0.000000000000,0.000025566347,-0.158832430840,0.017981030047,8.891619682312,0.003630471183,-2.800277535115,2.789475679398,-1.559615437184,1.574479222298,-0.787265125905,0.000025566347,0.000000000000,-0.000000000000,0.000000000000,0.000000000000,0.000000000000
0.467795000000,0.000010000000,11583.480000000000,-0.085866555425,-0.111114370902,0.318479768783,-0.001897828468,-0.006983184868,-2.352939919249,0.000002840789,-0.000002195294,0.000000000000,0.000000000000,0.000000000000,0.000025566347,-0.143848240376,0.032965220511,8.918590545654,0.003582534380,-2.800265614186,2.789487600327,-1.559591595327,1.574515223503,-0.787289444600,0.000025566347,0.000000000000,-0.000000000000,0.000000000000,0.000000000000,0.000000000000
0.475791000000,0.000010000000,11583.487999999999,-0.085861979982,-0.111120440344,0.318473983742,-0.001927811934,-0.006937739846,-2.352843467496,0.000002840944,-0.000002195177,0.000000000000,0.000000000000,0.000000000000,0.000025566347,-0.065930441022,-0.026971545070,8.837676048279,0.003630471183,-2.800241295491,2.789511442184,-1.559675041829,1.574491262436,-0.787240807210,0.000025566347,0.000000000000,-0.000000000000,0.000000000000,0.000000000000,0.000000000000
0.483818000000,0.000010000000,11583.495999999999,-0.085854714239,-0.111116348948,0.318496958596,-0.001990640759,-0.006928448224,-2.352915907665,0.000002840839,-0.000002194991,0.000000000000,0.000000000000,0.000000000000,0.000025566347,-0.026971545070,-0.026971545070,8.816698074341,0.003594518639,-2.800289456044,2.789463520050,-1.559627358113,1.574503183365,-0.787277523671,0.000025566347,0.000000000000,-0.000000000000,0.000000000000,0.000000000000,0.000000000000
0.491796000000,0.000010000000,11583.503999999999,-0.085855120900,-0.111115347805,0.318480448439,-0.001968020681,-0.006954278541,-2.352927898432,0.000002840814,-0.000002195002,0.000000000000,0.000000000000,0.000000000000,0.000025566347,-0.044952575117,-0.062933601439,8.819695472717,0.003594518639,-2.800301376973,2.789499521255,-1.559627358113,1.574515223503,-0.787289444600,0.000025566347,0.000000000000,-0.000000000000,0.000000000000,0.000000000000,0.000000000000
0.499792000000,0.000010000000,11583.511999999999,-0.085856393832,-0.111120451156,0.318492537327,-0.001928533158,-0.006937461415,-2.352880027297,0.000001420472,-0.000001097517,0.000000000000,0.000000000000,0.000000000000,0.000012783174,-0.077917799354,-0.053943090141,8.825689315796,0.003630471183,-2.800277535115,2.789463520050,-1.559591595327,1.574491262436,-0.787277523671,0.000012783174,0.000000000000,-0.000000000000,0.000000000000,0.000000000000,0.000000000000
0.507831000000,0.000010000000,11583.519999999999,-0.085864641854,-0.111116432067,0.318485631565,-0.001911311658,-0.006977602027,-2.352891603260,0.000001420421,-0.000001097623,0.000000000000,0.000000000000,0.000000000000,0.000012783174,-0.155835598707,-0.000000000000,8.855657577515,0.003606502898,-2.800253693257,2.789475679398,-1.559603039418,1.574515223503,-0.787265125905,0.000012783174,0.000000000000,-0.000000000000,0.000000000000,0.000000000000,0.000000000000
0.515868000000,0.000010000000,11583.528000000000,-0.085861239676,-0.111119383665,0.318476091633,-0.001893883898,-0.006935103732,-2.352891739226,0.000001420458,-0.000001097579,0.000000000000,0.000000000000,0.000000000000,0.000012783174,-0.149841919541,0.044952575117,8.903606414795,0.003606502898,-2.800277535115,2.789499521255,-1.559603039418,1.574479222298,-0.787265125905,0.000012783174,0.000000000000,-0.000000000000,0.000000000000,0.000000000000,0.000000000000
0.523793000000,0.000010000000,11583.536000000000,-0.085866321756,-0.111113320559,0.318465526290,-0.001897689490,-0.006983172586,-2.352915272517,0.000001420381,-0.000001097644,0.000000000000,0.000000000000,0.000000000000,0.000012783174,-0.098895661533,0.014984191395,8.849663734436,0.003570550121,-2.800277535115,2.789523601532,-1.559615437184,1.574515223503,-0.787252728139,0.000012783174,0.000000000000,-0.000000000000,0.000000000000,0.000000000000,0.000000000000
0.531789000000,0.000010000000,11583.544000000000,-0.085848685232,-0.111118387189,0.318487289720,-0.001990281787,-0.006928466182,-2.352879585958,0.000001420446,-0.000001097419,0.000000000000,0.000000000000,0.000000000000,0.000012783174,-0.062933601439,-0.023974707350,8.840673446655,0.003618486924,-2.800313297902,2.789487600327,-1.559627358113,1.574503183365,-0.787265125905,0.000012783174,0.000000000000,-0.000000000000,0.000000000000,0.000000000000,0.000000000000
0.539795000000,0.000010000000,11583.552000000000,-0.085859651850,-0.111115356752,0.318474844381,-0.001954128281,-0.006959953572,-2.352879320112,0.000001420407,-0.000001097559,0.000000000000,0.000000000000,0.000000000000,0.000012783174,-0.050946250558,-0.047949414700,8.843669891357,0.003594518639,-2.800277535115,2.789511442184,-1.559651199971,1.574515223503,-0.787240807210,0.000012783174,0.000000000000,-0.000000000000,0.000000000000,0.000000000000,0.000000000000
0.547785000000,0.000010000000,11583.559999999999,-0.085854567440,-0.111117414052,0.318498288637,-0.002010436700,-0.006936901468,-2.352891919420,0.000001420433,-0.000001097494,0.000000000000,0.000000000000,0.000000000000,0.000012783174,-0.077917799354,-0.059936765581,8.837676048279,0.003618486924,-2.800265614186,2.789463520050,-1.559663120900,1.574515223503,-0.787277523671,0.000012783174,0.000000000000,-0.000000000000,0.000000000000,0.000000000000,0.000000000000
0.555805000000,0.000010000000,11583.567999999999,-0.085861922212,-0.111116374540,0.318494999132,-0.001962595554,-0.006940007593,-2.352903555069,0.000001420420,-0.000001097588,0.000000000000,0.000000000000,0.000000000000,0.000012783174,-0.128864049911,0.014984191395,8.882628440857,0.003594518639,-2.800253693257,2.789463520050,-1.559639279042,1.574503183365,-0.787265125905,0.000012783174,0.000000000000,-0.000000000000,0.000000000000,0.000000000000,0.000000000000
0.563789000000,0.000010000000,11583.575999999999,-0.085859954732,-0.111117394912,0.318484299975,-0.001948126256,-0.006945908485,-2.352915951189,0.000001420433,-0.000001097563,0.000000000000,0.000000000000,0.000000000000,0.000012783174,-0.140851408243,0.017981030047,8.894616127014,0.003606502898,-2.800265614186,2.789487600327,-1.559639279042,1.574503183365,-0.787289444600,0.000012783174,0.000000000000,-0.000000000000,0.000000000000,0.000000000000,0.000000000000
0.571795000000,0.000010000000,11583.583999999999,-0.085849648600,-0.111119384016,0.318490791988,-0.001969944302,-0.006920387012,-2.352867196104,0.000001420458,-0.000001097431,0.000000000000,0.000000000000,0.000000000000,0.000012783174,-0.092901989818,0.008990515023,8.903606414795,0.003618486924,-2.800313297902,2.789475679398,-1.559603039418,1.574491262436,-0.787252728139,0.000012783174,0.000000000000,-0.000000000000,0.000000000000,0.000000000000,0.000000000000
0.579809000000,0.000010000000,11583.591999999999,-0.085855052428,-0.111115359697,0.318489753204,-0.001967501601,-0.006954496255,-2.352915914998,0.000001420407,-0.000001097500,0.000000000000,0.000000000000,0.000000000000,0.000012783174,-0.026971545070,-0.059936765581,8.837676048279,0.003594518639,-2.800301376973,2.789475679398,-1.559603039418,1.574515223503,-0.787277523671,0.000012783174,0.000000000000,-0.000000000000,0.000000000000,0.000000000000,0.000000000000
0.587796000000,0.000010000000,11583.600000000000,-0.085856517090,-0.111121433213,0.318483075389,-0.001922462259,-0.006923334309,-2.352867724291,0.000001420485,-0.000001097519,0.000000000000,0.000000000000,0.000000000000,0.000012783174,-0.035962060094,-0.080914631486,8.822691917419,0.003630471183,-2.800277535115,2.789487600327,-1.559615437184,1.574479222298,-0.787265125905,0.000012783174,0.000000000000,-0.000000000000,0.000000000000,0.000000000000,0.000000000000
0.595786000000,0.000010000000,11583.608000000000,-0.085859962814,-0.111120453343,0.318487948760,-0.001928376072,-0.006937514880,-2.352843362732,0.000001420472,-0.000001097563,0.000000000000,0.000000000000,0.000000000000,0.000012783174,-0.089905150235,-0.029968382791,8.768749237061,0.003630471183,-2.800253693257,2.789475679398,-1.559627358113,1.574491262436,-0.787240807210,0.000012783174,0.000000000000,-0.000000000000,0.000000000000,0.000000000000,0.000000000000
0.603798000000,0.000010000000,11583.616000000000,-0.085861750417,-0.111118376855,0.318479730438,-0.001942551640,-0.006931714371,-2.352855465222,0.000001420446,-0.000001097586,0.000000000000,0.000000000000,0.000000000000,0.000012783174,-0.122870370746,0.050946250558,8.879631996155,0.003606502898,-2.800253693257,2.789499521255,-1.559663120900,1.574491262436,-0.787228886281,0.000012783174,0.000000000000,-0.000000000000,0.000000000000,0.000000000000,0.000000000000
0.611865000000,0.000010000000,11583.624000000000,-0.085865194192,-0.111119534179,0.318484706364,-0.001897172266,-0.006983356274,-2.352843280694,0.000001420460,-0.000001097630,0.000000000000,0.000000000000,0.000000000000,0.000012783174,-0.155835598707,0.044952575117,8.906603813171,0.003642455442,-2.800229374562,2.789475679398,-1.559615437184,1.574515223503,-0.787252728139,0.000012783174,0.000000000000,-0.000000000000,0.000000000000,0.000000000000,0.000000000000
0.619793000000,0.000010000000,11583.632000000000,-0.085854554495,-0.111119294520,0.318494544707,-0.002001159090,-0.006874704678,-2.352903629593,0.000001420457,-0.000001097494,0.000000000000,0.000000000000,0.000000000000,0.000012783174,-0.095898829401,0.008990515023,8.828685760498,0.003594518639,-2.800277535115,2.789475679398,-1.559675041829,1.574467301369,-0.787265125905,0.000012783174,0.000000000000,-0.000000000000,0.000000000000,0.000000000000,0.000000000000
0.627784000000,0.000010000000,11583.639999999999,-0.085858779207,-0.111119382841,0.318499581299,-0.001951033680,-0.006911681534,-2.352867273230,0.000001420458,-0.000001097548,0.000000000000,0.000000000000,0.000000000000,0.000012783174,-0.035962060094,-0.047949414700,8.771745681763,0.003606502898,-2.800265614186,2.789451599121,-1.559615437184,1.574479222298,-0.787240807210,0.000012783174,0.000000000000,-0.000000000000,0.000000000000,0.000000000000,0.000000000000
0.635789000000,0.000010000000,11583.647999999999,-0.085860560811,-0.111119324380,0.318478404549,-0.001916981141,-0.006909172648,-2.352855578443,0.000001420458,-0.000001097570,0.000000000000,0.000000000000,0.000000000000,0.000012783174,-0.050946250558,-0.098895661533,8.792723655701,0.003594518639,-2.800277535115,2.789499521255,-1.559627358113,1.574467301369,-0.787216965352,0.000012783174,0.000000000000,-0.000000000000,0.000000000000,0.000000000000,0.000000000000
0.643779000000,0.000010000000,11583.655999999999,-0.085854436169,-0.111117328659,0.318504002464,-0.002013031681,-0.006902855553,-2.352903503362,0.000001420432,-0.000001097492,0.000000000000,0.000000000000,0.000000000000,0.000012783174,-0.077917799354,-0.032965220511,8.894616127014,0.003594518639,-2.800277535115,2.789451599121,-1.559651199971,1.574491262436,-0.787265125905,0.000012783174,0.000000000000,-0.000000000000,0.000000000000,0.000000000000,0.000000000000
0.651779000000,0.000010000000,11583.663999999999,-0.085858776251,-0.111115330837,0.318495928239,-0.001976679798,-0.006934209273,-2.352915511874,0.000001420407,-0.000001097548,0.000000000000,0.000000000000,0.000000000000,0.000012783174,-0.146845072508,0.014984191395,8.909600257874,0.003582534380,-2.800277535115,2.789463520050,-1.559627358113,1.574503183365,-0.787265125905,0.000012783174,0.000000000000,-0.000000000000,0.000000000000,0.000000000000,0.000000000000
0.659802000000,0.000010000000,11583.671999999999,-0.085857325555,-0.111119390398,0.318463021898,-0.001914012535,-0.006943335165,-2.352867404155,0.000001420458,-0.000001097529,0.000000000000,0.000000000000,0.000000000000,0.000012783174,-0.119873531163,0.029968382791,8.852660179138,0.003618486924,-2.800289456044,2.789535522461,-1.559639279042,1.574491262436,-0.787252728139,0.000012783174,0.000000000000,-0.000000000000,0.000000000000,0.000000000000,0.000000000000
0.667780000000,0.000010000000,11583.680000000000,-0.085856576017,-0.111120433761,0.318478396139,-0.001928354011,-0.006937460808,-2.352843406112,0.000001420472,-0.000001097520,0.000000000000,0.000000000000,0.000000000000,0.000012783174,-0.110883019865,0.005993676838,8.879631996155,0.003630471183,-2.800277535115,2.789499521255,-1.559627358113,1.574491262436,-0.787240807210,0.000012783174,0.000000000000,-0.000000000000,0.000000000000,0.000000000000,0.000000000000
0.675780000000,0.000010000000,11583.688000000000,-0.085873393964,-0.111119416809,0.318456700683,-0.001823434197,-0.006964045654,-2.352867591475,0.000001420459,-0.000001097735,0.000000000000,0.000000000000,0.000000000000,0.000012783174,-0.071924120188,-0.068927280605,8.816698074341,0.003606502898,-2.800229374562,2.789535522461,-1.559627358113,1.574479222298,-0.787240807210,0.000012783174,0.000000000000,-0.000000000000,0.000000000000,0.000000000000,0.000000000000
0.683797000000,0.000010000000,11583.696000000000,-0.085856827303,-0.111117432050,0.318488869435,-0.001954008301,-0.006959995568,-2.352867178495,0.000001420433,-0.000001097523,0.000000000000,0.000000000000,0.000000000000,0.000012783174,-0.059936765581,-0.035962060094,8.789727210999,0.003618486924,-2.800277535115,2.789475679398,-1.559615437184,1.574515223503,-0.787252728139,0.000012783174,0.000000000000,-0.000000000000,0.000000000000,0.000000000000,0.000000000000
0.691784000000,0.000010000000,11583.704000000000,-0.085863306255,-0.111116373953,0.318477361511,-0.001920099945,-0.006957411132,-2.352916061407,0.000001420420,-0.000001097606,0.000000000000,0.000000000000,0.000000000000,0.000012783174,-0.107886180282,-0.017981030047,8.852660179138,0.003594518639,-2.800265614186,2.789499521255,-1.559627358113,1.574503183365,-0.787277523671,0.000012783174,0.000000000000,-0.000000000000,0.000000000000,0.000000000000,0.000000000000
0.699808000000,0.000010000000,11583.712000000000,-0.085870378261,-0.111113295888,0.318464500081,-0.001877869504,-0.006974770722,-2.352927304914,0.000001420381,-0.000001097696,0.000000000000,0.000000000000,0.000000000000,0.000012783174,-0.134857729077,0.014984191395,8.900609970093,0.003558565862,-2.800265614186,2.789523601532,-1.559615437184,1.574503183365,-0.787252728139,0.000012783174,0.000000000000,-0.000000000000,0.000000000000,0.000000000000,0.000000000000
0.707817000000,0.000010000000,11583.719999999999,-0.085858328207,-0.111119453938,0.318478493240,-0.001934125119,-0.006951533700,-2.352843385060,0.000001420459,-0.000001097542,0.000000000000,0.000000000000,0.000000000000,0.000012783174,-0.131860882044,-0.000000000000,8.852660179138,0.003630471183,-2.800265614186,2.789499521255,-1.559639279042,1.574503183365,-0.787240807210,0.000012783174,0.000000000000,-0.000000000000,0.000000000000,0.000000000000,0.000000000000
0.715853000000,0.000010000000,11583.727999999999,-0.085848273105,-0.111120372128,0.318503804025,-0.002007102099,-0.006888611538,-2.352879547163,0.000001420471,-0.000001097413,0.000000000000,0.000000000000,0.000000000000,0.000012783174,-0.086908310652,-0.005993676838,8.882628440857,0.003618486924,-2.800301376973,2.789451599121,-1.559627358113,1.574479222298,-0.787265125905,0.000012783174,0.000000000000,-0.000000000000,0.000000000000,0.000000000000,0.000000000000
0.723781000000,0.000010000000,11583.735999999999,-0.085861992940,-0.111118483979,0.318481001816,-0.001911702121,-0.006977409658,-2.352891984802,0.000001420447,-0.000001097589,0.000000000000,0.000000000000,0.000000000000,0.000012783174,-0.074920959771,-0.047949414700,8.852660179138,0.003630471183,-2.800253693257,2.789487600327,-1.559615437184,1.574515223503,-0.787289444600,0.000012783174,0.000000000000,-0.000000000000,0.000000000000,0.000000000000,0.000000000000
0.731775000000,0.000010000000,11583.743999999999,-0.085864983689,-0.111120447876,0.318495215737,-0.001894229618,-0.006935012487,-2.352855339780,0.000001420472,-0.000001097627,0.000000000000,0.000000000000,0.000000000000,0.000012783174,-0.071924120188,-0.041955735534,8.801713943481,0.003618486924,-2.800241295491,2.789451599121,-1.559591595327,1.574479222298,-0.787240807210,0.000012783174,0.000000000000,-0.000000000000,0.000000000000,0.000000000000,0.000000000000
0.739777000000,0.000010000000,11583.751999999999,-0.085865673462,-0.111117426830,0.318479829050,-0.001891396158,-0.006969196277,-2.352904070990,0.000001420433,-0.000001097636,0.000000000000,0.000000000000,0.000000000000,0.000012783174,-0.080914631486,-0.020977867767,8.819695472717,0.003606502898,-2.800253693257,2.789487600327,-1.559603039418,1.574503183365,-0.787277523671,0.000012783174,0.000000000000,-0.000000000000,0.000000000000,0.000000000000,0.000000000000
0.747776000000,0.000010000000,11583.760000000000,-0.085869033029,-0.111116251978,0.318477475403,-0.001903083020,-0.006914997149,-2.352891558025,0.000001420418,-0.000001097679,0.000000000000,0.000000000000,0.000000000000,0.000012783174,-0.140851408243,0.005993676838,8.855657577515,0.003558565862,-2.800253693257,2.789499521255,-1.559639279042,1.574467301369,-0.787216965352,0.000012783174,0.000000000000,-0.000000000000,0.000000000000,0.000000000000,0.000000000000
0.755806000000,0.000010000000,11583.768000000000,-0.085858494779,-0.111118435443,0.318493766145,-0.001948479373,-0.006945712584,-2.352867187271,0.000001420446,-0.000001097544,0.000000000000,0.000000000000,0.000000000000,0.000012783174,-0.137854561210,0.044952575117,8.945562362671,0.003618486924,-2.800265614186,2.789463520050,-1.559615437184,1.574503183365,-0.787252728139,0.000012783174,0.000000000000,-0.000000000000,0.000000000000,0.000000000000,0.000000000000
0.763781000000,0.000010000000,11583.776000000000,-0.085859104153,-0.111116319035,0.318488731299,-0.001941918227,-0.006932038958,-2.352927978964,0.000001420419,-0.000001097552,0.000000000000,0.000000000000,0.000000000000,0.000012783174,-0.104889340699,-0.002996838419,8.855657577515,0.003582534380,-2.800289456044,2.789475679398,-1.559603039418,1.574491262436,-0.787277523671,0.000012783174,0.000000000000,-0.000000000000,0.000000000000,0.000000000000,0.000000000000
0.771777000000,0.000010000000,11583.784000000000,-0.085858261362,-0.111117385162,0.318479523655,-0.001948227222,-0.006945790359,-2.352879256594,0.000001420433,-0.000001097541,0.000000000000,0.000000000000,0.000000000000,0.000012783174,-0.044952575117,-0.038958899677,8.783733367920,0.003606502898,-2.800277535115,2.789499521255,-1.559639279042,1.574503183365,-0.787252728139,0.000012783174,0.000000000000,-0.000000000000,0.000000000000,0.000000000000,0.000000000000
0.779798000000,0.000010000000,11583.791999999999,-0.085861673368,-0.111118285496,0.318480769271,-0.001945068354,-0.006897721539,-2.352891398982,0.000001420444,-0.000001097585,0.000000000000,0.000000000000,0.000000000000,0.000012783174,-0.050946250558,-0.062933601439,8.798717498779,0.003582534380,-2.800265614186,2.789499521255,-1.559663120900,1.574467301369,-0.787240807210,0.000012783174,0.000000000000,-0.000000000000,0.000000000000,0.000000000000,0.000000000000
0.787782000000,0.000010000000,11583.799999999999,-0.085858814541,-0.111116365282,0.318482920364,-0.001933578794,-0.006951845758,-2.352916003088,0.000001420420,-0.000001097548,0.000000000000,0.000000000000,0.000000000000,0.000012783174,-0.089905150235,-0.023974707350,8.846666336060,0.003594518639,-2.800289456044,2.789487600327,-1.559603039418,1.574503183365,-0.787277523671,0.000012783174,0.000000000000,-0.000000000000,0.000000000000,0.000000000000,0.000000000000
0.795775000000,0.000010000000,11583.807999999999,-0.085861434450,-0.111114256705,0.318495932440,-0.001971083052,-0.006920106779,-2.352915192716,0.000001420393,-0.000001097582,0.000000000000,0.000000000000,0.000000000000,0.000012783174,-0.155835598707,0.041955735534,8.921587944031,0.003558565862,-2.800277535115,2.789463520050,-1.559627358113,1.574491262436,-0.787240807210,0.000012783174,0.000000000000,-0.000000000000,0.000000000000,0.000000000000,0.000000000000
0.803771000000,0.000010000000,11583.815999999999,-0.085871603948,-0.111120285788,0.318477590667,-0.001828750694,-0.006895943085,-2.352915425618,0.000001420470,-0.000001097712,0.000000000000,0.000000000000,0.000000000000,0.000012783174,-0.128864049911,0.035962060094,8.888622283936,0.003570550121,-2.800253693257,2.789487600327,-1.559579197560,1.574431300163,-0.787252728139,0.000012783174,0.000000000000,-0.000000000000,0.000000000000,0.000000000000,0.000000000000
0.811851000000,0.000010000000,11583.823999999999,-0.085870705070,-0.111114340727,0.318474022266,-0.001877518024,-0.006974945164,-2.352927664809,0.000001420394,-0.000001097700,0.000000000000,0.000000000000,0.000000000000,0.000012783174,-0.110883019865,0.026971545070,8.858654022217,0.003570550121,-2.800253693257,2.789499521255,-1.559603039418,1.574503183365,-0.787265125905,0.000012783174,0.000000000000,-0.000000000000,0.000000000000,0.000000000000,0.000000000000
0.819776000000,0.000010000000,11583.832000000000,-0.085866719323,-0.111118405668,0.318469396719,-0.001872211408,-0.006960600751,-2.352879376158,0.000001420446,-0.000001097649,0.000000000000,0.000000000000,0.000000000000,0.000012783174,-0.068927280605,-0.026971545070,8.855657577515,0.003606502898,-2.800253693257,2.789511442184,-1.559615437184,1.574491262436,-0.787252728139,0.000012783174,0.000000000000,-0.000000000000,0.000000000000,0.000000000000,0.000000000000
0.827769000000,0.000010000000,11583.840000000000,-0.085865143407,-0.111120361775,0.318455162650,-0.001860400855,-0.006932364957,-2.352855680889,0.000001420471,-0.000001097629,0.000000000000,0.000000000000,0.000000000000,0.000012783174,-0.029968382791,-0.083911471069,8.852660179138,0.003606502898,-2.800265614186,2.789547443390,-1.559639279042,1.574467301369,-0.787228886281,0.000012783174,0.000000000000,-0.000000000000,0.000000000000,0.000000000000,0.000000000000
0.835768000000,0.000010000000,11583.848000000000,-0.085864269856,-0.111117370758,0.318480863722,-0.001899800589,-0.006949301906,-2.352891273136,0.000001420433,-0.000001097618,0.000000000000,0.000000000000,0.000000000000,0.000012783174,-0.089905150235,-0.044952575117,8.834679603577,0.003594518639,-2.800265614186,2.789487600327,-1.559603039418,1.574491262436,-0.787252728139,0.000012783174,0.000000000000,-0.000000000000,0.000000000000,0.000000000000,0.000000000000
0.843768000000,0.000010000000,11583.856000000000,-0.085860207055,-0.111121353918,0.318477277028,-0.001896914362,-0.006900856670,-2.352891792872,0.000001420484,-0.000001097566,0.000000000000,0.000000000000,0.000000000000,0.000012783174,-0.110883019865,0.017981030047,8.870641708374,0.003606502898,-2.800277535115,2.789499521255,-1.559615437184,1.574455261230,-0.787265125905,0.000012783174,0.000000000000,-0.000000000000,0.000000000000,0.000000000000,0.000000000000
0.851770000000,0.000010000000,11583.864000000000,-0.085861674567,-0.111119416854,0.318471558953,-0.001900262862,-0.006949041112,-2.352867367544,0.000001420459,-0.000001097585,0.000000000000,0.000000000000,0.000000000000,0.000012783174,-0.134857729077,0.026971545070,8.876635551453,0.003618486924,-2.800265614186,2.789511442184,-1.559627358113,1.574491262436,-0.787252728139,0.000012783174,0.000000000000,-0.000000000000,0.000000000000,0.000000000000,0.000000000000
0.859782000000,0.000010000000,11583.871999999999,-0.085858536843,-0.111116298546,0.318468727304,-0.001928162976,-0.006937607886,-2.352915705428,0.000001420419,-0.000001097545,0.000000000000,0.000000000000,0.000000000000,0.000012783174,-0.107886180282,-0.017981030047,8.879631996155,0.003582534380,-2.800301376973,2.789523601532,-1.559627358113,1.574491262436,-0.787265125905,0.000012783174,0.000000000000,-0.000000000000,0.000000000000,0.000000000000,0.000000000000
0.867744000000,0.000010000000,11583.879999999999,-0.085863992741,-0.111118445233,0.318457460199,-0.001849481047,-0.006986273635,-2.352879818299,0.000001420446,-0.000001097614,0.000000000000,0.000000000000,0.000000000000,0.000012783174,-0.068927280605,-0.032965220511,8.888622283936,0.003618486924,-2.800277535115,2.789535522461,-1.559591595327,1.574503183365,-0.787265125905,0.000012783174,0.000000000000,-0.000000000000,0.000000000000,0.000000000000,0.000000000000
0.875741000000,0.000010000000,11583.887999999999,-0.085854076995,-0.111115209335,0.318495469507,-0.002021099713,-0.006882971908,-2.352939523582,0.000001420405,-0.000001097488,0.000000000000,0.000000000000,0.000000000000,0.000012783174,-0.020977867767,-0.077917799354,8.804711341858,0.003558565862,-2.800301376973,2.789475679398,-1.559663120900,1.574479222298,-0.787265125905,0.000012783174,0.000000000000,-0.000000000000,0.000000000000,0.000000000000,0.000000000000
0.883786000000,0.000010000000,11583.895999999999,-0.085854154762,-0.111120433154,0.318501840441,-0.001984831248,-0.006914359423,-2.352855179026,0.000001420472,-0.000001097489,0.000000000000,0.000000000000,0.000000000000,0.000012783174,-0.092901989818,-0.011987353675,8.828685760498,0.003630471183,-2.800265614186,2.789451599121,-1.559639279042,1.574491262436,-0.787252728139,0.000012783174,0.000000000000,-0.000000000000,0.000000000000,0.000000000000,0.000000000000
0.891764000000,0.000010000000,11583.903999999999,-0.085861974601,-0.111117402953,0.318477361511,-0.001920016759,-0.006957433986,-2.352915998077,0.000001420433,-0.000001097589,0.000000000000,0.000000000000,0.000000000000,0.000012783174,-0.128864049911,-0.017981030047,8.876635551453,0.003606502898,-2.800265614186,2.789499521255,-1.559627358113,1.574503183365,-0.787289444600,0.000012783174,0.000000000000,-0.000000000000,0.000000000000,0.000000000000,0.000000000000
0.899763000000,0.000010000000,11583.912000000000,-0.085871819707,-0.111117400600,0.318471868215,-0.001843601483,-0.006972400596,-2.352891353970,0.000001420433,-0.000001097714,0.000000000000,0.000000000000,0.000000000000,0.000012783174,-0.143848240376,0.002996838419,8.870641708374,0.003594518639,-2.800241295491,2.789499521255,-1.559591595327,1.574491262436,-0.787252728139,0.000012783174,0.000000000000,-0.000000000000,0.000000000000,0.000000000000,0.000000000000
0.907775000000,0.000010000000,11583.920000000000,-0.085858312807,-0.111122415199,0.318478505850,-0.001916741004,-0.006909259759,-2.352855398437,0.000001420497,-0.000001097542,0.000000000000,0.000000000000,0.000000000000,0.000012783174,-0.074920959771,0.005993676838,8.858654022217,0.003630471183,-2.800265614186,2.789499521255,-1.559639279042,1.574467301369,-0.787252728139,0.000012783174,0.000000000000,-0.000000000000,0.000000000000,0.000000000000,0.000000000000
0.915848000000,0.000010000000,11583.928000000000,-0.085842881731,-0.111117373423,0.318501176850,-0.002052667942,-0.006919414633,-2.352855129659,0.000001420433,-0.000001097344,0.000000000000,0.000000000000,0.000000000000,0.000012783174,-0.056939929724,-0.062933601439,8.825689315796,0.003618486924,-2.800325218831,2.789463520050,-1.559639279042,1.574515223503,-0.787240807210,0.000012783174,0.000000000000,-0.000000000000,0.000000000000,0.000000000000,0.000000000000
0.923770000000,0.000010000000,11583.936000000000,-0.085856370011,-0.111122498470,0.318484405457,-0.001942258307,-0.006931786908,-2.352843736659,0.000001420498,-0.000001097517,0.000000000000,0.000000000000,0.000000000000,0.000012783174,-0.065930441022,-0.047949414700,8.783733367920,0.003654439701,-2.800253693257,2.789487600327,-1.559651199971,1.574491262436,-0.787265125905,0.000012783174,0.000000000000,-0.000000000000,0.000000000000,0.000000000000,0.000000000000
0.931772000000,0.000010000000,11583.944000000000,-0.085861397410,-0.111116394887,0.318461983021,-0.001911635322,-0.006977347273,-2.352867422859,0.000001420420,-0.000001097581,0.000000000000,0.000000000000,0.000000000000,0.000012783174,-0.065930441022,-0.035962060094,8.828685760498,0.003606502898,-2.800277535115,2.789535522461,-1.559639279042,1.574515223503,-0.787240807210,0.000012783174,0.000000000000,-0.000000000000,0.000000000000,0.000000000000,0.000000000000
0.939760000000,0.000010000000,11583.951999999999,-0.085858148695,-0.111118380585,0.318488877891,-0.001942432610,-0.006931783485,-2.352891622294,0.000001420446,-0.000001097540,0.000000000000,0.000000000000,0.000000000000,0.000012783174,-0.137854561210,0.005993676838,8.882628440857,0.003606502898,-2.800277535115,2.789475679398,-1.559615437184,1.574491262436,-0.787265125905,0.000012783174,0.000000000000,-0.000000000000,0.000000000000,0.000000000000,0.000000000000
0.947759000000,0.000010000000,11583.959999999999,-0.085849658102,-0.111120371578,0.318486166472,-0.001964644469,-0.006905983865,-2.352879656192,0.000001420471,-0.000001097431,0.000000000000,0.000000000000,0.000000000000,0.000012783174,-0.137854561210,0.020977867767,8.927581787109,0.003618486924,-2.800313297902,2.789487600327,-1.559615437184,1.574479222298,-0.787265125905,0.000012783174,0.000000000000,-0.000000000000,0.000000000000,0.000000000000,0.000000000000
0.955786000000,0.000010000000,11583.967999999999,-0.085857165591,-0.111118373660,0.318490009596,-0.001956411649,-0.006926076735,-2.352915933117,0.000001420445,-0.000001097527,0.000000000000,0.000000000000,0.000000000000,0.000012783174,-0.080914631486,-0.014984191395,8.816698074341,0.003606502898,-2.800277535115,2.789475679398,-1.559627358113,1.574491262436,-0.787289444600,0.000012783174,0.000000000000,-0.000000000000,0.000000000000,0.000000000000,0.000000000000
0.963770000000,0.000010000000,11583.975999999999,-0.085854558357,-0.111115380079,0.318481677208,-0.001988003978,-0.006962597238,-2.352867247392,0.000001420407,-0.000001097494,0.000000000000,0.000000000000,0.000000000000,0.000012783174,-0.065930441022,-0.041955735534,8.786729812622,0.003606502898,-2.800289456044,2.789499521255,-1.559651199971,1.574527263641,-0.787240807210,0.000012783174,0.000000000000,-0.000000000000,0.000000000000,0.000000000000,0.000000000000
0.971763000000,0.000010000000,11583.984000000000,-0.085862626156,-0.111118395395,0.318487948760,-0.001928469239,-0.006937527840,-2.352867330902,0.000001420446,-0.000001097597,0.000000000000,0.000000000000,0.000000000000,0.000012783174,-0.041955735534,-0.062933601439,8.810704231262,0.003606502898,-2.800253693257,2.789475679398,-1.559627358113,1.574491262436,-0.787240807210,0.000012783174,0.000000000000,-0.000000000000,0.000000000000,0.000000000000,0.000000000000
0.979781000000,0.000010000000,11583.992000000000,-0.085860755637,-0.111117419236,0.318497309446,-0.001934512969,-0.006951464980,-2.352867226688,0.000001420433,-0.000001097573,0.000000000000,0.000000000000,0.000000000000,0.000012783174,-0.098895661533,-0.020977867767,8.837676048279,0.003606502898,-2.800265614186,2.789451599121,-1.559591595327,1.574503183365,-0.787240807210,0.000012783174,0.000000000000,-0.000000000000,0.000000000000,0.000000000000,0.000000000000
0.987768000000,0.000010000000,11584.000000000000,-0.085853803342,-0.111117417025,0.318497055665,-0.001996413672,-0.006942618664,-2.352879520070,0.000001420433,-0.000001097484,0.000000000000,0.000000000000,0.000000000000,0.000012783174,-0.140851408243,0.014984191395,8.900609970093,0.003618486924,-2.800277535115,2.789463520050,-1.559639279042,1.574515223503,-0.787265125905,0.000012783174,0.000000000000,-0.000000000000,0.000000000000,0.000000000000,0.000000000000
0.995761000000,0.000010000000,11584.008000000000,-0.085850089800,-0.111117399188,0.318499217667,-0.002024549364,-0.006931034853,-2.352867096334,0.000001420433,-0.000001097437,0.000000000000,0.000000000000,0.000000000000,0.000012783174,-0.098895661533,0.011987353675,8.870641708374,0.003618486924,-2.800289456044,2.789463520050,-1.559651199971,1.574515223503,-0.787252728139,0.000012783174,0.000000000000,-0.000000000000,0.000000000000,0.000000000000,0.000000000000
1.003815000000,0.000010000000,11584.016000000000,-0.085858848459,-0.111116405935,0.318494893594,-0.001968400100,-0.006954146664,-2.352879132087,0.000001420420,-0.000001097549,0.000000000000,0.000000000000,0.000000000000,0.000012783174,-0.083911471069,-0.026971545070,8.855657577515,0.003606502898,-2.800265614186,2.789463520050,-1.559627358113,1.574515223503,-0.787252728139,0.000012783174,0.000000000000,-0.000000000000,0.000000000000,0.000000000000,0.000000000000
1.011858000000,0.000010000000,11584.023999999999,-0.085856430598,-0.111120354372,0.318488739709,-0.001930278217,-0.006903746204,-2.352891674696,0.000001420471,-0.000001097518,0.000000000000,0.000000000000,0.000000000000,0.000012783174,-0.077917799354,-0.026971545070,8.810704231262,0.003606502898,-2.800289456044,2.789475679398,-1.559603039418,1.574467301369,-0.787265125905,0.000012783174,0.000000000000,-0.000000000000,0.000000000000,0.000000000000,0.000000000000
1.019848000000,0.000010000000,11584.031999999999,-0.085856107864,-0.111118372520,0.318495932440,-0.001970860540,-0.006920111700,-2.352879176781,0.000001420445,-0.000001097514,0.000000000000,0.000000000000,0.000000000000,0.000012783174,-0.074920959771,-0.047949414700,8.846666336060,0.003606502898,-2.800277535115,2.789463520050,-1.559627358113,1.574491262436,-0.787252728139,0.000012783174,0.000000000000,-0.000000000000,0.000000000000,0.000000000000,0.000000000000
1.027859000000,0.000010000000,11584.039999999999,-0.085852471676,-0.111118445911,0.318497055665,-0.001996366881,-0.006942612578,-2.352867535868,0.000001420446,-0.000001097467,0.000000000000,0.000000000000,0.000000000000,0.000012783174,-0.101892501116,-0.026971545070,8.867644309998,0.003630471183,-2.800277535115,2.789463520050,-1.559639279042,1.574515223503,-0.787265125905,0.000012783174,0.000000000000,-0.000000000000,0.000000000000,0.000000000000,0.000000000000
1.035862000000,0.000010000000,11584.047999999999,-0.085868980419,-0.111117389332,0.318472939964,-0.001858170277,-0.006966413505,-2.352903733971,0.000001420433,-0.000001097678,0.000000000000,0.000000000000,0.000000000000,0.000012783174,-0.125867202878,-0.000000000000,8.876635551453,0.003594518639,-2.800253693257,2.789499521255,-1.559591595327,1.574491262436,-0.787265125905,0.000012783174,0.000000000000,-0.000000000000,0.000000000000,0.000000000000,0.000000000000
1.043867000000,0.000010000000,11584.055999999999,-0.085856170895,-0.111117423409,0.318478286361,-0.001939903110,-0.006965757969,-2.352879637163,0.000001420433,-0.000001097514,0.000000000000,0.000000000000,0.000000000000,0.000012783174,-0.125867202878,-0.002996838419,8.861651420593,0.003618486924,-2.800289456044,2.789499521255,-1.559615437184,1.574515223503,-0.787265125905,0.000012783174,0.000000000000,-0.000000000000,0.000000000000,0.000000000000,0.000000000000
1.051872000000,0.000010000000,11584.064000000000,-0.085858561743,-0.111120504278,0.318492735711,-0.001934486564,-0.006951367311,-2.352795552891,0.000001420473,-0.000001097545,0.000000000000,0.000000000000,0.000000000000,0.000012783174,-0.095898829401,-0.017981030047,8.837676048279,0.003642455442,-2.800253693257,2.789463520050,-1.559615437184,1.574503183365,-0.787205044423,0.000012783174,0.000000000000,-0.000000000000,0.000000000000,0.000000000000,0.000000000000
1.059869000000,0.000010000000,11584.072000000000,-0.085861152991,-0.111117361338,0.318493770346,-0.001942845388,-0.006931641535,-2.352879265444,0.000001420433,-0.000001097578,0.000000000000,0.000000000000,0.000000000000,0.000012783174,-0.080914631486,-0.062933601439,8.795720100403,0.003594518639,-2.800265614186,2.789463520050,-1.559615437184,1.574491262436,-0.787240807210,0.000012783174,0.000000000000,-0.000000000000,0.000000000000,0.000000000000,0.000000000000
1.067865000000,0.000010000000,11584.080000000000,-0.085860080449,-0.111118464277,0.318478590265,-0.001939917359,-0.006965776711,-2.352855284502,0.000001420447,-0.000001097564,0.000000000000,0.000000000000,0.000000000000,0.000012783174,-0.050946250558,-0.050946250558,8.783733367920,0.003630471183,-2.800253693257,2.789499521255,-1.559651199971,1.574515223503,-0.787252728139,0.000012783174,0.000000000000,-0.000000000000,0.000000000000,0.000000000000,0.000000000000
1.075867000000,0.000010000000,11584.088000000000,-0.085860021634,-0.111119463729,0.318483269540,-0.001933987501,-0.006951681117,-2.352892000527,0.000001420459,-0.000001097564,0.000000000000,0.000000000000,0.000000000000,0.000012783174,-0.089905150235,-0.047949414700,8.882628440857,0.003630471183,-2.800253693257,2.789487600327,-1.559639279042,1.574503183365,-0.787289444600,0.000012783174,0.000000000000,-0.000000000000,0.000000000000,0.000000000000,0.000000000000
1.083848000000,0.000010000000,11584.096000000000,-0.085862631249,-0.111117411587,0.318487944558,-0.001934158532,-0.006951642267,-2.352891618679,0.000001420433,-0.000001097597,0.000000000000,0.000000000000,0.000000000000,0.000012783174,-0.143848240376,0.026971545070,8.843669891357,0.003606502898,-2.800253693257,2.789475679398,-1.559627358113,1.574503183365,-0.787265125905,0.000012783174,0.000000000000,-0.000000000000,0.000000000000,0.000000000000,0.000000000000
1.091853000000,0.000010000000,11584.103999999999,-0.085866721791,-0.111117324595,0.318465640278,-0.001880205918,-0.006940770773,-2.352915788146,0.000001420432,-0.000001097649,0.000000000000,0.000000000000,0.000000000000,0.000012783174,-0.131860882044,0.005993676838,8.840673446655,0.003582534380,-2.800265614186,2.789523601532,-1.559627358113,1.574479222298,-0.787265125905,0.000012783174,0.000000000000,-0.000000000000,0.000000000000,0.000000000000,0.000000000000
1.099852000000,0.000010000000,11584.111999999999,-0.085856146143,-0.111119406946,0.318482924566,-0.001927759946,-0.006937747725,-2.352879668010,0.000001420459,-0.000001097514,0.000000000000,0.000000000000,0.000000000000,0.000012783174,-0.086908310652,-0.014984191395,8.870641708374,0.003618486924,-2.800289456044,2.789487600327,-1.559603039418,1.574491262436,-0.787265125905,0.000012783174,0.000000000000,-0.000000000000,0.000000000000,0.000000000000,0.000000000000
1.107832000000,0.000010000000,11584.119999999999,-0.085866721791,-0.111117324595,0.318465640278,-0.001880167950,-0.006940801095,-2.352928185853,0.000001420432,-0.000001097649,0.000000000000,0.000000000000,0.000000000000,0.000012783174,-0.074920959771,-0.071924120188,8.840673446655,0.003582534380,-2.800265614186,2.789523601532,-1.559627358113,1.574479222298,-0.787277523671,0.000012783174,0.000000000000,-0.000000000000,0.000000000000,0.000000000000,0.000000000000
1.115832000000,0.000010000000,11584.127999999999,-0.085851367445,-0.111116376156,0.318503892683,-0.002024671650,-0.006930989130,-2.352855207119,0.000001420420,-0.000001097453,0.000000000000,0.000000000000,0.000000000000,0.000012783174,-0.050946250558,-0.059936765581,8.843669891357,0.003606502898,-2.800289456044,2.789451599121,-1.559639279042,1.574515223503,-0.787228886281,0.000012783174,0.000000000000,-0.000000000000,0.000000000000,0.000000000000,0.000000000000
1.123828000000,0.000010000000,11584.135999999999,-0.085864995694,-0.111118499016,0.318472931507,-0.001869689931,-0.006994582233,-2.352843401755,0.000001420447,-0.000001097627,0.000000000000,0.000000000000,0.000000000000,0.000012783174,-0.110883019865,-0.005993676838,8.828685760498,0.003630471183,-2.800253693257,2.789499521255,-1.559591595327,1.574515223503,-0.787240807210,0.000012783174,0.000000000000,-0.000000000000,0.000000000000,0.000000000000,0.000000000000
1.131834000000,0.000010000000,11584.144000000000,-0.085854609824,-0.111120419865,0.318480659561,-0.001956348016,-0.006926017849,-2.352880106954,0.000001420472,-0.000001097494,0.000000000000,0.000000000000,0.000000000000,0.000012783174,-0.113879859447,0.014984191395,8.852660179138,0.003630471183,-2.800277535115,2.789499521255,-1.559651199971,1.574491262436,-0.787277523671,0.000012783174,0.000000000000,-0.000000000000,0.000000000000,0.000000000000,0.000000000000
1.139760000000,0.000010000000,11584.152000000000,-0.085859826419,-0.111117406505,0.318493766145,-0.001948488242,-0.006945749725,-2.352891568946,0.000001420433,-0.000001097561,0.000000000000,0.000000000000,0.000000000000,0.000012783174,-0.116876691580,0.020977867767,8.825689315796,0.003606502898,-2.800265614186,2.789463520050,-1.559615437184,1.574503183365,-0.787265125905,0.000012783174,0.000000000000,-0.000000000000,0.000000000000,0.000000000000,0.000000000000
1.147759000000,0.000010000000,11584.160000000000,-0.085859759368,-0.111115337738,0.318494796546,-0.001962700892,-0.006939916072,-2.352891201193,0.000001420407,-0.000001097560,0.000000000000,0.000000000000,0.000000000000,0.000012783174,-0.095898829401,-0.020977867767,8.816698074341,0.003582534380,-2.800277535115,2.789463520050,-1.559615437184,1.574503183365,-0.787240807210,0.000012783174,0.000000000000,-0.000000000000,0.000000000000,0.000000000000,0.000000000000
1.155752000000,0.000010000000,11584.168000000000,-0.085861338675,-0.111117394341,0.318466662297,-0.001905742796,-0.006963220778,-2.352891741031,0.000001420433,-0.000001097580,0.000000000000,0.000000000000,0.000000000000,0.000012783174,-0.077917799354,-0.059936765581,8.828685760498,0.003606502898,-2.800277535115,2.789523601532,-1.559627358113,1.574503183365,-0.787265125905,0.000012783174,0.000000000000,-0.000000000000,0.000000000000,0.000000000000,0.000000000000
1.163746000000,0.000010000000,11584.175999999999,-0.085858604831,-0.111117333101,0.318480659561,-0.001956563122,-0.006925975187,-2.352891263912,0.000001420432,-0.000001097545,0.000000000000,0.000000000000,0.000000000000,0.000012783174,-0.083911471069,-0.065930441022,8.825689315796,0.003594518639,-2.800277535115,2.789499521255,-1.559651199971,1.574491262436,-0.787252728139,0.000012783174,0.000000000000,-0.000000000000,0.000000000000,0.000000000000,0.000000000000
1.171751000000,0.000010000000,11584.183999999999,-0.085870317423,-0.111119407633,0.318469562226,-0.001865805753,-0.006946704908,-2.352891824799,0.000001420459,-0.000001097695,0.000000000000,0.000000000000,0.000000000000,0.000012783174,-0.074920959771,0.002996838419,8.852660179138,0.003606502898,-2.800229374562,2.789511442184,-1.559639279042,1.574479222298,-0.787265125905,0.000012783174,0.000000000000,-0.000000000000,0.000000000000,0.000000000000,0.000000000000
1.179747000000,0.000040000000,11584.191999999999,-0.085867763145,-0.111119544561,0.318458892839,-0.001812506331,-0.007018031098,-2.352855829337,0.000001420460,-0.000001097663,0.000000000000,0.000000000000,0.000000000000,0.000012783174,-0.035962060094,0.152838751674,8.906603813171,0.003642455442,-2.800253693257,2.789523601532,-1.559567276631,1.574515223503,-0.787265125905,0.000012783174,0.000000000000,-0.000000000000,0.000000000000,0.000000000000,0.000000000000
1.187765000000,0.000120000000,11584.199999999999,-0.085850397464,-0.111118443625,0.318508669023,-0.002024333664,-0.006931216727,-2.352915617030,0.000001420446,-0.000001097441,0.000000000000,0.000000000000,0.000000000000,0.000012783174,0.458516269922,0.689272820950,8.897612571716,0.003630471183,-2.800277535115,2.789439678192,-1.559639279042,1.574515223503,-0.787313286458,0.000012783174,0.000000000000,-0.000000000000,0.000000000000,0.000000000000,0.000000000000
1.195749000000,0.000270000000,11584.207999999999,-0.085852430961,-0.111120533649,0.318476073119,-0.001973654476,-0.006968422724,-2.352831704175,0.000000000000,0.000000000000,0.000000000000,0.000000000000,0.000000000000,0.000000000000,0.932016730309,0.991953492165,8.867644309998,0.003666423960,-2.800265614186,2.789511442184,-1.559675041829,1.574527263641,-0.787265125905,0.000000000000,0.000000000000,-0.000000000000,0.000000000000,0.000000000000,0.000000000000
1.203769000000,0.000460000000,11584.216000000000,-0.085852300139,-0.111123660151,0.318480850998,-0.001916746708,-0.006991716392,-2.352795720707,0.000000000000,0.000000000000,0.000000000000,0.000000000000,0.000000000000,0.000000000000,0.797159016132,0.806149482727,8.798717498779,0.003702376503,-2.800265614186,2.789487600327,-1.559603039418,1.574527263641,-0.787265125905,0.000000000000,0.000000000000,-0.000000000000,0.000000000000,0.000000000000,0.000000000000
1.211830000000,0.000690000000,11584.224000000000,-0.085862742201,-0.111117440551,0.318465627590,-0.001897471886,-0.006983194655,-2.352879743401,0.000000000000,0.000000000000,0.000000000000,0.000000000000,0.000000000000,0.000000000000,-0.014984191395,0.035962060094,8.843669891357,0.003618486924,-2.800265614186,2.789523601532,-1.559627358113,1.574515223503,-0.787265125905,0.000000000000,0.000000000000,-0.000000000000,0.000000000000,0.000000000000,0.000000000000
1.219789000000,0.000950000000,11584.232000000000,-0.085852094521,-0.111118447475,0.318483946482,-0.001953342790,-0.006960204990,-2.352867604257,0.000000000000,0.000000000000,0.000000000000,0.000000000000,0.000000000000,0.000000000000,-0.023974707350,0.059936765581,8.813701629639,0.003630471183,-2.800301376973,2.789487600327,-1.559603039418,1.574515223503,-0.787265125905,0.000000000000,0.000000000000,-0.000000000000,0.000000000000,0.000000000000,0.000000000000
1.227838000000,0.001220000000,11584.240000000000,-0.085852296293,-0.111122573081,0.318472580936,-0.001925582587,-0.006971532998,-2.352832162814,0.000000000000,0.000000000000,0.000000000000,0.000000000000,0.000000000000,0.000000000000,0.107886180282,0.251734405756,8.933574676514,0.003678408219,-2.800277535115,2.789511442184,-1.559627358113,1.574515223503,-0.787277523671,0.000000000000,0.000000000000,-0.000000000000,0.000000000000,0.000000000000,0.000000000000
1.235828000000,0.001540000000,11584.248000000000,-0.085853644918,-0.111121503665,0.318485431679,-0.001961992586,-0.006940116404,-2.352868006789,0.000000000000,0.000000000000,0.000000000000,0.000000000000,0.000000000000,0.000000000000,0.275709122419,0.482490986586,8.933574676514,0.003654439701,-2.800265614186,2.789487600327,-1.559651199971,1.574503183365,-0.787289444600,0.000000000000,0.000000000000,-0.000000000000,0.000000000000,0.000000000000,0.000000000000
1.243871000000,0.001900000000,11584.255999999999,-0.085847493461,-0.111121525490,0.318498187334,-0.002010279432,-0.006936827735,-2.352831575159,0.000000000000,0.000000000000,0.000000000000,0.000000000000,0.000000000000,0.000000000000,0.407570004463,0.458516269922,8.861651420593,0.003666423960,-2.800277535115,2.789463520050,-1.559651199971,1.574515223503,-0.787265125905,0.000000000000,0.000000000000,-0.000000000000,0.000000000000,0.000000000000,0.000000000000
1.251817000000,0.002290000000,11584.263999999999,-0.085849584342,-0.111118510067,0.318469842060,-0.001965065949,-0.006988331849,-2.352856065956,0.000000000000,0.000000000000,0.000000000000,0.000000000000,0.000000000000,0.000000000000,0.563405632973,0.491481482983,8.780735969543,0.003654439701,-2.800301376973,2.789523601532,-1.559639279042,1.574539184570,-0.787277523671,0.000000000000,0.000000000000,-0.000000000000,0.000000000000,0.000000000000,0.000000000000
1.259753000000,0.002730000000,11584.271999999999,-0.085868049915,-0.111120614820,0.318477965952,-0.001874691987,-0.007009190039,-2.352856063665,0.000000000000,0.000000000000,0.000000000000,0.000000000000,0.000000000000,0.000000000000,0.311671197414,0.374604791403,8.789727210999,0.003666423960,-2.800205532704,2.789487600327,-1.559627358113,1.574527263641,-0.787289444600,0.000000000000,0.000000000000,-0.000000000000,0.000000000000,0.000000000000,0.000000000000
1.267746000000,0.003200000000,11584.279999999999,-0.085850155852,-0.111120501966,0.318485224799,-0.001967834137,-0.006954244425,-2.352856035096,0.000000000000,0.000000000000,0.000000000000,0.000000000000,0.000000000000,0.000000000000,0.281702816486,0.440535247326,8.828685760498,0.003654439701,-2.800289456044,2.789487600327,-1.559627358113,1.574515223503,-0.787277523671,0.000000000000,0.000000000000,-0.000000000000,0.000000000000,0.000000000000,0.000000000000
1.275751000000,0.003710000000,11584.287999999999,-0.085855621493,-0.111119530317,0.318483159736,-0.001945602191,-0.006979979125,-2.352843641369,0.000000000000,0.000000000000,0.000000000000,0.000000000000,0.000000000000,0.000000000000,0.200788170099,0.302680671215,8.942565917969,0.003654439701,-2.800265614186,2.789487600327,-1.559627358113,1.574527263641,-0.787265125905,0.000000000000,0.000000000000,-0.000000000000,0.000000000000,0.000000000000,0.000000000000
1.283741000000,0.004250000000,11584.296000000000,-0.085850767575,-0.111122557850,0.318487792080,-0.001995797180,-0.006942814714,-2.352855921682,0.000000000000,0.000000000000,0.000000000000,0.000000000000,0.000000000000,0.000000000000,0.209778681397,0.284699648619,9.050452232361,0.003678408219,-2.800253693257,2.789487600327,-1.559686962758,1.574515223503,-0.787301365529,0.000000000000,0.000000000000,-0.000000000000,0.000000000000,0.000000000000,0.000000000000
1.291740000000,0.004840000000,11584.304000000000,-0.085857434386,-0.111121549221,0.318495000708,-0.001905731714,-0.006963144640,-2.352795463990,0.000403640964,0.000000454316,0.002260316544,-0.000025838187,0.004640218513,0.000003681442,0.398579508066,0.146845072508,9.086413383484,0.003654439701,-2.800265614186,2.789451599121,-1.559567276631,1.574503183365,-0.787216965352,0.000000000000,0.000000000000,-0.004640291911,0.000000000000,0.000000000000,0.000000000000
1.299722000000,0.005460000000,11584.312000000000,-0.085864767274,-0.111131299922,0.318533783031,-0.001776442066,-0.006768944772,-2.352843644165,-0.000600665098,-0.002857641743,0.007272592019,0.034567444163,-0.008303090740,-0.000001792260,0.611355006695,0.473500460386,9.398084640503,0.003594518639,-2.800277535115,2.789343833923,-1.559411350881,1.574323534966,-0.787205044423,-0.000089482215,0.000000000000,-0.020568126813,0.029049761593,-0.034538537264,0.000000000000
1.307709000000,0.006120000000,11584.320000000000,-0.085865817501,-0.111133079817,0.318620418689,-0.001753434851,-0.006629914567,-2.352783182930,0.000351019803,0.000764127558,0.012800915933,0.009821817746,0.002336592785,0.006468400186,0.641323387623,0.470503628254,9.410072326660,0.003510629060,-2.800313297902,2.789128065109,-1.559183899556,1.574215650558,-0.787061039601,-0.018484469503,-0.014125406742,-0.032418128103,0.044389571995,-0.009851032868,0.024855284020
1.315827000000,0.006830000000,11584.328000000000,-0.085851673866,-0.111154446869,0.318753053138,-0.001648238287,-0.006128899857,-2.352794775822,0.000182742564,-0.000853675116,0.020324708760,0.035563798826,0.006160987254,-0.001908470832,0.182807132602,0.125867202878,9.526948928833,0.003378802445,-2.800457302724,2.788804531097,-1.558788601552,1.573820471764,-0.786940876638,-0.024492559955,-0.014713432640,-0.050698067993,0.059537630528,-0.035617116839,0.022434469312
1.323823000000,0.007570000000,11584.335999999999,-0.085857612919,-0.111160856989,0.318933181994,-0.001476504142,-0.005787023787,-2.352686529438,0.001126683178,-0.001695299685,0.032850536030,0.062816978499,0.019442881203,-0.004520821170,0.680282294750,0.452522575855,9.910544395447,0.003163086483,-2.800576988851,2.788336992264,-1.558177296315,1.573520898819,-0.786617581044,-0.041008420289,-0.025106152520,-0.079677522182,0.085807055235,-0.062941148877,0.036264266819
1.331832000000,0.008350000000,11584.343999999999,-0.085845797753,-0.111186709681,0.319248230549,-0.001306422331,-0.004966469087,-2.352697295884,0.001502363249,-0.003296174581,0.048819168995,0.100371545522,0.023826927449,0.001952370557,0.731228530407,0.503468811512,10.908491134644,0.002839512425,-2.800804917012,2.787558078766,-1.557290379201,1.572874188423,-0.786305729543,-0.058687549084,-0.036841105670,-0.119637720287,0.133336484432,-0.100523680449,0.060304623097
1.339850000000,0.009150000000,11584.351999999999,-0.085821448745,-0.111217170477,0.319688716183,-0.001200455111,-0.003821044504,-2.352743220757,0.001094483812,-0.002831197210,0.053769396056,0.102473672074,0.025184304375,-0.005680906368,0.071924120188,-0.113879859447,10.698713302612,0.002360517858,-2.801140133535,2.786491632462,-1.556152168904,1.572010874748,-0.785874191915,-0.066229619086,-0.037927675992,-0.131960704923,0.145296752453,-0.102608941495,0.060208749026
1.347830000000,0.010020000000,11584.359999999999,-0.085778131522,-0.111222537248,0.320164895349,-0.001654370648,-0.002792640176,-2.353016461125,-0.000083078074,-0.001864672376,0.032012367001,0.064276050250,0.013570119499,-0.018165912923,-0.590377151966,0.533437252045,7.348247528076,0.001833211980,-2.801428143178,2.785424947739,-1.555433098470,1.571400046349,-0.785621945058,-0.040522661060,-0.018842397258,-0.078821048141,0.084368944168,-0.064331322908,0.022194785997
1.355769000000,0.010920000000,11584.367999999999,-0.085759057473,-0.111218662948,0.320406125849,-0.002021800086,-0.002277704696,-2.352991444914,0.001556455236,0.000204578634,0.013876968199,0.014317407203,0.024839518625,0.002254912262,0.242743909359,0.656307578087,4.087687492371,0.001533606322,-2.801523987447,2.784909248352,-1.555241409932,1.571136474609,-0.785298172628,-0.016272980720,-0.007529288996,-0.029567480087,0.012343752198,-0.014381070621,0.018503643572
1.363734000000,0.011850000000,11584.376000000000,-0.085769423899,-0.111190998179,0.320373712732,-0.002133787829,-0.002710704243,-2.353099228476,-0.000046557186,0.002611262110,-0.017408399729,-0.059599743409,-0.010487585135,-0.010145362174,0.407570004463,0.458516269922,4.396361827850,0.001545590581,-2.801475826894,2.784981250763,-1.555313412343,1.571483969688,-0.785418335591,0.027100328356,0.012923788279,0.042197257280,-0.044916875660,0.059609536082,-0.037199035287
1.371712000000,0.012800000000,11584.384000000000,-0.085853559560,-0.111139602513,0.320173439936,-0.001208818243,-0.004231246869,-2.352666594968,0.000548610801,0.011868012701,0.043668908558,-0.153273754742,-0.004550971676,0.030240655211,2.031856298447,-3.233588457108,10.345086097717,0.001737338142,-2.801403824483,2.785220861435,-1.554498974477,1.572310447693,-0.785178486501,0.008372978307,0.005023787264,-0.112312965095,0.111405357718,0.153206333518,0.021595574915
1.379745000000,0.013780000000,11584.392000000000,-0.085946779026,-0.111001384856,0.320425226061,-0.000698855137,-0.006887609791,-2.353200658730,-0.006032118637,0.022064574818,0.066415125990,-0.281112932712,-0.054469371883,-0.009477731726,-1.777125120163,-3.242578983307,21.942850112915,0.001821227721,-2.801319901143,2.784297943115,-1.552497212087,1.574084162712,-0.785802189504,0.011939483695,0.027892883867,-0.181917339563,0.207422971725,0.281173884869,-0.021595574915
1.387849000000,0.014840000000,11584.400000000000,-0.085975069516,-0.110746401933,0.321299494547,-0.002191995471,-0.010551856038,-2.353342593273,0.002817128144,0.036925381993,0.139757034194,-0.462674075050,0.042964898780,-0.023807772607,-0.524446725845,-2.709141969681,17.894121170044,0.001821227721,-2.801032368337,2.782068490982,-1.550544087087,1.577187299728,-0.785958115255,0.012565859593,0.032149679959,-0.345516383648,0.268518567085,0.462351411581,-0.036551889032
1.395829000000,0.015940000000,11584.407999999999,-0.085964399504,-0.110356114459,0.322714224240,-0.005120142702,-0.015804419764,-2.352914175392,0.002487049121,0.054795107606,0.198650340480,-0.665609318492,0.060113175311,0.002429707250,0.491481482983,-1.630280017853,16.449645996094,0.001761306659,-2.800660912191,2.778593063354,-1.547991577779,1.581871986389,-0.785502258931,-0.001444498659,0.044434312731,-0.492203325033,0.385460615158,0.665076553822,0.003259709338
1.403749000000,0.017060000000,11584.415999999999,-0.085923355907,-0.109847329581,0.324598309420,-0.008690283792,-0.022990164478,-2.352911815573,0.006806808182,0.071823699358,0.261392124236,-0.894422813613,0.066921101930,-0.043186337895,0.443532079458,-2.820024967194,16.401697158813,0.001845196122,-2.800337139760,2.773882627487,-1.544048611318,1.588150262833,-0.785646263753,0.019161976874,0.051477838308,-0.651724517345,0.529007673264,0.893807470798,-0.063588298857
1.411785000000,0.018230000000,11584.423999999999,-0.085844040675,-0.109193226549,0.326990485374,-0.013213309944,-0.032376134851,-2.352775323145,0.007988873172,0.094840097302,0.332198631291,-1.170076923156,0.067038981920,0.019818029933,-0.506465673447,-4.693048954010,16.734344482422,0.002036943799,-2.800013844167,2.767866134644,-1.538836304341,1.596309661865,-0.785814110433,0.014726215973,0.063864737749,-0.835252583027,0.700142443180,1.169300913811,0.002924151020
1.419739000000,0.019410000000,11584.431999999999,-0.085805858309,-0.108337336427,0.329866044277,-0.018396443165,-0.044828090622,-2.352694493917,0.006413710315,0.117542945211,0.405687467532,-1.456932733561,0.044529493533,-0.015158199176,-0.593374013901,-5.544150829315,19.197746276855,0.002192738699,-2.799474064504,2.760483026505,-1.532041374837,1.606889486313,-0.786077801381,0.024313595146,0.101805195212,-1.031691551208,0.878156125546,1.456083416939,-0.042304314673
1.427732000000,0.020610000000,11584.439999999999,-0.085798402330,-0.107271026395,0.333451269060,-0.025015506142,-0.060186131650,-2.352129820312,0.005164062217,0.146647593702,0.497354275309,-1.809038954641,0.053962482357,0.027513663277,0.086908310652,-4.917811870575,21.448371887207,0.002324565081,-2.798359696065,2.751290559769,-1.524180714284,1.620010018349,-0.785958115255,0.021220067516,0.156811192632,-1.270302295685,1.052430748940,1.807964205742,0.002468750346
1.435734000000,0.021850000000,11584.448000000000,-0.085739710928,-0.106024462709,0.337773300489,-0.033307202721,-0.077960114606,-2.351578558603,0.004024008138,0.153022993459,0.527473723429,-1.889182987308,0.044761225323,0.005805114845,0.635329723358,1.114823818207,19.050901412964,0.002503954107,-2.796885315572,2.740275859833,-1.515360657369,1.635383129120,-0.786077801381,0.021923143417,0.196183368564,-1.355642795563,1.105329036713,1.888042807579,-0.021595574915
1.443825000000,0.023150000000,11584.456000000000,-0.085619672107,-0.104847671341,0.342305193107,-0.042181592214,-0.094298772363,-2.351416644564,0.004460383508,0.142278150086,0.499541910826,-1.756809741731,0.042335247798,0.014966700890,0.071924120188,4.018760204315,5.676012039185,0.002647764748,-2.795111481343,2.728902101517,-1.507355991994,1.649881362915,-0.786677185689,0.018906313926,0.204633042216,-1.289221405983,1.033615469933,1.755712985992,-0.011888351291
1.451825000000,0.024490000000,11584.464000000000,-0.085658713233,-0.103726137262,0.345862464727,-0.048854021700,-0.110594519657,-2.350345121309,0.005844749794,0.144290248122,0.499149156901,-1.784357214018,0.044261346161,0.009090408228,0.482490986586,0.506465673447,-3.512294530869,0.002779591130,-2.793349568044,2.719589710236,-1.499781910573,1.663709640503,-0.786365811025,0.019928967580,0.216700360179,-1.293554902077,1.022733807564,1.783228754997,-0.018863171339
1.459821000000,0.025870000000,11584.472000000000,-0.085641547882,-0.102583939008,0.349748029432,-0.055524372689,-0.127338383503,-2.349419522926,-0.000058805634,0.143962847270,0.471769464103,-1.782681889828,-0.035923955305,-0.011788238305,3.284534931183,-0.341639578342,3.323493719101,0.002959354548,-2.791647736226,2.709354400635,-1.491106335317,1.677861213684,-0.786353890096,0.019916184247,0.224830448627,-1.248187422752,1.046534419060,1.781886577606,-0.039643816650
1.467747000000,0.027270000000,11584.480000000000,-0.085682351012,-0.101403252670,0.353277824274,-0.061467107806,-0.145061790380,-2.349065169550,-0.001606254325,0.144373955595,0.462209466985,-1.786833566582,-0.054451058745,0.004113454243,1.813087224960,1.345580458641,11.004390716553,0.003127133707,-2.789969269429,2.699778556824,-1.482286278402,1.692492485046,-0.786977116262,0.016413595527,0.235977381468,-1.234803438187,1.042196154594,1.786200881004,-0.018503643572
1.475740000000,0.028720000000,11584.487999999999,-0.085736142076,-0.100240946073,0.356944121839,-0.067587832518,-0.162285551092,-2.348288260765,-0.004160186770,0.143920191402,0.469801115329,-1.777414488619,-0.044939418470,-0.003971794625,0.482490986586,1.414507746696,13.767475128174,0.003199039027,-2.787967983876,2.689878463745,-1.473718468343,1.706824421883,-0.787169281636,0.009485114366,0.270517528057,-1.257122874260,1.020073294640,1.776709318161,-0.018503643572
1.483819000000,0.030220000000,11584.495999999999,-0.085805580952,-0.099100273281,0.360793779650,-0.074220709175,-0.178927575068,-2.347292131186,-0.007087460596,0.143816659435,0.477510304435,-1.778665055297,-0.038635810612,-0.008342090182,0.680282294750,2.043843746185,11.756596565247,0.003246976063,-2.785462681447,2.679607629776,-1.465822045003,1.720892786980,-0.787228886281,0.008347412571,0.307857155800,-1.280656695366,0.999100923538,1.777883768082,-0.021595574915
1.491856000000,0.031750000000,11584.503999999999,-0.085836086030,-0.097950070203,0.364783336597,-0.081471447361,-0.195497206691,-2.345938327097,-0.001278436980,0.143016408570,0.485783580964,-1.770010072938,0.000127979481,0.011059715266,1.306621551514,2.283590793610,7.659918785095,0.003294912865,-2.782790009175,2.669036865234,-1.458248440419,1.735105395317,-0.787072960530,0.005854693241,0.309544533491,-1.299345612526,0.980525374413,1.769063472748,0.000000000000
1.499829000000,0.033300000000,11584.511999999999,-0.085842489643,-0.096805091428,0.368700426177,-0.088465416316,-0.212056656974,-2.344935421547,0.004051613566,0.143250129522,0.487696008731,-1.773592103645,0.013723714334,-0.010018542206,0.599367678165,1.444476127625,4.770966529846,0.003282928606,-2.780248943959,2.658562660217,-1.450483147298,1.749222397804,-0.787289444600,0.002684466541,0.303613156080,-1.306849360466,0.977001965046,1.772586822510,-0.018503643572
1.507740000000,0.034900000000,11584.519999999999,-0.085836402809,-0.095667731950,0.372415146990,-0.094935727565,-0.228709589100,-2.343536517741,0.001582362043,0.139167993629,0.475852906612,-1.724304915515,-0.009054398032,0.016099977032,1.819080829620,2.238638162613,7.300298213959,0.003258960322,-2.777935330068,2.648447036743,-1.442406479512,1.763267874718,-0.787144962941,-0.000524110103,0.311756044626,-1.287661910057,0.978320240974,1.723451495171,0.011888351291
1.515767000000,0.036570000000,11584.528000000000,-0.085860765760,-0.094601292002,0.376156376264,-0.100876821576,-0.244445888995,-2.342532522380,-0.003211879885,0.131420034571,0.472774261030,-1.628405215126,-0.030187239455,0.005584726619,2.082802534103,3.125702381134,11.241140365601,0.003234991804,-2.775370422994,2.638236284256,-1.434413258229,1.776474475861,-0.787397209798,-0.004844822921,0.337335169315,-1.286102294922,0.971800863743,1.627625584602,0.006255765446
1.523736000000,0.038250000000,11584.536000000000,-0.085819241130,-0.093582499093,0.380080519341,-0.107487671350,-0.259042202818,-2.340916142807,-0.000587978087,0.126116061557,0.484266176816,-1.563091497095,-0.004692557286,-0.007022086583,3.416395664215,2.562296867371,9.577895164490,0.003175070742,-2.772661511098,2.627725601196,-1.427031819020,1.789082288742,-0.787097279225,-0.008411328308,0.352636635303,-1.311400175095,0.954615473747,1.562167763710,-0.003619236173
1.531726000000,0.039980000000,11584.544000000000,-0.085806727387,-0.092609620693,0.384063256907,-0.113653596290,-0.273012066609,-2.339596120333,0.002090535567,0.120427175385,0.489549289913,-1.487727316023,0.018059573432,0.036688359091,2.520341157913,2.547312498093,6.230426788330,0.003055228386,-2.769737068807,2.617023468018,-1.419554535543,1.801090836525,-0.787036720906,-0.016515860334,0.355794072151,-1.324247241020,0.954208016396,1.486763000488,0.049231197685
1.539731000000,0.041740000000,11584.552000000000,-0.085822956864,-0.091679011460,0.387895690625,-0.119078023054,-0.286645600068,-2.338347139536,0.000225361215,0.114233264240,0.484521757907,-1.413255888750,-0.012611724340,-0.031510802452,2.178701400757,2.745103836060,6.353297233582,0.002959354548,-2.766812626516,2.606585025787,-1.411908928548,1.812632083893,-0.787036720906,-0.017602430657,0.367235004902,-1.316027760506,0.949653983116,1.412364959717,-0.019486350939
1.547734000000,0.043550000000,11584.559999999999,-0.085851712882,-0.090786038678,0.391732330209,-0.124038084369,-0.299760323766,-2.337124176974,-0.003925633256,0.108482172264,0.482393022288,-1.342582570034,-0.022027776848,0.015779865300,1.519397020340,3.707088947296,7.869697570801,0.002791575389,-2.763828102742,2.596074581146,-1.404048267995,1.823658227921,-0.786964718496,-0.020044015720,0.387688100338,-1.316743612289,0.952745914459,1.341753840446,0.032381378114
1.555809000000,0.045400000000,11584.567999999999,-0.085886746834,-0.089962454868,0.395541040278,-0.128728925063,-0.311878559821,-2.335923984646,-0.003638964234,0.102507907491,0.480975030157,-1.271410033762,-0.035523853897,-0.033424288207,2.613243103027,3.644155502319,8.981524467468,0.002659749007,-2.760711971913,2.585672140121,-1.396534744893,1.833881616592,-0.786917034780,-0.019686087966,0.395038396120,-1.313688397408,0.943302333355,1.270615458488,-0.018503643572
1.563738000000,0.047240000000,11584.575999999999,-0.085890571872,-0.089178968284,0.399429350982,-0.133420524382,-0.323301871078,-2.334538131778,0.000642424057,0.097051109100,0.485621488636,-1.203240495468,-0.007747662797,-0.001362579009,2.535325288773,3.485322952271,9.221271514893,0.002515938366,-2.757547680532,2.575101852417,-1.389080826436,1.843613505363,-0.786677185689,-0.022178806365,0.393619477749,-1.321767330170,0.935081183910,1.202353358269,0.017473001033
1.571725000000,0.049130000000,11584.583999999999,-0.085849826675,-0.088442941516,0.403417007092,-0.138167945158,-0.333925670812,-2.333378847618,0.001292189938,0.090765854242,0.490137554178,-1.124657699271,0.010432808097,0.029231537116,2.037850141525,3.200623273849,7.785786151886,0.002372502116,-2.754335705434,2.564352035522,-1.381807152425,1.852770566940,-0.786677185689,-0.024313595146,0.405162692070,-1.330677270889,0.924415230751,1.123712897301,0.051364388317
1.579728000000,0.051060000000,11584.591999999999,-0.085854448080,-0.087748035913,0.407344438295,-0.142306713591,-0.343963767276,-2.332143078706,0.000206716388,0.084980240607,0.491692137148,-1.051593575126,0.001152092706,-0.007098007434,2.826018571854,3.431379795074,6.470173835754,0.002132817637,-2.751027409230,2.553685665131,-1.374389950429,1.861328125000,-0.786413494741,-0.026691265404,0.418840676546,-1.333821892738,0.913988947868,1.050657033920,0.016178704798
1.587742000000,0.053030000000,11584.600000000000,-0.085874673782,-0.087105887376,0.411225349953,-0.145989373350,-0.353339563304,-2.331227922358,-0.001279847502,0.079606376134,0.487417689606,-0.986292017322,-0.003258006534,0.032443721768,2.514347314835,3.889896154404,7.348247528076,0.001905117300,-2.747647587453,2.543127775192,-1.367055718099,1.869250774384,-0.786413494741,-0.026307770982,0.425372868776,-1.326318144798,0.917176723480,0.985390961170,0.057428408414
1.595733000000,0.055040000000,11584.608000000000,-0.085850302039,-0.086506934040,0.415152977026,-0.149802493636,-0.361990003043,-2.330037293679,0.000784098858,0.073867141507,0.489034625191,-0.914304084647,-0.007827162179,-0.013105784470,3.203620195389,3.952829837799,8.220327377319,0.001737338142,-2.744255367910,2.532521486282,-1.359973732625,1.876706123352,-0.786197487508,-0.027330424637,0.427724987268,-1.327149033546,0.906918227673,0.913413703442,0.010785803199
1.603726000000,0.057080000000,11584.616000000000,-0.085840847621,-0.085950756198,0.419107392182,-0.153059265370,-0.370144848385,-2.329091836123,0.000269167709,0.067962461304,0.490482488764,-0.844088090946,-0.003678372408,0.014196294664,2.379489660263,4.129643440247,8.166384696960,0.001557574724,-2.740779701863,2.521795988083,-1.352616135274,1.883621692657,-0.786125485097,-0.024518126622,0.438335031271,-1.330472707748,0.903994083405,0.843186140060,0.036719664931
1.611759000000,0.059180000000,11584.624000000000,-0.085848582801,-0.085435519170,0.423017195670,-0.156062140071,-0.377598048584,-2.328215479863,-0.002735869184,0.062163873433,0.489611189458,-0.766965948371,-0.015615366847,-0.007322939214,2.679173469543,3.991788625717,7.399193763733,0.001306280494,-2.737243954335,2.511201858521,-1.345450703298,1.889950156212,-0.785981957112,-0.028826056048,0.452792793512,-1.327558159828,0.893591761589,0.766079604626,0.018815234303
1.619727000000,0.061310000000,11584.632000000000,-0.085879013301,-0.084978807150,0.426919900603,-0.158643088263,-0.384301483083,-2.327391096548,-0.000372768187,0.056247905207,0.492430949861,-0.696084365262,-0.001102445089,0.006862914855,2.876964807510,4.372386932373,6.937680721283,0.001114532934,-2.733575646077,2.500632286072,-1.338368717824,1.895607829094,-0.785849873220,-0.025630263612,0.455413341522,-1.330472707748,0.883644878864,0.695156991482,0.030655648559
1.627727000000,0.063490000000,11584.639999999999,-0.085865032978,-0.084568485725,0.430890251080,-0.161238158709,-0.390169861194,-2.326583975876,0.000619080355,0.051255666910,0.491249370302,-0.633207145279,-0.008173596291,-0.009863322139,3.371443033218,4.183586120605,7.764808177948,0.000910426606,-2.729920212423,2.489966154099,-1.331430260335,1.900665879250,-0.785682026540,-0.025566346943,0.456218689680,-1.326318144798,0.880457043648,0.632311701775,0.012942963280
1.635723000000,0.065710000000,11584.647999999999,-0.085843697953,-0.084200842139,0.434889258852,-0.163499309927,-0.395448822366,-2.325977441786,-0.001068207868,0.044893441032,0.492409706490,-0.556014323496,-0.008802193057,0.003287876910,2.948889017105,3.889896154404,7.938624858856,0.000706694787,-2.726229015981,2.479228734970,-1.324408356343,1.905184745789,-0.785634342824,-0.022319421172,0.469091325998,-1.327558159828,0.873338460922,0.555109322071,0.023489082232
1.643753000000,0.067990000000,11584.655999999999,-0.085856854521,-0.083878768985,0.438847895104,-0.165383676167,-0.400124308569,-2.325257204840,-0.000647261685,0.039399574890,0.495573236460,-0.486701671649,-0.001735679709,-0.006166557001,3.020812988281,3.632168054581,6.946671485901,0.000539290137,-2.722417656575,2.468586683273,-1.317482296621,1.909164190292,-0.785406414662,-0.021693045273,0.477643281221,-1.330894589424,0.857902765274,0.485768586397,0.012942963280
1.651731000000,0.070280000000,11584.663999999999,-0.085899048572,-0.083603786654,0.442748269598,-0.166764098689,-0.404235854881,-2.324784368887,0.001747054479,0.033546759041,0.496180697581,-0.413690098405,0.002497055690,-0.002379663488,2.990844726562,3.802987813950,7.150456428528,0.000395479437,-2.718545738851,2.458077430725,-1.310580078756,1.912568449974,-0.785334412252,-0.019992884248,0.474997162819,-1.329117655754,0.855649709702,0.412760704756,0.015339808539
1.659727000000,0.072610000000,11584.671999999999,-0.085876491951,-0.083365050128,0.446731565960,-0.168311435791,-0.407596238377,-2.324308216437,-0.000916607519,0.027558800353,0.493982490202,-0.339705814834,-0.008570633265,-0.002066369889,2.867974281311,4.324437618256,7.962599277496,0.000227700279,-2.714734379445,2.447447299957,-1.303833309804,1.915481090546,-0.785214726125,-0.017410682514,0.485517710447,-1.322905063629,0.849465847015,0.338794052601,0.012942963280
1.667720000000,0.074960000000,11584.680000000000,-0.085885684377,-0.083175599053,0.450703048144,-0.169483997036,-0.410233695864,-2.324015748694,-0.002786423051,0.022488022707,0.496284459556,-0.278920338357,-0.007161791116,0.005536044177,2.655198812485,3.991788625717,7.333263397217,0.000047936901,-2.710803333913,2.436866044998,-1.297206703817,1.917746782303,-0.785154644643,-0.013383982703,0.499591976404,-1.326778411865,0.839399099350,0.277986079454,0.016777915880
1.675714000000,0.077330000000,11584.688000000000,-0.085875671842,-0.083033365215,0.454695017452,-0.170303535070,-0.412269492953,-2.323579614496,0.001982459849,0.016571914195,0.497847667927,-0.203368917268,0.005536876551,0.009205845858,2.921917438507,3.578224897385,7.480108261108,-0.000059906636,-2.706883732473,2.426224708557,-1.290412251149,1.919484496117,-0.784914795552,-0.012706474401,0.490413665771,-1.325231552124,0.835684001446,0.202437534928,0.020037624985
1.683719000000,0.079730000000,11584.696000000000,-0.085881128364,-0.082938886343,0.458656430724,-0.170740400703,-0.413723867726,-2.323538156450,0.001234150355,0.010854616386,0.497210914736,-0.135975445982,-0.003747261044,-0.005671083733,2.849993228912,3.668130159378,8.079476356506,-0.000119511281,-2.702904526387,2.415678739548,-1.283737961446,1.920658946037,-0.785022560750,-0.006851781160,0.497214317322,-1.321358323097,0.826887607574,0.135062217712,-0.001989381388
1.691718000000,0.082190000000,11584.704000000000,-0.085838107918,-0.082895042027,0.462681294084,-0.171277675353,-0.414323087901,-2.323187813549,-0.001464561110,0.002666946992,0.502475094315,-0.032432441142,0.005960815413,0.015400644855,3.497310400009,4.078697204590,7.015598773956,-0.000095669423,-2.698925320302,2.405061244965,-1.277291123067,1.921270489693,-0.784854714070,-0.004819256254,0.514982938766,-1.329117655754,0.814423978329,0.031470574439,0.018311897293
